; generated by Slic3r 1.2.9 on 2018-06-25 at 23:20:30

; external perimeters extrusion width = 0.50mm
; perimeters extrusion width = 0.58mm
; infill extrusion width = 0.58mm
; solid infill extrusion width = 0.58mm
; top infill extrusion width = 0.58mm

M107
M190 S80 ; set bed temperature
M104 S225 ; set temperature
G28 ; home all axes
G1 Z5 F5000 ; lift nozzle

M109 S225 ; wait for temperature to be reached
G21 ; set units to millimeters
G90 ; use absolute coordinates
M82 ; use absolute distances for extrusion
G92 E0
G1 Z0.500 F7800.000
G1 E-2.00000 F2400.00000
G92 E0
G1 X70.628 Y70.767 F7800.000
G1 E2.00000 F2400.00000
G1 X72.122 Y69.338 E2.38367 F1800.000
G1 X74.006 Y67.725 E2.84384
G1 X76.320 Y65.990 E3.38050
G1 X78.396 Y64.635 E3.84067
G1 X80.550 Y63.405 E4.30084
G1 X82.399 Y62.481 E4.68451
G1 X84.674 Y61.495 E5.14469
G1 X87.396 Y60.519 E5.68135
G1 X89.780 Y59.836 E6.14152
G1 X92.200 Y59.296 E6.60168
G1 X94.649 Y58.902 E7.06185
G1 X96.705 Y58.686 E7.44553
G1 X99.182 Y58.562 E7.90570
G1 X99.744 Y58.558 E8.01002
G1 X102.073 Y58.605 E8.44238 F1800.000
G1 X104.135 Y58.760 E8.82606
G1 X107.001 Y59.148 E9.36272
G1 X109.029 Y59.548 E9.74639
G1 X111.432 Y60.160 E10.20656
G1 X114.183 Y61.053 E10.74322
G1 X116.487 Y61.971 E11.20340
G1 X118.363 Y62.840 E11.58707
G1 X120.552 Y64.004 E12.04723
G1 X123.012 Y65.524 E12.58388
G1 X125.033 Y66.962 E13.04406
G1 X126.649 Y68.251 E13.42774
G1 X128.798 Y70.186 E13.96440
G1 X130.249 Y71.659 E14.34807
G1 X131.890 Y73.518 E14.80824
G1 X133.659 Y75.806 E15.34490
G1 X135.046 Y77.861 E15.80506
G1 X136.106 Y79.636 E16.18874
G1 X137.438 Y82.203 E16.72540
G1 X138.279 Y84.092 E17.10907
G1 X138.488 Y84.614 E17.21338
G1 X139.296 Y86.799 E17.64575
G1 X139.905 Y88.775 E18.02943
G1 X140.591 Y91.585 E18.56609
G1 X140.960 Y93.619 E18.94977
G1 X141.268 Y96.079 E19.40993
G1 X141.429 Y98.554 E19.87011
G1 X141.429 Y101.446 E20.40676
G1 X141.305 Y103.510 E20.79043
G1 X141.021 Y105.973 E21.25061
G1 X140.505 Y108.819 E21.78727
G1 X139.905 Y111.225 E22.24743
G1 X139.296 Y113.201 E22.63112
G1 X138.279 Y115.908 E23.16776
G1 X137.260 Y118.168 E23.62792
G1 X136.307 Y120.003 E24.01161
G1 X134.824 Y122.486 E24.54826
G1 X133.659 Y124.194 E24.93194
G1 X133.325 Y124.646 E25.03625
G1 X131.890 Y126.482 E25.46863
G1 X130.530 Y128.039 E25.85230
G1 X128.500 Y130.099 E26.38896
G1 X126.964 Y131.483 E26.77264
G1 X125.033 Y133.038 E27.23280
G1 X122.668 Y134.703 E27.76946
G1 X120.552 Y135.996 E28.22964
G1 X118.731 Y136.976 E28.61331
G1 X116.107 Y138.191 E29.14997
G1 X113.795 Y139.086 E29.61011
G1 X111.828 Y139.725 E29.99381
G1 X109.029 Y140.452 E30.53047
G1 X107.001 Y140.852 E30.91414
G1 X106.445 Y140.940 E31.01847
G1 X104.135 Y141.240 E31.45080
G1 X102.073 Y141.395 E31.83450
G1 X99.182 Y141.438 E32.37115
G1 X97.116 Y141.345 E32.75483
G1 X94.649 Y141.098 E33.21500
G1 X91.796 Y140.625 E33.75165
G1 X89.780 Y140.164 E34.13533
G1 X87.396 Y139.481 E34.59550
G1 X84.674 Y138.505 E35.13216
G1 X82.399 Y137.519 E35.59233
G1 X80.550 Y136.595 E35.97600
G1 X78.045 Y135.149 E36.51266
G1 X76.320 Y134.010 E36.89633
G1 X75.862 Y133.682 E37.00065
G1 X74.006 Y132.275 E37.43302
G1 X72.428 Y130.938 E37.81670
G1 X70.338 Y128.940 E38.35336
G1 X68.932 Y127.424 E38.73703
G1 X67.347 Y125.516 E39.19720
G1 X65.648 Y123.177 E39.73386
G1 X64.535 Y121.434 E40.11753
G1 X63.316 Y119.275 E40.57770
G1 X62.061 Y116.669 E41.11435
G1 X61.277 Y114.756 E41.49803
G1 X60.464 Y112.413 E41.95820
G1 X59.695 Y109.626 E42.49485
G1 X59.191 Y107.198 E42.95502
G1 X58.883 Y105.153 E43.33870
G1 X58.624 Y102.273 E43.87535
G1 X58.562 Y99.794 E44.33552
G1 X58.624 Y97.727 E44.71920
G1 X58.834 Y95.256 E45.17938
G1 X59.265 Y92.397 E45.71603
G1 X59.793 Y89.974 E46.17621
G1 X60.343 Y87.981 E46.55988
G1 X61.132 Y85.630 E47.02005
G1 X62.229 Y82.954 E47.55670
G1 X63.126 Y81.091 E47.94038
G1 X64.323 Y78.920 E48.40055
G1 X65.880 Y76.482 E48.93721
G1 X67.347 Y74.484 E49.39738
G1 X68.661 Y72.887 E49.78105
G1 X70.575 Y70.820 E50.30380
G1 E48.30380 F2400.00000
G92 E0
G1 X104.194 Y131.529 F7800.000
G1 E2.00000 F2400.00000
G1 X104.194 Y131.956 E2.07930 F1800.000
G1 X104.010 Y132.247 E2.14320
G1 X103.696 Y132.383 E2.20671
G1 X102.864 Y132.354 E2.36102
G1 X101.986 Y132.384 E2.52415
G1 X101.851 Y132.306 E2.55295
G1 X101.674 Y132.383 E2.58882
G1 X100.843 Y132.354 E2.74313
G1 X99.964 Y132.384 E2.90627
G1 X99.900 Y132.347 E2.92004
G1 X99.825 Y132.384 E2.93567
G1 X99.114 Y132.354 E3.06776
G1 X98.345 Y132.383 E3.21043
G1 X98.056 Y132.259 E3.26881
G1 X97.754 Y132.383 E3.32940
G1 X96.927 Y132.354 E3.48309
G1 X96.131 Y132.383 E3.63088
G1 X95.741 Y132.200 E3.71082
G1 X95.621 Y131.728 E3.80120
G1 X95.737 Y131.302 E3.88305
G1 X96.074 Y131.132 E3.95311
G1 X96.237 Y131.101 E3.98404
G1 X97.049 Y129.888 E4.25483
G1 X96.237 Y128.741 E4.51556
G1 X96.063 Y128.530 E4.56652
G1 X95.915 Y128.497 E4.59454
G1 X95.583 Y128.320 E4.66428
G1 X95.476 Y127.898 E4.74514
G1 X95.589 Y127.444 E4.83200
G1 X96.005 Y127.262 E4.91621
G1 X96.699 Y127.288 E5.04501
G1 X97.457 Y127.263 E5.18575
G1 X97.884 Y127.418 E5.27002
G1 X98.275 Y127.263 E5.34803
G1 X99.104 Y127.288 E5.50201
G1 X99.864 Y127.262 E5.64311
G1 X99.963 Y127.298 E5.66267
G1 X100.058 Y127.263 E5.68139
G1 X100.845 Y127.288 E5.82744
G1 X101.807 Y127.281 E6.00590
G1 X101.882 Y127.335 E6.02317
G1 X102.080 Y127.263 E6.06211
G1 X102.866 Y127.288 E6.20816
G1 X103.828 Y127.281 E6.38661
G1 X104.153 Y127.512 E6.46068
G1 X104.245 Y127.900 E6.53467
G1 X104.153 Y128.266 E6.60466
G1 X103.873 Y128.483 E6.67038
G1 X103.659 Y128.517 E6.71064
G1 X103.663 Y131.126 E7.19474
G1 X103.953 Y131.178 E7.24937
G1 X104.151 Y131.467 E7.31444
G1 X104.599 Y131.664 F7800.000
G1 E5.31444 F2400.00000
G92 E0
G1 X99.358 Y132.860 F7800.000
G1 X97.522 Y133.168 F7800.000
G1 X95.996 Y133.089 F7800.000
G1 X93.702 Y131.480 F7800.000
G1 X93.432 Y129.924 F7800.000
G1 X94.146 Y129.895 F7800.000
G1 X94.376 Y129.884 F7800.000
G1 X94.560 Y129.877 F7800.000
G1 X94.657 Y129.876 F7800.000
G1 X94.654 Y129.848 F7800.000
G1 E2.00000 F2400.00000
G1 X94.223 Y130.066 E2.08967 F1800.000
G1 X93.787 Y131.665 E2.39721
G1 X91.889 Y131.232 E2.75854
G1 X90.036 Y130.690 E3.11682
G1 X88.218 Y130.039 E3.47511
G1 X86.626 Y129.358 E3.79647
G1 X87.630 Y128.925 E3.99935
G1 X88.386 Y127.731 E4.26163
G1 X88.386 Y126.231 E4.54000
G1 X87.981 Y125.643 E4.67245
G1 X88.243 Y125.331 E4.74801
G1 X89.325 Y125.823 E4.96871
G1 X91.005 Y126.460 E5.30195
G1 X92.851 Y127.018 E5.65999
G1 X93.801 Y127.235 E5.84080
G1 X93.636 Y127.902 E5.96838
G1 X94.047 Y129.526 E6.27919
G1 X94.588 Y129.813 E6.39292
G1 X95.968 Y129.906 F7800.000
G1 X95.692 Y130.325 E6.48604 F1800.000
G1 X94.980 Y130.684 E6.63405
G1 X94.697 Y131.721 E6.83339
G1 X94.964 Y132.764 E7.03326
G1 X93.599 Y132.538 E7.29003
G1 X91.664 Y132.096 E7.65823
G1 X89.760 Y131.540 E8.02644
G1 X87.892 Y130.870 E8.39464
G1 X86.068 Y130.090 E8.76284
G1 X84.293 Y129.203 E9.13104
G1 X83.839 Y128.941 E9.22825
G1 X83.937 Y128.549 E9.30320
G1 X85.271 Y128.504 E9.55079
G1 X86.272 Y128.539 E9.73670
G1 X87.023 Y128.214 E9.88850
G1 X87.494 Y127.472 E10.05159
G1 X87.493 Y126.508 E10.23042
G1 X86.961 Y125.735 E10.40461
G1 X86.959 Y124.343 E10.66298
G1 X87.458 Y123.957 E10.78007
G1 X87.852 Y124.172 E10.86341
G1 X89.669 Y124.999 E11.23378
G1 X91.292 Y125.614 E11.55596
G1 X93.080 Y126.155 E11.90256
G1 X94.887 Y126.567 E12.24648
G1 X94.556 Y127.900 E12.50135
G1 X94.815 Y128.923 E12.69718
G1 X95.548 Y129.312 E12.85111
G1 X95.925 Y129.845 E12.97225
G1 X93.702 Y131.480 F7800.000
G1 X95.083 Y132.762 F7800.000
G1 X97.783 Y133.181 F7800.000
G1 X101.713 Y133.197 F7800.000
G1 X103.826 Y133.101 F7800.000
G1 X104.976 Y132.646 F7800.000
G1 X105.445 Y132.287 F7800.000
G1 X105.736 Y131.990 F7800.000
G1 X105.944 Y131.754 F7800.000
G1 X105.979 Y131.699 F7800.000
G1 X105.979 Y130.974 E13.10670 F1800.000
G1 X105.447 Y130.200 E13.28099
G1 X105.446 Y129.524 E13.40656
G1 X105.734 Y129.300 E13.47426
G1 X106.082 Y127.913 E13.73978
G1 X105.939 Y127.304 E13.85573
G1 X106.227 Y127.249 E13.91026
G1 X108.092 Y126.755 E14.26831
G1 X109.919 Y126.134 E14.62635
G1 X111.698 Y125.387 E14.98440
G1 X113.544 Y124.459 E15.36772
G1 X114.122 Y125.301 E15.55715
G1 X114.120 Y125.802 E15.65017
G1 X113.964 Y125.874 E15.68222
G1 X113.503 Y127.434 E15.98403
G1 X113.630 Y128.305 E16.14731
G1 X113.980 Y129.075 E16.30440
G1 X112.690 Y129.673 E16.56812
G1 X110.893 Y130.378 E16.92641
G1 X109.057 Y130.975 E17.28469
G1 X107.188 Y131.461 E17.64298
G1 X106.053 Y131.684 E17.85773
G1 X104.707 Y132.814 F7800.000
G1 X105.087 Y132.215 E17.98927 F1800.000
G1 X105.086 Y131.252 E18.16811
G1 X104.555 Y130.478 E18.34229
G1 X104.552 Y129.086 E18.60067
G1 X104.944 Y128.783 E18.69248
G1 X105.164 Y127.906 E18.86024
G1 X104.944 Y126.980 E19.03691
G1 X104.509 Y126.670 E19.13602
G1 X106.028 Y126.378 E19.42304
G1 X107.834 Y125.900 E19.76965
G1 X109.602 Y125.298 E20.11625
G1 X111.325 Y124.576 E20.46286
G1 X112.993 Y123.737 E20.80946
G1 X114.480 Y122.856 E21.13012
G1 X114.480 Y124.246 E21.38815
G1 X115.015 Y125.024 E21.56338
G1 X115.012 Y126.372 E21.81353
G1 X114.705 Y126.514 E21.87618
G1 X114.414 Y127.499 E22.06677
G1 X114.495 Y128.051 E22.17016
G1 X114.775 Y128.667 E22.29572
G1 X115.678 Y129.210 E22.49133
G1 X114.842 Y129.660 E22.66750
G1 X113.042 Y130.494 E23.03570
G1 X111.195 Y131.219 E23.40390
G1 X109.307 Y131.832 E23.77210
G1 X107.387 Y132.331 E24.14031
G1 X105.440 Y132.715 E24.50851
G1 X104.782 Y132.804 E24.63186
G1 X115.326 Y127.565 F7800.000
G1 X115.447 Y127.154 E24.71122 F1800.000
G1 X115.903 Y126.943 E24.80448
G1 X115.909 Y124.373 E25.28131
G1 X115.614 Y124.320 E25.33705
G1 X115.373 Y123.969 E25.41604
G1 X115.373 Y123.541 E25.49533
G1 X115.557 Y123.251 E25.55923
G1 X115.871 Y123.115 E25.62274
G1 X116.703 Y123.144 E25.77722
G1 X117.559 Y123.113 E25.93613
G1 X117.835 Y123.248 E25.99319
G1 X118.025 Y123.525 E26.05550
G1 X118.039 Y123.793 E26.10531
G1 X117.996 Y124.060 E26.15545
G1 X117.736 Y124.338 E26.22625
G1 X117.478 Y124.379 E26.27475
G1 X117.485 Y126.991 E26.75945
G1 X117.753 Y127.033 E26.80979
G1 X118.013 Y127.414 E26.89540
G1 X117.991 Y127.850 E26.97635
G1 X117.786 Y128.126 E27.04012
G1 X117.487 Y128.234 E27.09918
G1 X116.697 Y128.210 E27.24576
G1 X115.767 Y128.222 E27.41851
G1 X115.473 Y128.045 E27.48219
G1 X115.360 Y127.797 E27.53279
G1 X115.337 Y127.639 E27.56237
G1 X114.990 Y127.300 F7800.000
G1 E25.56237 F2400.00000
G92 E0
G1 X117.978 Y126.635 F7800.000
G1 X118.817 Y126.242 F7800.000
G1 X119.326 Y125.770 F7800.000
G1 X119.501 Y125.407 F7800.000
G1 X119.546 Y125.363 F7800.000
G1 X119.797 Y125.475 F7800.000
G1 E2.00000 F2400.00000
G1 X119.459 Y125.109 E2.09237 F1800.000
G1 X119.672 Y124.881 E2.15036
G1 X119.832 Y123.889 E2.33677
G1 X119.782 Y122.930 E2.51506
G1 X119.041 Y121.849 E2.75818
G1 X118.042 Y121.363 E2.96448
G1 X119.600 Y119.933 E3.35688
G1 X120.928 Y118.534 E3.71493
G1 X122.389 Y116.766 E4.14054
G1 X123.101 Y118.227 E4.44217
G1 X124.333 Y118.939 E4.70610
G1 X126.185 Y118.876 E5.05003
G1 X124.933 Y120.495 E5.42971
G1 X123.663 Y121.949 E5.78800
G1 X122.308 Y123.324 E6.14628
G1 X120.873 Y124.616 E6.50457
G1 X119.856 Y125.428 E6.74613
G1 X118.949 Y127.203 F7800.000
G1 X118.376 Y126.362 E6.93505 F1800.000
G1 X118.372 Y124.965 E7.19431
G1 X118.834 Y124.470 E7.31998
G1 X118.936 Y123.841 E7.43825
G1 X118.903 Y123.227 E7.55230
G1 X118.438 Y122.548 E7.70502
G1 X117.745 Y122.211 E7.84807
G1 X116.705 Y122.250 E8.04121
G1 X116.053 Y122.228 E8.16231
G1 X115.944 Y121.856 E8.23414
G1 X116.137 Y121.723 E8.27764
G1 X117.597 Y120.559 E8.62424
G1 X118.974 Y119.296 E8.97084
G1 X120.260 Y117.942 E9.31745
G1 X121.449 Y116.502 E9.66405
G1 X122.539 Y114.981 E10.01126
G1 X123.575 Y113.282 E10.38044
G1 X123.991 Y113.893 E10.51755
G1 X123.984 Y115.277 E10.77446
G1 X123.783 Y115.380 E10.81638
G1 X123.442 Y116.136 E10.97028
G1 X123.435 Y116.875 E11.10739
G1 X123.784 Y117.591 E11.25514
G1 X124.558 Y118.038 E11.42100
G1 X125.662 Y118.001 E11.62592
G1 X126.579 Y118.038 E11.79639
G1 X127.858 Y117.995 E12.03378
G1 X126.837 Y119.493 E12.37015
G1 X125.623 Y121.062 E12.73836
G1 X124.318 Y122.556 E13.10656
G1 X122.925 Y123.970 E13.47476
G1 X121.451 Y125.298 E13.84296
G1 X119.899 Y126.535 E14.21116
G1 X119.011 Y127.160 E14.41284
G1 X124.467 Y116.954 F7800.000
G1 X124.330 Y116.673 E14.47094 F1800.000
G1 X124.333 Y116.332 E14.53424
G1 X124.468 Y116.032 E14.59528
G1 X124.874 Y115.824 E14.67984
G1 X124.876 Y113.260 E15.15572
G1 X124.611 Y113.218 E15.20540
G1 X124.351 Y112.837 E15.29101
G1 X124.374 Y112.401 E15.37197
G1 X124.578 Y112.125 E15.43573
G1 X124.877 Y112.017 E15.49477
G1 X125.664 Y112.041 E15.64082
G1 X126.625 Y112.034 E15.81927
G1 X126.701 Y112.088 E15.83655
G1 X126.899 Y112.017 E15.87549
G1 X127.685 Y112.041 E16.02155
G1 X128.647 Y112.034 E16.19999
G1 X128.972 Y112.265 E16.27406
G1 X129.064 Y112.653 E16.34805
G1 X128.972 Y113.019 E16.41805
G1 X128.692 Y113.236 E16.48377
G1 X128.478 Y113.270 E16.52403
G1 X128.482 Y115.879 E17.00813
G1 X128.772 Y115.931 E17.06275
G1 X129.013 Y116.282 E17.14174
G1 X129.013 Y116.710 E17.22104
G1 X128.829 Y117.000 E17.28494
G1 X128.514 Y117.136 E17.34846
G1 X127.683 Y117.108 E17.50276
G1 X126.805 Y117.137 E17.66590
G1 X126.670 Y117.059 E17.69469
G1 X126.493 Y117.136 E17.73057
G1 X125.662 Y117.108 E17.88487
G1 X124.783 Y117.137 E18.04801
G1 X124.532 Y116.992 E18.10189
G1 X124.156 Y116.994 F7800.000
G1 X126.646 Y117.606 F7800.000
G1 X124.163 Y119.861 F7800.000
G1 X123.317 Y115.007 F7800.000
G1 X123.982 Y111.896 F7800.000
G1 X128.102 Y108.760 F7800.000
G1 X130.356 Y111.724 F7800.000
G1 X130.144 Y113.147 F7800.000
G1 X129.923 Y113.641 F7800.000
G1 X129.782 Y113.877 F7800.000
G1 X129.701 Y113.995 F7800.000
G1 X129.643 Y114.271 F7800.000
G1 X129.372 Y114.493 F7800.000
G1 X129.371 Y113.839 E18.22322 F1800.000
G1 X129.854 Y113.466 E18.33650
G1 X130.182 Y113.724 E18.41394
G1 X129.781 Y114.592 E18.59152
G1 X129.445 Y114.511 E18.65559
G1 X130.317 Y111.031 F7800.000
G1 X129.231 Y110.258 E18.90280 F1800.000
G1 X128.250 Y110.241 E19.08494
G1 X127.691 Y110.255 E19.18866
G1 X126.613 Y110.221 E19.38882
G1 X126.543 Y110.247 E19.40269
G1 X126.010 Y110.238 E19.50153
G1 X126.656 Y108.417 E19.86006
G1 X127.145 Y106.689 E20.19329
G1 X127.542 Y104.801 E20.55134
G1 X127.620 Y104.238 E20.65681
G1 X128.261 Y104.216 E20.77578
G1 X128.916 Y104.239 E20.89732
G1 X128.954 Y104.261 E20.90553
G1 X130.283 Y104.216 E21.15221
G1 X130.937 Y104.239 E21.27375
G1 X130.975 Y104.261 E21.28196
G1 X131.987 Y104.227 E21.46978
G1 X131.917 Y104.810 E21.57871
G1 X131.572 Y106.709 E21.93699
G1 X131.114 Y108.585 E22.29528
G1 X130.547 Y110.425 E22.65270
G1 X130.343 Y110.961 E22.75900
G1 X129.805 Y113.369 F7800.000
G1 X129.983 Y112.660 E22.89474 F1800.000
G1 X129.763 Y111.733 E23.07143
G1 X128.939 Y111.146 E23.25920
G1 X128.253 Y111.134 E23.38650
G1 X127.688 Y111.148 E23.49138
G1 X126.756 Y111.119 E23.66448
G1 X126.692 Y111.142 E23.67716
G1 X125.667 Y111.148 E23.86735
G1 X124.659 Y111.117 E24.05451
G1 X125.138 Y110.027 E24.27547
G1 X125.805 Y108.145 E24.64585
G1 X126.278 Y106.475 E24.96803
G1 X126.662 Y104.647 E25.31463
G1 X126.865 Y103.191 E25.58753
G1 X127.158 Y103.360 E25.65036
G1 X128.261 Y103.323 E25.85527
G1 X129.179 Y103.360 E26.02574
G1 X130.283 Y103.323 E26.23066
G1 X131.201 Y103.360 E26.40112
G1 X132.304 Y103.323 E26.60604
G1 X132.992 Y103.347 E26.73371
G1 X132.800 Y104.943 E27.03204
G1 X132.446 Y106.895 E27.40024
G1 X131.975 Y108.823 E27.76844
G1 X131.391 Y110.716 E28.13612
G1 X130.634 Y112.710 E28.53207
G1 X130.269 Y113.529 E28.69840
G1 X129.876 Y113.394 E28.77562
G1 E26.77562 F2400.00000
G92 E0
G1 X130.036 Y113.413 F7800.000
G1 X132.007 Y95.611 F7800.000
G1 X131.962 Y95.566 F7800.000
