; generated by Slic3r 1.2.9 on 2018-06-25 at 21:31:05

; external perimeters extrusion width = 0.50mm
; perimeters extrusion width = 0.58mm
; infill extrusion width = 0.58mm
; solid infill extrusion width = 0.58mm
; top infill extrusion width = 0.58mm

M107
M190 S80 ; set bed temperature
M104 S225 ; set temperature
G28 ; home all axes
G1 Z5 F5000 ; lift nozzle

M109 S225 ; wait for temperature to be reached
G21 ; set units to millimeters
G90 ; use absolute coordinates
M82 ; use absolute distances for extrusion
G92 E0
G1 Z0.500 F7800.000
G1 E-2.00000 F2400.00000
G92 E0
G1 X73.837 Y73.930 F7800.000
G1 E2.00000 F2400.00000
G1 X75.137 Y72.687 E2.33363 F1800.000
G1 X76.815 Y71.249 E2.74376
G1 X78.913 Y69.676 E3.23037
G1 X80.764 Y68.469 E3.64050
G1 X82.684 Y67.375 E4.05062
G1 X84.667 Y66.397 E4.46075
G1 X86.320 Y65.690 E4.79438
G1 X88.396 Y64.933 E5.20451
G1 X90.514 Y64.302 E5.61464
G1 X93.070 Y63.718 E6.10125
G1 X94.844 Y63.424 E6.43488
G1 X97.041 Y63.180 E6.84500
G1 X99.248 Y63.069 E7.25513
G1 X99.810 Y63.065 E7.35945
G1 X101.870 Y63.108 E7.74178 F1800.000
G1 X103.663 Y63.242 E8.07541
G1 X106.261 Y63.594 E8.56203
G1 X108.025 Y63.942 E8.89565
G1 X110.167 Y64.486 E9.30578
G1 X112.661 Y65.296 E9.79239
G1 X114.714 Y66.115 E10.20252
G1 X116.714 Y67.055 E10.61264
G1 X118.297 Y67.907 E10.94628
G1 X120.528 Y69.286 E11.43289
G1 X121.998 Y70.321 E11.76652
G1 X123.734 Y71.689 E12.17665
G1 X125.682 Y73.444 E12.66326
G1 X126.944 Y74.724 E12.99689
G1 X128.408 Y76.381 E13.40702
G1 X130.012 Y78.455 E13.89363
G1 X131.024 Y79.940 E14.22726
G1 X131.323 Y80.417 E14.33157
G1 X132.369 Y82.192 E14.71391
G1 X133.198 Y83.787 E15.04753
G1 X134.264 Y86.183 E15.53414
G1 X134.896 Y87.866 E15.86778
G1 X135.559 Y89.974 E16.27790
G1 X136.181 Y92.522 E16.76452
G1 X136.563 Y94.698 E17.17464
G1 X136.778 Y96.483 E17.50827
G1 X136.922 Y98.689 E17.91840
G1 X136.922 Y101.311 E18.40502
G1 X136.815 Y103.106 E18.73864
G1 X136.563 Y105.302 E19.14878
G1 X136.095 Y107.882 E19.63539
G1 X135.559 Y110.026 E20.04551
G1 X135.029 Y111.744 E20.37914
G1 X134.108 Y114.199 E20.86575
G1 X133.376 Y115.841 E21.19938
G1 X132.369 Y117.808 E21.60951
G1 X131.024 Y120.060 E22.09612
G1 X130.012 Y121.545 E22.42976
G1 X128.670 Y123.301 E22.83988
G1 X127.225 Y124.973 E23.25001
G1 X125.384 Y126.841 E23.73663
G1 X123.734 Y128.311 E24.14674
G1 X122.328 Y129.432 E24.48038
G1 X120.184 Y130.941 E24.96697
G1 X118.654 Y131.886 E25.30062
G1 X116.714 Y132.945 E25.71075
G1 X114.335 Y134.047 E26.19737
G1 X112.273 Y134.843 E26.60749
G1 X110.563 Y135.398 E26.94112
G1 X108.025 Y136.058 E27.42773
G1 X106.261 Y136.406 E27.76136
G1 X104.073 Y136.714 E28.17150
G1 X101.458 Y136.910 E28.65810
G1 X99.248 Y136.931 E29.06823
G1 X97.452 Y136.850 E29.40186
G1 X95.253 Y136.632 E29.81199
G1 X92.666 Y136.202 E30.29859
G1 X90.514 Y135.698 E30.70871
G1 X88.788 Y135.194 E31.04236
G1 X86.320 Y134.310 E31.52897
G1 X84.292 Y133.430 E31.93910
G1 X82.684 Y132.625 E32.27273
G1 X80.413 Y131.314 E32.75934
G1 X78.913 Y130.324 E33.09297
G1 X78.456 Y129.997 E33.19728
G1 X76.815 Y128.751 E33.57961
G1 X75.443 Y127.589 E33.91325
G1 X73.548 Y125.776 E34.39985
G1 X72.325 Y124.458 E34.73349
G1 X70.912 Y122.759 E35.14362
G1 X69.371 Y120.638 E35.63023
G1 X68.403 Y119.123 E35.96386
G1 X67.316 Y117.198 E36.37399
G1 X66.178 Y114.836 E36.86060
G1 X65.351 Y112.786 E37.27073
G1 X64.770 Y111.085 E37.60436
G1 X64.170 Y108.958 E38.01448
G1 X63.625 Y106.393 E38.50110
G1 X63.308 Y104.206 E38.91122
G1 X63.147 Y102.415 E39.24485
G1 X63.068 Y99.794 E39.73145
G1 X63.122 Y97.997 E40.06510
G1 X63.308 Y95.795 E40.47523
G1 X63.699 Y93.202 E40.96184
G1 X64.073 Y91.443 E41.29547
G1 X64.649 Y89.309 E41.70559
G1 X65.351 Y87.214 E42.11572
G1 X66.346 Y84.787 E42.60234
G1 X67.316 Y82.802 E43.01246
G1 X68.191 Y81.231 E43.34609
G1 X69.603 Y79.022 E43.83271
G1 X70.912 Y77.241 E44.24283
G1 X72.054 Y75.852 E44.57646
G1 X73.785 Y73.983 E45.04917
G1 E43.04917 F2400.00000
G92 E0
G1 X103.531 Y128.093 F7800.000
G1 E2.00000 F2400.00000
G1 X103.226 Y128.225 E2.06168 F1800.000
G1 X102.491 Y128.199 E2.19817
G1 X101.708 Y128.226 E2.34357
G1 X101.605 Y128.165 E2.36561
G1 X101.468 Y128.225 E2.39338
G1 X100.733 Y128.199 E2.52987
G1 X99.897 Y128.228 E2.68519
G1 X99.229 Y128.200 E2.80916
G1 X98.549 Y128.225 E2.93550
G1 X98.309 Y128.122 E2.98389
G1 X98.059 Y128.225 E3.03408
G1 X97.328 Y128.199 E3.16991
G1 X96.617 Y128.225 E3.30192
G1 X96.212 Y128.025 E3.38569
G1 X96.127 Y127.559 E3.47360
G1 X96.276 Y127.101 E3.56304
G1 X96.679 Y126.994 E3.64037
G1 X97.353 Y125.989 E3.86509
G1 X96.676 Y125.032 E4.08255
G1 X96.540 Y124.867 E4.12224
G1 X96.425 Y124.841 E4.14411
G1 X96.103 Y124.670 E4.21174
G1 X95.999 Y124.259 E4.29044
G1 X96.109 Y123.817 E4.37499
G1 X96.514 Y123.641 E4.45695
G1 X97.130 Y123.663 E4.57126
G1 X97.799 Y123.642 E4.69556
G1 X98.159 Y123.772 E4.76659
G1 X98.488 Y123.642 E4.83233
G1 X99.221 Y123.663 E4.96837
G1 X99.892 Y123.640 E5.09290
G1 X99.968 Y123.668 E5.10791
G1 X100.038 Y123.642 E5.12177
G1 X100.735 Y123.663 E5.25115
G1 X101.233 Y123.651 E5.34362
G1 X101.592 Y123.658 E5.41032
G1 X101.647 Y123.697 E5.42284
G1 X101.796 Y123.642 E5.45223
G1 X102.493 Y123.663 E5.58161
G1 X103.350 Y123.658 E5.74074
G1 X103.669 Y123.885 E5.81343
G1 X103.758 Y124.262 E5.88527
G1 X103.669 Y124.617 E5.95328
G1 X103.404 Y124.822 E6.01543
G1 X103.247 Y124.854 E6.04525
G1 X103.251 Y127.011 E6.44549
G1 X103.476 Y127.052 E6.48795
G1 X103.712 Y127.396 E6.56542
G1 X103.712 Y127.807 E6.64164
G1 X103.571 Y128.030 E6.69054
G1 X103.559 Y128.424 F7800.000
G1 X98.993 Y128.704 F7800.000
G1 X98.097 Y128.855 F7800.000
G1 X97.329 Y128.806 F7800.000
G1 X96.568 Y128.783 F7800.000
G1 X95.129 Y128.051 F7800.000
G1 X94.595 Y127.474 F7800.000
G1 X94.526 Y127.378 F7800.000
G1 X94.368 Y127.148 F7800.000
G1 X94.374 Y127.176 F7800.000
G1 X92.883 Y126.829 E6.97460 F1800.000
G1 X91.428 Y126.404 E7.25602
G1 X89.864 Y125.843 E7.56426
G1 X89.308 Y125.606 E7.67639
G1 X90.199 Y124.200 E7.98515
G1 X90.199 Y122.545 E8.29228
G1 X90.619 Y122.737 E8.37806
G1 X92.082 Y123.291 E8.66828
G1 X93.708 Y123.782 E8.98344
G1 X94.247 Y123.906 E9.08620
G1 X94.158 Y124.263 E9.15462
G1 X94.567 Y125.876 E9.46324
G1 X94.762 Y125.979 E9.50432
G1 X94.397 Y127.105 E9.72389
G1 X95.577 Y126.362 F7800.000
G1 X95.208 Y127.498 E9.94553 F1800.000
G1 X95.348 Y128.261 E10.08952
G1 X94.472 Y128.116 E10.25429
G1 X92.657 Y127.693 E10.60020
G1 X91.152 Y127.253 E10.89115
G1 X89.538 Y126.675 E11.20931
G1 X87.961 Y126.001 E11.52747
G1 X86.735 Y125.388 E11.78185
G1 X86.824 Y124.981 E11.85916
G1 X87.192 Y124.968 E11.92744
G1 X88.097 Y124.999 E12.09551
G1 X88.839 Y124.679 E12.24549
G1 X89.306 Y123.942 E12.40750
G1 X89.306 Y122.994 E12.58324
G1 X88.844 Y122.322 E12.73475
G1 X88.842 Y121.257 E12.93239
G1 X89.111 Y121.048 E12.99556
G1 X89.356 Y121.182 E13.04731
G1 X90.963 Y121.912 E13.37481
G1 X92.370 Y122.445 E13.65402
G1 X93.936 Y122.919 E13.95774
G1 X95.333 Y123.238 E14.22362
G1 X95.079 Y124.261 E14.41933
G1 X95.335 Y125.273 E14.61300
G1 X96.005 Y125.629 E14.75381
G1 X96.375 Y126.151 E14.87250
G1 X95.649 Y126.343 E15.01172
G1 X94.963 Y127.888 F7800.000
G1 X95.735 Y128.518 F7800.000
G1 X96.547 Y128.780 F7800.000
G1 X100.734 Y128.864 F7800.000
G1 X102.796 Y128.807 F7800.000
G1 X103.302 Y128.790 F7800.000
G1 X104.626 Y128.171 F7800.000
G1 X104.891 Y127.921 F7800.000
G1 X105.182 Y127.597 F7800.000
G1 X105.392 Y127.324 F7800.000
G1 X105.497 Y127.202 F7800.000
G1 X105.497 Y126.842 E15.07853 F1800.000
G1 X105.034 Y126.168 E15.23015
G1 X105.034 Y125.819 E15.29498
G1 X105.250 Y125.652 E15.34575
G1 X105.596 Y124.274 E15.60929
G1 X105.525 Y123.974 E15.66651
G1 X107.123 Y123.551 E15.97329
G1 X108.731 Y123.004 E16.28846
G1 X110.297 Y122.347 E16.60362
G1 X111.679 Y121.652 E16.89060
G1 X111.961 Y122.063 E16.98306
G1 X111.437 Y123.834 E17.32580
G1 X111.635 Y125.196 E17.58122
G1 X110.918 Y125.528 E17.72794
G1 X109.372 Y126.135 E18.03618
G1 X107.792 Y126.648 E18.34442
G1 X106.184 Y127.066 E18.65266
G1 X105.571 Y127.187 E18.76868
G1 X104.605 Y128.287 F7800.000
G1 X104.605 Y127.119 E18.98547 F1800.000
G1 X104.142 Y126.446 E19.13697
G1 X104.140 Y125.381 E19.33462
G1 X104.460 Y125.134 E19.40951
G1 X104.677 Y124.268 E19.57529
G1 X104.443 Y123.276 E19.76438
G1 X105.283 Y123.115 E19.92309
G1 X106.865 Y122.696 E20.22682
G1 X108.414 Y122.168 E20.53054
G1 X109.924 Y121.536 E20.83426
G1 X111.386 Y120.800 E21.13799
G1 X112.409 Y120.193 E21.35885
G1 X112.410 Y121.140 E21.53454
G1 X112.875 Y121.816 E21.68686
G1 X112.872 Y122.816 E21.87241
G1 X112.637 Y122.926 E21.92065
G1 X112.349 Y123.899 E22.10901
G1 X112.459 Y124.660 E22.25163
G1 X113.159 Y125.449 E22.44734
G1 X112.825 Y125.629 E22.51782
G1 X111.269 Y126.349 E22.83598
G1 X109.673 Y126.976 E23.15414
G1 X108.042 Y127.506 E23.47229
G1 X106.383 Y127.937 E23.79045
G1 X104.679 Y128.273 E24.11281
G1 X113.260 Y123.964 F7800.000
G1 X113.378 Y123.566 E24.18994 F1800.000
G1 X113.764 Y123.387 E24.26879
G1 X113.769 Y121.249 E24.66560
G1 X113.539 Y121.207 E24.70898
G1 X113.302 Y120.863 E24.78646
G1 X113.302 Y120.452 E24.86267
G1 X113.484 Y120.166 E24.92549
G1 X113.789 Y120.034 E24.98717
G1 X114.525 Y120.060 E25.12382
G1 X115.282 Y120.033 E25.26452
G1 X115.553 Y120.164 E25.32041
G1 X115.738 Y120.435 E25.38119
G1 X115.752 Y120.693 E25.42920
G1 X115.710 Y120.951 E25.47777
G1 X115.455 Y121.225 E25.54719
G1 X115.263 Y121.255 E25.58316
G1 X115.269 Y123.415 E25.98395
G1 X115.475 Y123.447 E26.02262
G1 X115.730 Y123.820 E26.10636
G1 X115.709 Y124.224 E26.18154
G1 X115.528 Y124.503 E26.24318
G1 X115.219 Y124.617 E26.30428
G1 X114.519 Y124.595 E26.43422
G1 X113.606 Y124.607 E26.60366
G1 X113.304 Y124.267 E26.68801
G1 X113.271 Y124.039 E26.73085
G1 X112.934 Y123.707 F7800.000
G1 E24.73085 F2400.00000
G92 E0
G1 X115.764 Y123.092 F7800.000
G1 X116.805 Y122.409 F7800.000
G1 X117.334 Y121.665 F7800.000
G1 X117.502 Y121.434 F7800.000
G1 X117.615 Y121.261 F7800.000
G1 X117.492 Y121.116 F7800.000
G1 E2.00000 F2400.00000
G1 X117.545 Y120.789 E2.06141 F1800.000
G1 X117.495 Y119.839 E2.23793
G1 X116.759 Y118.766 E2.47948
G1 X116.212 Y118.499 E2.59245
G1 X117.345 Y117.449 E2.87924
G1 X118.422 Y116.314 E3.16946
G1 X119.412 Y115.115 E3.45808
G1 X119.799 Y116.018 E3.64021
G1 X121.072 Y116.770 E3.91457
G1 X122.146 Y116.733 E4.11403
G1 X121.451 Y117.632 E4.32488
G1 X120.358 Y118.883 E4.63312
G1 X119.192 Y120.066 E4.94136
G1 X117.825 Y121.297 E5.28276
G1 X117.558 Y121.152 E5.33920
G1 X116.524 Y123.400 F7800.000
G1 X116.161 Y122.868 E5.45888 F1800.000
G1 X116.158 Y121.780 E5.66066
G1 X116.548 Y121.362 E5.76685
G1 X116.648 Y120.741 E5.88355
G1 X116.617 Y120.137 E5.99581
G1 X116.156 Y119.465 E6.14698
G1 X115.469 Y119.130 E6.28885
G1 X114.566 Y119.165 E6.45652
G1 X114.433 Y118.803 E6.52817
G1 X115.423 Y118.013 E6.76321
G1 X116.717 Y116.813 E7.09071
G1 X117.753 Y115.722 E7.36992
G1 X118.796 Y114.460 E7.67364
G1 X119.751 Y113.127 E7.97805
G1 X120.287 Y112.246 E8.16931
G1 X120.679 Y112.357 E8.24486
G1 X120.674 Y113.163 E8.39440
G1 X120.315 Y113.338 E8.46864
G1 X120.166 Y114.606 E8.70559
G1 X120.504 Y115.398 E8.86537
G1 X121.302 Y115.869 E9.03720
G1 X122.314 Y115.835 E9.22525
G1 X123.059 Y115.869 E9.36365
G1 X123.873 Y115.841 E9.51462
G1 X123.189 Y116.843 E9.73966
G1 X122.141 Y118.200 E10.05781
G1 X121.013 Y119.491 E10.37597
G1 X119.809 Y120.712 E10.69413
G1 X118.535 Y121.859 E11.01228
G1 X117.195 Y122.928 E11.33044
G1 X116.585 Y123.357 E11.46876
G1 E9.46876 F2400.00000
G92 E0
G1 X116.502 Y123.432 F7800.000
G1 X123.000 Y108.628 F7800.000
G1 X123.044 Y108.587 F7800.000
G1 E2.00000 F2400.00000
G1 X123.487 Y107.326 E2.24793 F1800.000
G1 X123.894 Y105.888 E2.52539
G1 X124.244 Y104.226 E2.84055
G1 X124.278 Y103.974 E2.88763
G1 X125.047 Y103.981 E3.03026
G1 X125.090 Y104.006 E3.03957
G1 X125.650 Y104.001 E3.14345
G1 X125.685 Y103.986 E3.15056
G1 X126.333 Y103.964 E3.27076
G1 X126.805 Y103.981 E3.35846
G1 X126.848 Y104.006 E3.36776
G1 X127.487 Y103.985 E3.48635
G1 X127.162 Y105.772 E3.82345
G1 X126.769 Y107.386 E4.13169
G1 X126.230 Y109.132 E4.47082
G1 X125.517 Y108.624 E4.63320
G1 X124.566 Y108.607 E4.80966
G1 X124.080 Y108.619 E4.89992
G1 X123.119 Y108.589 E5.07836
G1 X121.717 Y109.493 F7800.000
G1 X122.029 Y108.784 E5.22222 F1800.000
G1 X122.635 Y107.056 E5.56194
G1 X123.027 Y105.674 E5.82859
G1 X123.364 Y104.072 E6.13231
G1 X123.498 Y103.107 E6.31308
G1 X124.575 Y103.071 E6.51313
G1 X125.320 Y103.105 E6.65154
G1 X126.333 Y103.071 E6.83958
G1 X127.078 Y103.105 E6.97799
G1 X128.091 Y103.071 E7.16603
G1 X128.485 Y103.085 E7.23918
G1 X128.342 Y104.271 E7.46087
G1 X128.036 Y105.958 E7.77903
G1 X127.629 Y107.623 E8.09719
G1 X127.124 Y109.262 E8.41534
G1 X126.579 Y110.714 E8.70325
G1 X126.183 Y110.689 E8.77688
G1 X126.042 Y110.095 E8.89023
G1 X125.225 Y109.512 E9.07659
G1 X124.077 Y109.512 E9.28949
G1 X123.231 Y109.486 E9.44670
G1 X123.174 Y109.507 E9.45779
G1 X121.792 Y109.496 E9.71437
G1 X124.259 Y95.846 F7800.000
G1 X123.894 Y94.112 E10.04309 F1800.000
G1 X123.431 Y92.478 E10.35826
G1 X122.740 Y90.556 E10.73740
G1 X123.579 Y90.590 E10.89328
G1 X124.868 Y90.551 E11.13262
G1 X125.690 Y90.583 E11.28532
G1 X126.067 Y90.461 E11.35867
G1 X126.279 Y91.027 E11.47086
G1 X126.769 Y92.614 E11.77910
G1 X127.162 Y94.228 E12.08735
G1 X127.454 Y95.836 E12.39060
G1 X127.102 Y95.825 E12.45592
G1 X127.040 Y95.848 E12.46816
G1 X126.341 Y95.856 E12.59798
G1 X125.345 Y95.825 E12.78298
G1 X125.283 Y95.848 E12.79522
G1 X124.334 Y95.848 E12.97135
G1 X123.469 Y96.714 F7800.000
G1 X123.336 Y95.798 E13.14306 F1800.000
G1 X123.027 Y94.326 E13.42227
G1 X122.581 Y92.751 E13.72599
G1 X122.027 Y91.211 E14.02972
G1 X121.348 Y89.667 E14.34284
G1 X121.771 Y89.681 E14.42150
G1 X122.561 Y89.657 E14.56818
G1 X123.534 Y89.686 E14.74885
G1 X123.703 Y89.598 E14.78411
G1 X123.838 Y89.689 E14.81438
G1 X124.872 Y89.658 E15.00629
G1 X125.567 Y89.684 E15.13528
G1 X126.603 Y89.349 E15.33738
G1 X127.124 Y90.738 E15.61271
G1 X127.629 Y92.377 E15.93086
G1 X128.036 Y94.042 E16.24902
G1 X128.342 Y95.726 E16.56658
G1 X128.459 Y96.740 E16.75601
G1 X128.096 Y96.749 E16.82337
G1 X127.249 Y96.723 E16.98057
G1 X127.193 Y96.743 E16.99167
G1 X126.338 Y96.749 E17.15035
G1 X125.491 Y96.723 E17.30754
G1 X125.435 Y96.743 E17.31864
G1 X124.580 Y96.749 E17.47732
G1 X123.544 Y96.717 E17.66977
G1 X118.337 Y83.596 F7800.000
G1 X117.252 Y82.454 E17.96208 F1800.000
G1 X115.892 Y81.206 E18.30465
G1 X116.961 Y80.860 E18.51322
G1 X117.987 Y79.409 E18.84305
G1 X117.972 Y79.317 E18.86029
G1 X118.305 Y79.135 E18.93075
G1 X119.192 Y79.934 E19.15220
G1 X120.358 Y81.117 E19.46044
G1 X121.528 Y82.456 E19.79033
G1 X120.013 Y82.408 E20.07157
G1 X118.824 Y82.850 E20.30690
G1 X118.378 Y83.533 E20.45839
G1 X119.411 Y83.584 F7800.000
G1 X118.969 Y84.262 E20.60850 F1800.000
G1 X118.801 Y85.546 E20.84887
G1 X117.753 Y84.278 E21.15407
G1 X116.626 Y83.091 E21.45779
G1 X115.420 Y81.985 E21.76152
G1 X114.141 Y80.964 E22.06524
G1 X113.778 Y80.714 E22.14698
G1 X113.888 Y80.342 E22.21897
G1 X114.988 Y80.309 E22.42328
G1 X115.683 Y80.336 E22.55226
G1 X116.404 Y80.102 E22.69290
G1 X117.047 Y79.192 E22.89967
G1 X116.787 Y77.611 E23.19710
G1 X116.204 Y77.460 E23.30895
G1 X115.874 Y76.607 E23.47857
G1 X116.187 Y76.362 E23.55231
G1 X117.195 Y77.072 E23.78100
G1 X118.535 Y78.141 E24.09916
G1 X119.809 Y79.288 E24.41732
G1 X121.013 Y80.509 E24.73547
G1 X122.141 Y81.801 E25.05363
G1 X123.142 Y83.095 E25.35741
G1 X122.564 Y83.624 E25.50282
G1 X122.153 Y83.332 E25.59633
G1 X121.006 Y83.332 E25.80922
G1 X120.160 Y83.306 E25.96642
G1 X119.481 Y83.558 E26.10071
G1 X115.846 Y79.344 F7800.000
G1 X115.559 Y79.437 E26.15679 F1800.000
G1 X114.992 Y79.416 E26.26206
