;FLAVOR:Marlin
;TIME:2815
;Filament used: 2.72879m
;Layer height: 0.2
;MINX:37.871
;MINY:57.131
;MINZ:0.3
;MAXX:159.729
;MAXY:158.717
;MAXZ:1.9
;Generated with Cura_SteamEngine 4.2.1
M140 S60
M105
M190 S60
M104 S200
M105
M109 S200
M82 ;absolute extrusion mode
G28 ;Home
G1 Z15.0 F6000 ;Move the platform down 15mm
;Prime the extruder
G92 E0
G1 F200 E3
G92 E0
;
M117 Printing...        ☺
M141 S28
G92 E0
G92 E0
G1 F1500 E-3
;LAYER_COUNT:9
;LAYER:0
M107
G0 F3600 X39.271 Y57.694 Z0.3
;TYPE:SKIRT
G1 F1500 E0
G1 F1800 X39.71 Y57.443 E0.02523
G1 X40.184 Y57.265 E0.05049
G1 X40.679 Y57.164 E0.07569
G1 X41.011 Y57.141 E0.0923
G1 X41.502 Y57.132 E0.1168
G1 X41.561 Y57.131 E0.11974
G1 X147.397 Y57.131 E5.39992
G1 X148.093 Y57.141 E5.43465
G1 X148.596 Y57.189 E5.45986
G1 X149.086 Y57.314 E5.48509
G1 X149.55 Y57.516 E5.51033
G1 X149.976 Y57.788 E5.53555
G1 X150.354 Y58.123 E5.56075
G1 X150.674 Y58.514 E5.58596
G1 X150.929 Y58.951 E5.6112
G1 X151.112 Y59.422 E5.63641
G1 X151.219 Y59.917 E5.66167
G1 X151.236 Y60.609 E5.69621
G1 X151.143 Y61.714 E5.75153
G1 X150.953 Y64.445 E5.88811
G1 X150.841 Y67.163 E6.02383
G1 X150.805 Y69.915 E6.16114
G1 X150.847 Y72.669 E6.29855
G1 X150.965 Y75.39 E6.43443
G1 X151.085 Y77.176 E6.52373
G1 X151.148 Y78 E6.56496
G1 X151.151 Y78.045 E6.56721
G1 X151.206 Y78.924 E6.61115
G1 X151.453 Y81.659 E6.74816
G1 X151.77 Y84.317 E6.88171
G1 X152.178 Y87.076 E7.02085
G1 X152.657 Y89.777 E7.15771
G1 X153.205 Y92.436 E7.29315
G1 X153.834 Y95.1 E7.42971
G1 X154.54 Y97.749 E7.56649
G1 X155.319 Y100.376 E7.70319
G1 X156.181 Y103.008 E7.84136
G1 X157.093 Y105.544 E7.97582
G1 X158.084 Y108.077 E8.11152
G1 X158.989 Y110.223 E8.22771
G1 X159.468 Y111.321 E8.28748
G1 X159.633 Y111.799 E8.31271
G1 X159.721 Y112.297 E8.33794
G1 X159.729 Y112.803 E8.36318
G1 X159.657 Y113.303 E8.38839
G1 X159.554 Y113.662 E8.40702
G1 X158.664 Y116.196 E8.54101
G1 X157.847 Y118.745 E8.67455
G1 X157.06 Y121.461 E8.81563
G1 X156.657 Y122.982 E8.89413
G1 X156.38 Y124.06 E8.94966
G1 X156.216 Y124.538 E8.97487
G1 X155.979 Y124.984 E9.00007
G1 X155.674 Y125.388 E9.02532
G1 X155.309 Y125.738 E9.05055
G1 X154.894 Y126.027 E9.07578
G1 X154.416 Y126.255 E9.1022
G1 X154.105 Y126.373 E9.1188
G1 X153.911 Y126.439 E9.12902
G1 X90.751 Y145.873 E12.42588
G1 X88.108 Y146.727 E12.56445
G1 X85.495 Y147.655 E12.70279
G1 X83.021 Y148.612 E12.83513
G1 X80.434 Y149.696 E12.97507
G1 X77.957 Y150.821 E13.1108
G1 X75.508 Y152.015 E13.24673
G1 X72.984 Y153.342 E13.38899
G1 X72.657 Y153.49 E13.4069
G1 X72.262 Y153.644 E13.42805
G1 X72.041 Y153.721 E13.43973
G1 X58.724 Y157.82 E14.13488
G1 X58.691 Y157.83 E14.1366
G1 X57.924 Y158.057 E14.1765
G1 X57.43 Y158.162 E14.2017
G1 X57.119 Y158.187 E14.21727
G1 X55.896 Y158.227 E14.27831
G1 X53.099 Y158.357 E14.41801
G1 X50.37 Y158.561 E14.55454
G1 X49.575 Y158.642 E14.59441
G1 X49.524 Y158.647 E14.59696
G1 X48.755 Y158.713 E14.63547
G1 X48.249 Y158.717 E14.66071
G1 X47.749 Y158.64 E14.68595
G1 X47.268 Y158.486 E14.71115
G1 X46.817 Y158.258 E14.73636
G1 X46.407 Y157.962 E14.76159
G1 X46.049 Y157.605 E14.78682
G1 X45.752 Y157.196 E14.81203
G1 X45.523 Y156.745 E14.83727
G1 X45.367 Y156.264 E14.8625
G1 X45.29 Y155.764 E14.88774
G1 X45.318 Y155.04 E14.92388
G1 X45.438 Y154.257 E14.9634
G1 X45.819 Y151.531 E15.10073
G1 X46.12 Y148.829 E15.23636
G1 X46.347 Y146.085 E15.37373
G1 X46.494 Y143.372 E15.50928
G1 X46.565 Y140.619 E15.64667
G1 X46.558 Y137.899 E15.78237
G1 X46.473 Y135.101 E15.92203
G1 X46.315 Y132.432 E16.05542
G1 X46.076 Y129.695 E16.19249
G1 X45.758 Y126.958 E16.32996
G1 X45.367 Y124.26 E16.46597
G1 X44.714 Y120.606 E16.65116
G1 X44.625 Y120.161 E16.6738
G1 X44.607 Y120.062 E16.67882
G1 X44.381 Y118.709 E16.74725
G1 X43.895 Y116.04 E16.8826
G1 X43.324 Y113.335 E17.02053
G1 X42.685 Y110.685 E17.15653
G1 X41.969 Y108.047 E17.2929
G1 X41.174 Y105.41 E17.43031
G1 X40.311 Y102.823 E17.56636
G1 X39.098 Y99.511 E17.74233
G1 X38.962 Y99.024 E17.76756
G1 X38.905 Y98.522 E17.79277
G1 X38.937 Y97.946 E17.82155
G1 X39.055 Y97.141 E17.86214
G1 X39.439 Y94.394 E18.00052
G1 X39.74 Y91.692 E18.13616
G1 X39.967 Y88.948 E18.27352
G1 X40.114 Y86.235 E18.40907
G1 X40.185 Y83.482 E18.54647
G1 X40.178 Y80.762 E18.68217
G1 X40.093 Y77.964 E18.82183
G1 X39.935 Y75.295 E18.95522
G1 X39.696 Y72.558 E19.09228
G1 X39.378 Y69.821 E19.22975
G1 X38.987 Y67.123 E19.36576
G1 X38.329 Y63.442 E19.55232
G1 X38.247 Y63.032 E19.57318
G1 X38.229 Y62.934 E19.57815
G1 X38.083 Y62.06 E19.62236
G1 X38.074 Y62.007 E19.62504
G1 X37.988 Y61.433 E19.654
G1 X37.981 Y61.384 E19.65647
G1 X37.898 Y60.765 E19.68763
G1 X37.871 Y60.26 E19.71286
G1 X37.923 Y59.758 E19.73803
G1 X38.054 Y59.269 E19.76329
G1 X38.261 Y58.808 E19.7885
G1 X38.537 Y58.384 E19.81374
G1 X38.877 Y58.01 E19.83896
G1 X39.271 Y57.694 E19.86416
G1 F1500 E16.86416
;MESH:LptB_Support.stl
G0 F3600 X68.273 Y59.666
G0 X68.273 Y60.951
G0 X69.463 Y61.025
G0 X77.477 Y61.59
G0 X77.395 Y61.646
;TYPE:WALL-INNER
G1 F1500 E19.86416
G1 F1800 X77.153 Y61.627 E19.87627
G1 X72.713 Y61.261 E20.09853
G1 X68.617 Y60.987 E20.30334
G1 X67.424 Y60.931 E20.36292
G1 X68.617 Y60.931 E20.36709
G1 X72.713 Y60.931 E20.46564
G1 X84.182 Y60.931 E21.03783
G1 X84.635 Y60.931 E21.06043
G1 X86.605 Y60.931 E21.15871
G1 X86.981 Y60.931 E21.17747
G1 X86.605 Y60.96 E21.1782
G1 X84.635 Y61.232 E21.21952
G1 X84.193 Y61.329 E21.23932
G1 X82.314 Y61.745 E21.33533
G1 X82.412 Y63.542 E21.42512
G1 X82.635 Y64.878 E21.49269
G1 X83.018 Y66.118 E21.55744
G1 X83.564 Y67.255 E21.62037
G1 X84.271 Y68.278 E21.68241
G1 X85.134 Y69.185 E21.74487
G1 X86.144 Y69.968 E21.80863
G1 X87.292 Y70.63 E21.87474
G1 X88.568 Y71.175 E21.94396
G1 X89.961 Y71.606 E22.01671
G1 X91.459 Y71.927 E22.09314
G1 X93.049 Y72.145 E22.17321
G1 X94.719 Y72.265 E22.25674
G1 X96.458 Y72.292 E22.34351
G1 X99.913 Y72.093 E22.51617
G1 X103.564 Y71.588 E22.70005
G1 X107.152 Y70.807 E22.88325
G1 X110.554 Y69.787 E23.06044
G1 X112.292 Y69.151 E23.15277
G1 X113.82 Y68.505 E23.23554
G1 X115.264 Y67.81 E23.31549
G1 X116.621 Y67.072 E23.39256
G1 X117.888 Y66.289 E23.46686
G1 X119.064 Y65.463 E23.53856
G1 X120.143 Y64.595 E23.60765
G1 X121.13 Y63.688 E23.67452
G1 X122.021 Y62.74 E23.73943
G1 X123.126 Y61.365 E23.82744
G1 X123.045 Y61.236 E23.83504
G1 X122.855 Y60.931 E23.85296
G1 X123.214 Y60.931 E23.86304
G1 X123.215 Y60.931 E23.86309
G1 X130.959 Y60.931 E24.24944
G1 X131.021 Y60.931 E24.25253
G1 X132.864 Y60.931 E24.34448
G1 X131.021 Y61.291 E24.38734
G1 X130.971 Y61.326 E24.39024
G1 X129.278 Y62.532 E24.49394
G1 X127.505 Y64.008 E24.60904
G1 X125.811 Y65.604 E24.72515
G1 X124.254 Y67.225 E24.83729
G1 X122.873 Y68.793 E24.94153
G1 X121.701 Y70.258 E25.03513
G1 X120.754 Y71.587 E25.11654
G1 X119.793 Y73.174 E25.20911
G1 X120.041 Y73.507 E25.22982
G1 X120.209 Y73.734 E25.24391
G1 X119.939 Y73.817 E25.25224
G1 X102.056 Y79.319 E26.1857
G1 X101.975 Y79.344 E26.18993
G1 X101.971 Y79.043 E26.19962
G1 X99.064 Y78.187 E26.3508
G1 X96.443 Y77.511 E26.48584
G1 X93.897 Y76.964 E26.61576
G1 X91.431 Y76.555 E26.74047
G1 X89.049 Y76.289 E26.86005
G1 X86.757 Y76.177 E26.97454
G1 X84.558 Y76.227 E27.08427
G1 X82.458 Y76.455 E27.18966
G1 X80.463 Y76.865 E27.29127
G1 X78.575 Y77.459 E27.39001
G1 X76.797 Y78.235 E27.4868
G1 X75.13 Y79.187 E27.58257
G1 X73.57 Y80.308 E27.67841
G1 X72.113 Y81.589 E27.7752
G1 X70.758 Y83.023 E27.87363
G1 X69.162 Y85.034 E28.00172
G1 X69.033 Y85.197 E28.01209
G1 X69.202 Y85.318 E28.0187
G1 X70.954 Y86.577 E28.12633
G1 X72.717 Y87.961 E28.23816
G1 X72.827 Y88.048 E28.24515
G1 X75.538 Y87.479 E28.38335
G1 X72.902 Y88.289 E28.42657
G1 X72.768 Y88.33 E28.43242
G1 X63.667 Y91.131 E28.90748
G1 X64.255 Y93.043 E29.00728
G1 X51.224 Y97.054 E29.6875
G1 X51.033 Y97.112 E29.69746
G1 X50.975 Y96.921 E29.70389
G1 X50.504 Y95.391 E29.78376
G1 X50.446 Y95.2 E29.79372
G1 X50.255 Y95.258 E29.80015
G1 X45.322 Y96.777 E30.05766
G1 X44.874 Y96.914 E30.08103
G1 X44.583 Y97.004 E30.09623
G1 X44.83 Y96.772 E30.10038
G1 X45.149 Y96.429 E30.11664
G1 X45.881 Y95.64 E30.17033
G1 X46.808 Y94.477 E30.24453
G1 X47.606 Y93.284 E30.31614
G1 X48.276 Y92.06 E30.38575
G1 X48.814 Y90.808 E30.45374
G1 X49.221 Y89.529 E30.5207
G1 X49.495 Y88.225 E30.58718
G1 X49.641 Y86.9 E30.65368
G1 X49.662 Y85.561 E30.72049
G1 X49.57 Y84.207 E30.7882
G1 X49.369 Y82.844 E30.85694
G1 X49.071 Y81.472 E30.92698
G1 X48.278 Y78.855 E31.06341
G1 X47.252 Y76.16 E31.20727
G1 X46.124 Y73.528 E31.35014
G1 X45.001 Y70.99 E31.4886
G1 X43.982 Y68.593 E31.61854
G1 X43.103 Y66.299 E31.74111
G1 X42.429 Y64.198 E31.85119
G1 X41.951 Y62.228 E31.95232
G1 X41.789 Y61.16 E32.00621
G1 X41.755 Y60.931 E32.01776
G1 X41.986 Y60.931 E32.02492
G1 X41.987 Y60.931 E32.02497
G1 X50.843 Y60.931 E32.4668
G1 X51.824 Y60.931 E32.51574
G1 X54.535 Y60.931 E32.651
G1 X51.824 Y61.188 E32.69495
G1 X50.854 Y61.33 E32.73513
G1 X48.505 Y61.674 E32.85357
G1 X48.749 Y64.351 E32.98768
G1 X49.048 Y66.5 E33.09593
G1 X49.446 Y68.491 E33.19723
G1 X49.946 Y70.323 E33.29197
G1 X50.549 Y71.993 E33.38055
G1 X51.255 Y73.504 E33.46376
G1 X52.069 Y74.857 E33.54253
G1 X52.985 Y76.051 E33.61761
G1 X53.996 Y77.095 E33.69012
G1 X55.093 Y78.002 E33.76113
G1 X56.262 Y78.79 E33.83146
G1 X57.492 Y79.483 E33.9019
G1 X59.959 Y80.638 E34.0378
G1 X63.051 Y81.982 E34.206
G1 X64.429 Y81.42 E34.28025
G1 X65.643 Y80.823 E34.34774
G1 X66.811 Y80.135 E34.41537
G1 X67.931 Y79.353 E34.48352
G1 X68.999 Y78.474 E34.55253
G1 X70.013 Y77.495 E34.62285
G1 X70.971 Y76.414 E34.69491
G1 X71.869 Y75.228 E34.76913
G1 X72.709 Y73.942 E34.84576
G1 X73.493 Y72.559 E34.92508
G1 X74.222 Y71.083 E35.00721
G1 X74.899 Y69.519 E35.09223
G1 X75.529 Y67.872 E35.18021
G1 X76.116 Y66.14 E35.27144
G1 X77.329 Y61.879 E35.49247
G1 X77.395 Y61.646 E35.49987
G0 F3600 X77.477 Y61.59
G0 X91.279 Y60.721
G0 X118.902 Y61.231
G0 X118.915 Y61.329
G1 F1800 X118.884 Y61.334 E35.50144
G1 X116.766 Y61.506 E35.60745
G1 X114.38 Y61.586 E35.72656
G1 X111.781 Y61.576 E35.85622
G1 X108.95 Y61.487 E35.99753
G1 X106.037 Y61.33 E36.14308
G1 X98.591 Y60.931 E36.51509
G1 X106.047 Y60.931 E36.70114
G1 X106.048 Y60.931 E36.70119
G1 X118.896 Y60.931 E37.34218
G1 X120.748 Y60.931 E37.43458
G1 X121.369 Y60.931 E37.46556
G1 X120.748 Y61.066 E37.47135
G1 X118.915 Y61.329 E37.5332
G0 F3600 X118.902 Y61.231
G0 X122.502 Y61.061
G0 X133.8 Y60.824
G0 X138.695 Y61.253
G0 X138.636 Y61.332
G1 F1800 X138.608 Y61.325 E37.53464
G1 X136.981 Y60.931 E37.61815
G1 X138.655 Y60.931 E37.66021
G1 X145.599 Y60.931 E38.00665
G1 X145.674 Y60.931 E38.01039
G1 X146.099 Y60.931 E38.03159
G1 X145.674 Y61.263 E38.04518
G1 X145.625 Y61.319 E38.04861
G1 X144.939 Y62.088 E38.10002
G1 X144.509 Y63.005 E38.15055
G1 X144.483 Y63.985 E38.19946
G1 X144.863 Y64.916 E38.24963
G1 X145.436 Y65.632 E38.29538
G1 X145.543 Y65.766 E38.30393
G1 X145.691 Y65.894 E38.31369
G1 X145.593 Y65.924
G1 X145.429 Y65.974 E38.32017
G1 X140.823 Y67.392 E38.56061
G1 X140.606 Y67.459 E38.57194
G1 X140.569 Y67.235 E38.579
G1 X140.289 Y65.556 E38.66392
G1 X139.899 Y64.006 E38.74366
G1 X139.4 Y62.679 E38.81439
G1 X138.636 Y61.332 E38.89165
G0 F3600 X138.695 Y61.253
G0 X139.438 Y62.666
G0 X139.936 Y63.991
G0 X140.334 Y65.587
G0 X140.604 Y67.263
G0 X140.19 Y67.395
;TYPE:WALL-OUTER
G1 F1800 X139.897 Y65.638 E38.98052
G1 X139.517 Y64.126 E39.0583
G1 X139.037 Y62.849 E39.12636
G1 X138.374 Y61.68 E39.19341
G1 X136.795 Y61.298 E39.27446
G1 X135.076 Y61.141 E39.36057
G1 X133.259 Y61.261 E39.45142
G1 X131.183 Y61.667 E39.55696
G1 X129.522 Y62.849 E39.65866
G1 X127.77 Y64.308 E39.77241
G1 X126.093 Y65.888 E39.88736
G1 X124.548 Y67.496 E39.99862
G1 X123.179 Y69.05 E40.10194
G1 X122.02 Y70.499 E40.19451
G1 X121.088 Y71.807 E40.27464
G1 X120.357 Y73.013 E40.34499
G1 X120.274 Y73.151 E40.35303
G1 X120.433 Y73.365 E40.36633
G1 X120.59 Y73.326 E40.37315
G1 X125.398 Y72.128 E40.62036
G1 X125.677 Y72.05 E40.63481
G1 X130.417 Y70.728 E40.88031
G1 X135.178 Y69.206 E41.12968
G1 X136.656 Y68.672 E41.20809
G1 X140.19 Y67.395 E41.39556
G0 F3600 X140.158 Y67.198
G0 X140.254 Y67.463
G0 X135.189 Y69.227
G0 X130.421 Y70.753
G0 X125.407 Y72.15
G0 X119.988 Y73.494
G0 X93.05 Y72.185
G0 X91.461 Y71.967
G0 X89.945 Y71.643
G0 X88.558 Y71.213
G0 X87.271 Y70.663
G0 X86.124 Y70.002
G0 X85.108 Y69.214
G0 X84.241 Y68.305
G0 X83.529 Y67.272
G0 X82.981 Y66.132
G0 X82.597 Y64.886
G0 X82.233 Y62.088
G0 X82.732 Y62.062
G1 F1800 X82.81 Y63.498 E41.4673
G1 X83.025 Y64.786 E41.53245
G1 X83.391 Y65.972 E41.59437
G1 X83.911 Y67.053 E41.65422
G1 X84.582 Y68.025 E41.71315
G1 X85.403 Y68.887 E41.77254
G1 X86.368 Y69.635 E41.83345
G1 X87.471 Y70.272 E41.897
G1 X88.706 Y70.799 E41.96399
G1 X90.062 Y71.219 E42.03481
G1 X91.528 Y71.533 E42.10961
G1 X93.09 Y71.747 E42.18826
G1 X94.736 Y71.865 E42.27059
G1 X96.45 Y71.892 E42.35612
G1 X99.874 Y71.695 E42.52722
G1 X103.494 Y71.194 E42.70955
G1 X107.052 Y70.419 E42.89122
G1 X110.428 Y69.407 E43.06705
G1 X112.145 Y68.779 E43.15826
G1 X113.655 Y68.14 E43.24006
G1 X115.082 Y67.454 E43.31906
G1 X116.42 Y66.726 E43.39505
G1 X117.668 Y65.955 E43.46824
G1 X118.823 Y65.143 E43.53868
G1 X119.882 Y64.292 E43.60645
G1 X120.849 Y63.403 E43.67199
G1 X121.719 Y62.477 E43.73538
G1 X122.531 Y61.467 E43.80003
G1 X122.636 Y61.336 E43.80841
G1 X122.487 Y61.097 E43.82246
G1 X122.323 Y61.132 E43.82965
G1 X120.82 Y61.46 E43.9064
G1 X118.924 Y61.732 E44.00196
G1 X116.792 Y61.906 E44.10868
G1 X114.391 Y61.986 E44.22853
G1 X111.768 Y61.976 E44.35939
G1 X108.937 Y61.887 E44.5007
G1 X97.047 Y61.249 E45.09475
G1 X93.953 Y61.14 E45.24921
G1 X91.283 Y61.12 E45.38242
G1 X88.842 Y61.189 E45.50425
G1 X86.648 Y61.358 E45.61403
G1 X84.706 Y61.626 E45.71184
G1 X82.732 Y62.062 E45.81269
G0 F3600 X82.742 Y62.261
G0 X82.244 Y62.287
G0 X77.357 Y62.142
G0 X76.877 Y62.005
G1 F1800 X76.635 Y61.986 E45.8248
G1 X72.683 Y61.66 E46.02264
G1 X68.594 Y61.386 E46.2271
G1 X64.726 Y61.205 E46.42028
G1 X61.103 Y61.128 E46.60108
G1 X57.752 Y61.164 E46.76827
G1 X54.68 Y61.319 E46.92173
G1 X51.872 Y61.585 E47.06245
G1 X48.938 Y62.015 E47.21039
G1 X49.146 Y64.305 E47.32511
G1 X49.443 Y66.433 E47.4323
G1 X49.836 Y68.399 E47.53233
G1 X50.328 Y70.202 E47.62557
G1 X50.919 Y71.84 E47.71244
G1 X51.609 Y73.316 E47.79373
G1 X52.4 Y74.631 E47.87029
G1 X53.288 Y75.789 E47.94309
G1 X54.268 Y76.801 E48.01338
G1 X55.333 Y77.681 E48.0823
G1 X56.472 Y78.449 E48.15084
G1 X57.675 Y79.127 E48.21973
G1 X60.124 Y80.273 E48.35463
G1 X63.056 Y81.548 E48.51414
G1 X64.265 Y81.055 E48.57928
G1 X65.453 Y80.471 E48.64532
G1 X66.595 Y79.798 E48.71145
G1 X67.689 Y79.034 E48.77802
G1 X68.733 Y78.175 E48.84547
G1 X69.724 Y77.218 E48.91421
G1 X70.661 Y76.16 E48.98471
G1 X71.542 Y74.998 E49.05747
G1 X72.367 Y73.734 E49.13277
G1 X73.139 Y72.372 E49.21088
G1 X73.859 Y70.915 E49.29196
G1 X74.528 Y69.368 E49.37605
G1 X75.153 Y67.736 E49.46323
G1 X75.734 Y66.021 E49.55357
G1 X76.811 Y62.238 E49.74981
G1 X76.877 Y62.005 E49.75721
G0 F3600 X76.677 Y61.99
G0 X76.719 Y61.491
G0 X76.156 Y66.147
G0 X74.937 Y69.53
G0 X74.256 Y71.104
G0 X73.531 Y72.572
G0 X65.513 Y87.589
G0 X69.315 Y85.522
G0 X69.607 Y85.117
G1 F1800 X69.776 Y85.238 E49.76758
G1 X71.201 Y86.262 E49.85512
G1 X72.927 Y87.618 E49.96463
G1 X75.664 Y87.043 E50.10416
G1 X78.699 Y86.345 E50.25953
G1 X81.496 Y85.644 E50.40339
G1 X81.933 Y85.535 E50.42586
G1 X85.381 Y84.604 E50.60404
G1 X89.04 Y83.554 E50.79395
G1 X92.899 Y82.394 E50.99499
G1 X96.931 Y81.135 E51.20573
G1 X101.418 Y79.69 E51.44091
G1 X101.579 Y79.638 E51.44935
G1 X101.578 Y79.527 E51.45489
G1 X101.575 Y79.343 E51.46407
G1 X101.412 Y79.295 E51.47148
G1 X98.958 Y78.573 E51.5991
G1 X96.351 Y77.9 E51.73342
G1 X93.822 Y77.357 E51.86247
G1 X91.376 Y76.951 E51.98617
G1 X89.017 Y76.688 E52.10459
G1 X86.752 Y76.577 E52.21773
G1 X84.584 Y76.627 E52.32592
G1 X82.52 Y76.851 E52.4295
G1 X80.563 Y77.253 E52.52917
G1 X78.715 Y77.834 E52.62582
G1 X76.977 Y78.593 E52.72044
G1 X75.346 Y79.524 E52.81413
G1 X73.819 Y80.621 E52.90793
G1 X72.391 Y81.877 E53.00281
G1 X71.061 Y83.285 E53.09944
G1 X69.736 Y84.954 E53.20576
G1 X69.607 Y85.117 E53.21237
G0 F3600 X69.77 Y85.233
G0 X69.477 Y85.639
G0 X50.659 Y95.555
G0 X50.181 Y95.7
G1 F1800 X49.99 Y95.758 E53.22233
G1 X43.852 Y97.647 E53.54273
