;FLAVOR:Marlin
;TIME:6326
;Filament used: 6.21294m
;Layer height: 0.2
;MINX:29.3
;MINY:28.8
;MINZ:0.2
;MAXX:170.7
;MAXY:171.2
;MAXZ:2
;Generated with Cura_SteamEngine 4.2.1
M140 S60
M105
M190 S60
M104 S200
M105
M109 S200
M82 ;absolute extrusion mode
G28 ;Home
G1 Z15.0 F6000 ;Move the platform down 15mm
;Prime the extruder
G92 E0
G1 F200 E3
G92 E0
;
M117 Printing...        ☺
M141 S28
G92 E0
G92 E0
G1 F1500 E-3
;LAYER_COUNT:10
;LAYER:0
M107
G0 F3600 X30.293 Y35.702 Z0.2
;TYPE:SKIRT
G1 F1500 E0
G1 F1800 X30.684 Y35.381 E0.01683
G1 X30.982 Y35.197 E0.02847
G1 X33.417 Y33.874 E0.12065
G1 X35.817 Y32.486 E0.21286
G1 X38.104 Y31.075 E0.30224
G1 X40.415 Y29.559 E0.39416
G1 X40.707 Y29.361 E0.4059
G1 X41.146 Y29.111 E0.4227
G1 X41.62 Y28.934 E0.43953
G1 X42.115 Y28.833 E0.45633
G1 X42.404 Y28.811 E0.46597
G1 X42.732 Y28.801 E0.47689
G1 X42.83 Y28.8 E0.48014
G1 X146.84 Y28.8 E3.93953
G1 X147.447 Y28.809 E3.95972
G1 X147.732 Y28.826 E3.96922
G1 X148.797 Y28.937 E4.00483
G1 X148.859 Y28.944 E4.00691
G1 X149.407 Y29.012 E4.02527
G1 X149.451 Y29.018 E4.02675
G1 X150.182 Y29.119 E4.0513
G1 X150.272 Y29.133 E4.05432
G1 X150.984 Y29.252 E4.07833
G1 X151.03 Y29.26 E4.07989
G1 X151.875 Y29.414 E4.10846
G1 X151.917 Y29.422 E4.10988
G1 X152.325 Y29.502 E4.12371
G1 X152.429 Y29.524 E4.12724
G1 X153.632 Y29.802 E4.16831
G1 X153.693 Y29.817 E4.1704
G1 X154.186 Y29.941 E4.1873
G1 X154.234 Y29.953 E4.18895
G1 X154.898 Y30.131 E4.21182
G1 X154.974 Y30.153 E4.21445
G1 X155.208 Y30.222 E4.22256
G1 X155.284 Y30.245 E4.2252
G1 X155.492 Y30.312 E4.23247
G1 X155.524 Y30.323 E4.2336
G1 X156.399 Y30.615 E4.26428
G1 X156.44 Y30.629 E4.26572
G1 X157.059 Y30.845 E4.28752
G1 X157.232 Y30.911 E4.29368
G1 X157.986 Y31.224 E4.32083
G1 X158.027 Y31.241 E4.32231
G1 X158.495 Y31.443 E4.33926
G1 X158.543 Y31.464 E4.34101
G1 X159.004 Y31.672 E4.35783
G1 X159.182 Y31.759 E4.36442
G1 X160.256 Y32.326 E4.40481
G1 X160.348 Y32.376 E4.40829
G1 X161.093 Y32.801 E4.43682
G1 X161.318 Y32.943 E4.44567
G1 X161.873 Y33.324 E4.46806
G1 X161.924 Y33.359 E4.47012
G1 X162.321 Y33.643 E4.48635
G1 X162.347 Y33.662 E4.48742
G1 X162.863 Y34.039 E4.50868
G1 X163.091 Y34.223 E4.51842
G1 X163.826 Y34.871 E4.55101
G1 X163.892 Y34.93 E4.55396
G1 X164.466 Y35.465 E4.58006
G1 X164.677 Y35.682 E4.59012
G1 X165.45 Y36.553 E4.62886
G1 X165.52 Y36.634 E4.63242
G1 X165.954 Y37.157 E4.65502
G1 X166.129 Y37.389 E4.66469
G1 X166.722 Y38.253 E4.69954
G1 X166.775 Y38.332 E4.70271
G1 X167.236 Y39.048 E4.73103
G1 X167.381 Y39.297 E4.74061
G1 X167.769 Y40.039 E4.76846
G1 X167.79 Y40.08 E4.76999
G1 X167.948 Y40.393 E4.78166
G1 X167.966 Y40.429 E4.78299
G1 X168.281 Y41.073 E4.80684
G1 X168.355 Y41.237 E4.81282
G1 X168.451 Y41.465 E4.82105
G1 X168.49 Y41.561 E4.8245
G1 X168.846 Y42.489 E4.85756
G1 X168.866 Y42.543 E4.85947
G1 X169.082 Y43.138 E4.88052
G1 X169.14 Y43.312 E4.88663
G1 X169.414 Y44.227 E4.91839
G1 X169.428 Y44.278 E4.92015
G1 X169.542 Y44.683 E4.93415
G1 X169.556 Y44.732 E4.93584
G1 X169.743 Y45.439 E4.96016
G1 X169.776 Y45.58 E4.96498
G1 X169.904 Y46.171 E4.98509
G1 X169.916 Y46.227 E4.987
G1 X170.073 Y47.02 E5.01389
G1 X170.084 Y47.078 E5.01585
G1 X170.149 Y47.442 E5.02815
G1 X170.165 Y47.542 E5.03152
G1 X170.37 Y48.945 E5.07868
G1 X170.379 Y49.012 E5.08092
G1 X170.426 Y49.389 E5.09356
G1 X170.432 Y49.433 E5.09504
G1 X170.507 Y50.11 E5.11769
G1 X170.516 Y50.21 E5.12103
G1 X170.587 Y51.107 E5.15096
G1 X170.591 Y51.159 E5.15269
G1 X170.643 Y51.989 E5.18035
G1 X170.645 Y52.039 E5.18202
G1 X170.671 Y52.594 E5.2005
G1 X170.675 Y52.688 E5.20363
G1 X170.692 Y53.661 E5.23599
G1 X170.692 Y53.717 E5.23786
G1 X170.7 Y143.24 E8.2154
G1 X170.7 Y147.339 E8.35174
G1 X170.689 Y148.098 E8.37698
G1 X170.686 Y148.185 E8.37988
G1 X170.661 Y148.785 E8.39985
G1 X170.659 Y148.826 E8.40122
G1 X170.612 Y149.689 E8.42996
G1 X170.609 Y149.734 E8.43146
G1 X170.559 Y150.462 E8.45573
G1 X170.552 Y150.553 E8.45877
G1 X170.482 Y151.273 E8.48283
G1 X170.477 Y151.322 E8.48447
G1 X170.382 Y152.164 E8.51265
G1 X170.376 Y152.209 E8.51416
G1 X170.331 Y152.563 E8.52603
G1 X170.315 Y152.673 E8.52973
G1 X170.092 Y154.043 E8.57589
G1 X170.083 Y154.1 E8.57781
G1 X170.021 Y154.442 E8.58937
G1 X170.011 Y154.494 E8.59113
G1 X169.865 Y155.23 E8.61609
G1 X169.83 Y155.387 E8.62144
G1 X169.677 Y155.996 E8.64233
G1 X169.665 Y156.039 E8.64381
G1 X169.481 Y156.73 E8.66759
G1 X169.468 Y156.777 E8.66922
G1 X169.305 Y157.354 E8.68916
G1 X169.242 Y157.553 E8.6961
G1 X168.807 Y158.78 E8.7394
G1 X168.777 Y158.861 E8.74227
G1 X168.509 Y159.557 E8.76708
G1 X168.417 Y159.773 E8.77489
G1 X168.199 Y160.235 E8.79188
G1 X168.173 Y160.289 E8.79387
G1 X167.861 Y160.919 E8.81725
G1 X167.839 Y160.962 E8.81886
G1 X167.58 Y161.466 E8.83771
G1 X167.436 Y161.717 E8.84733
G1 X166.784 Y162.745 E8.88782
G1 X166.734 Y162.822 E8.89087
G1 X166.37 Y163.361 E8.91251
G1 X166.212 Y163.575 E8.92135
G1 X166.056 Y163.769 E8.92963
G1 X166.007 Y163.828 E8.93218
G1 X165.866 Y163.995 E8.93945
G1 X165.848 Y164.017 E8.9404
G1 X165.445 Y164.486 E8.96097
G1 X165.411 Y164.524 E8.96266
G1 X164.946 Y165.048 E8.98596
G1 X164.719 Y165.28 E8.99676
G1 X164.322 Y165.645 E9.0147
G1 X164.277 Y165.685 E9.0167
G1 X163.884 Y166.033 E9.03416
G1 X163.847 Y166.065 E9.03578
G1 X163.31 Y166.526 E9.05932
G1 X163.107 Y166.687 E9.06794
G1 X162.902 Y166.836 E9.07637
G1 X162.812 Y166.899 E9.08002
G1 X162.101 Y167.379 E9.10856
G1 X162.062 Y167.405 E9.11012
G1 X161.55 Y167.74 E9.13047
G1 X161.292 Y167.892 E9.14043
G1 X160.197 Y168.47 E9.18161
G1 X160.116 Y168.511 E9.18463
G1 X159.49 Y168.819 E9.20783
G1 X159.261 Y168.921 E9.21617
G1 X158.706 Y169.142 E9.23604
G1 X158.66 Y169.16 E9.23768
G1 X158.05 Y169.392 E9.25939
G1 X158.01 Y169.407 E9.26081
G1 X157.476 Y169.602 E9.27972
G1 X157.288 Y169.664 E9.2863
G1 X156.317 Y169.952 E9.31999
G1 X156.263 Y169.967 E9.32185
G1 X155.82 Y170.09 E9.33714
G1 X155.775 Y170.103 E9.3387
G1 X155.145 Y170.268 E9.36036
G1 X154.994 Y170.303 E9.36552
G1 X154.349 Y170.439 E9.38744
G1 X154.292 Y170.451 E9.38938
G1 X153.526 Y170.598 E9.41532
G1 X153.467 Y170.608 E9.41731
G1 X153.096 Y170.672 E9.42983
G1 X152.999 Y170.688 E9.4331
G1 X151.623 Y170.882 E9.47932
G1 X151.561 Y170.89 E9.4814
G1 X151.083 Y170.948 E9.49742
G1 X151.03 Y170.954 E9.49919
G1 X150.435 Y171.016 E9.51909
G1 X150.341 Y171.024 E9.52223
G1 X149.363 Y171.097 E9.55484
G1 X149.31 Y171.101 E9.55661
G1 X148.549 Y171.145 E9.58196
G1 X148.505 Y171.147 E9.58343
G1 X147.781 Y171.179 E9.60753
G1 X147.686 Y171.182 E9.6107
G1 X146.916 Y171.193 E9.63631
G1 X146.87 Y171.193 E9.63784
G1 X47.751 Y171.2 E12.93455
G1 X43.16 Y171.2 E13.08725
G1 X42.479 Y171.19 E13.1099
G1 X41.976 Y171.142 E13.12671
G1 X41.486 Y171.016 E13.14353
G1 X41.022 Y170.815 E13.16035
G1 X40.596 Y170.543 E13.17716
G1 X40.218 Y170.207 E13.19398
G1 X39.898 Y169.816 E13.21079
G1 X39.643 Y169.379 E13.22762
G1 X39.444 Y168.852 E13.24635
G1 X39.169 Y167.869 E13.2803
G1 X39.167 Y167.86 E13.28061
G1 X38.426 Y165.18 E13.37309
G1 X37.622 Y162.561 E13.46421
G1 X36.742 Y159.958 E13.5556
G1 X35.792 Y157.392 E13.64661
G1 X34.775 Y154.866 E13.73718
G1 X33.673 Y152.338 E13.8289
G1 X32.52 Y149.883 E13.91911
G1 X31.289 Y147.448 E14.00986
G1 X29.713 Y144.552 E14.11952
G1 X29.508 Y144.09 E14.13633
G1 X29.377 Y143.602 E14.15314
G1 X29.339 Y143.327 E14.16237
G1 X29.317 Y143.097 E14.17005
G1 X29.302 Y142.819 E14.17931
G1 X29.3 Y142.583 E14.18716
G1 X29.3 Y118.486 E14.98863
G1 X29.31 Y117.788 E15.01185
G1 X29.347 Y117.349 E15.0265
G1 X29.407 Y116.958 E15.03966
G1 X29.798 Y114.215 E15.13182
G1 X30.107 Y111.512 E15.2223
G1 X30.337 Y108.809 E15.31253
G1 X30.494 Y106.058 E15.40418
G1 X30.573 Y103.305 E15.49578
G1 X30.575 Y100.587 E15.58618
G1 X30.498 Y97.837 E15.67768
G1 X30.345 Y95.121 E15.76816
G1 X30.113 Y92.378 E15.85972
G1 X29.804 Y89.653 E15.95093
G1 X29.346 Y86.483 E16.05746
G1 X29.318 Y85.847 E16.07864
G1 X29.344 Y85.381 E16.09416
G1 X29.349 Y85.304 E16.09673
G1 X29.503 Y83.373 E16.16116
G1 X29.644 Y80.626 E16.25264
G1 X29.708 Y77.906 E16.34314
G1 X29.693 Y75.152 E16.43474
G1 X29.603 Y72.436 E16.52512
G1 X29.433 Y69.68 E16.61696
G1 X29.385 Y69.144 E16.63486
G1 X29.38 Y69.09 E16.63666
G1 X29.32 Y68.262 E16.66427
G1 X29.312 Y68.08 E16.67033
G1 X29.3 Y67.298 E16.69634
G1 X29.3 Y38.652 E17.64911
G1 X29.31 Y37.963 E17.67203
G1 X29.358 Y37.459 E17.68887
G1 X29.484 Y36.97 E17.70567
G1 X29.685 Y36.506 E17.72249
G1 X29.957 Y36.08 E17.7393
G1 X30.293 Y35.702 E17.75612
G1 F1500 E14.75612
;MESH:LptB_Top_Left.stl
G0 F3600 X31.835 Y38.747
G0 X33.112 Y38.747
G0 X35.611 Y58.084
G0 X35.821 Y58.867
G0 X36.516 Y59.707
G0 X36.565 Y59.621
;TYPE:WALL-INNER
G1 F1500 E17.75612
G1 F1800 X37.5 Y59.871 E17.78831
G1 X38.435 Y59.621 E17.8205
G1 X39.121 Y58.935 E17.85277
G1 X39.35 Y58.079 E17.88224
G1 X39.35 Y43.921 E18.35314
G1 X39.121 Y43.065 E18.38261
G1 X38.435 Y42.379 E18.41487
G1 X37.5 Y42.129 E18.44706
G1 X36.565 Y42.379 E18.47926
G1 X35.879 Y43.065 E18.51152
G1 X35.65 Y43.921 E18.54099
G1 X35.65 Y58.079 E19.01189
G1 X35.879 Y58.935 E19.04136
G1 X36.565 Y59.621 E19.07363
G0 F3600 X36.516 Y59.707
G0 X43.124 Y64.737
G0 X43.125 Y88.762
G0 X42.643 Y103
G0 X42.743 Y103
G1 F1800 X43.047 Y107.235 E19.21485
G1 X43.949 Y111.383 E19.35604
G1 X45.433 Y115.361 E19.49725
G1 X47.467 Y119.087 E19.63844
G1 X50.011 Y122.486 E19.77965
G1 X53.014 Y125.489 E19.9209
G1 X56.413 Y128.033 E20.06211
G1 X60.139 Y130.067 E20.2033
G1 X64.117 Y131.551 E20.34452
G1 X68.265 Y132.453 E20.48571
G1 X72.5 Y132.757 E20.62693
G1 X76.735 Y132.453 E20.76814
G1 X80.883 Y131.551 E20.90933
G1 X84.861 Y130.067 E21.05055
G1 X88.587 Y128.033 E21.19174
G1 X91.986 Y125.489 E21.33295
G1 X94.989 Y122.486 E21.4742
G1 X97.533 Y119.087 E21.61541
G1 X99.567 Y115.361 E21.7566
G1 X101.051 Y111.383 E21.89781
G1 X101.953 Y107.235 E22.039
G1 X102.257 Y103 E22.18022
G1 X101.953 Y98.765 E22.32144
G1 X101.051 Y94.617 E22.46263
G1 X99.567 Y90.639 E22.60384
G1 X97.533 Y86.913 E22.74503
G1 X94.989 Y83.514 E22.88624
G1 X91.986 Y80.511 E23.02749
G1 X88.587 Y77.967 E23.1687
G1 X84.861 Y75.933 E23.30989
G1 X80.883 Y74.449 E23.45111
G1 X76.735 Y73.547 E23.5923
G1 X72.5 Y73.243 E23.73351
G1 X68.265 Y73.547 E23.87473
G1 X64.117 Y74.449 E24.01592
G1 X60.139 Y75.933 E24.15714
G1 X56.413 Y77.967 E24.29833
G1 X53.014 Y80.511 E24.43954
G1 X50.011 Y83.514 E24.58079
G1 X47.467 Y86.913 E24.722
G1 X45.433 Y90.639 E24.86319
G1 X43.949 Y94.617 E25.0044
G1 X43.047 Y98.765 E25.14559
G1 X42.743 Y103 E25.28681
G0 F3600 X42.643 Y103
G0 X43.43 Y120.675
G0 X43.357 Y120.608
G1 F1800 X43.265 Y120.292 E25.29776
G1 X43.264 Y120.291 E25.2978
G1 X33.451 Y87.1 E26.44898
G1 X33.45 Y87.099 E26.44902
G1 X33.358 Y86.783 E26.45997
G1 X33.681 Y86.846 E26.46624
G1 X33.682 Y86.847 E26.46629
G1 X42.862 Y88.685 E26.77768
G1 X43.1 Y88.732 E26.78575
G1 X43.1 Y88.49 E26.79068
G1 X43.1 Y88.489 E26.79072
G1 X43.1 Y65.023 E27.5712
G1 X43.1 Y65.022 E27.57123
G1 X43.1 Y64.768 E27.57968
G1 X42.853 Y64.829 E27.58481
G1 X33.347 Y67.174 E27.91046
G1 X33.1 Y67.235 E27.91892
G1 X33.1 Y66.981 E27.92405
G1 X33.1 Y66.98 E27.92408
G1 X33.1 Y38.975 E28.85553
G1 X33.1 Y38.974 E28.85556
G1 X33.1 Y38.732 E28.86361
G1 X33.338 Y38.779 E28.86856
G1 X42.862 Y40.685 E29.19161
G1 X43.1 Y40.732 E29.19968
G1 X43.1 Y40.49 E29.20462
G1 X43.1 Y40.489 E29.20465
G1 X43.1 Y32.6 E29.46704
G1 X147.466 Y32.6 E32.93827
G1 X149.636 Y32.87 E33.011
G1 X151.852 Y33.272 E33.08591
G1 X153.917 Y33.792 E33.15674
G1 X155.82 Y34.426 E33.22345
G1 X157.595 Y35.194 E33.28778
G1 X159.209 Y36.092 E33.34921
G1 X160.655 Y37.122 E33.40825
G1 X161.953 Y38.307 E33.46671
G1 X163.078 Y39.629 E33.52445
G1 X164.047 Y41.099 E33.58301
G1 X164.866 Y42.721 E33.64344
G1 X165.541 Y44.488 E33.70635
G1 X166.08 Y46.411 E33.77278
G1 X166.479 Y48.44 E33.84156
G1 X166.749 Y50.607 E33.91419
G1 X166.892 Y52.903 E33.9907
G1 X166.9 Y143.249 E36.99562
G1 X166.9 Y147.989 E37.15327
G1 X166.78 Y150.197 E37.22682
G1 X166.532 Y152.403 E37.30065
G1 X166.15 Y154.483 E37.37099
G1 X165.639 Y156.39 E37.43666
G1 X164.982 Y158.171 E37.4998
G1 X164.186 Y159.777 E37.55941
G1 X163.237 Y161.225 E37.617
G1 X162.131 Y162.508 E37.67333
G1 X160.862 Y163.632 E37.72972
G1 X159.431 Y164.596 E37.78711
G1 X157.843 Y165.406 E37.8464
G1 X156.082 Y166.075 E37.90905
G1 X154.177 Y166.603 E37.9748
G1 X152.126 Y166.995 E38.04425
G1 X149.927 Y167.258 E38.11791
G1 X147.601 Y167.393 E38.19541
G1 X47.751 Y167.4 E41.51643
G1 X43.1 Y167.4 E41.67112
G1 X43.1 Y139.508 E42.59882
G1 X43.1 Y139.507 E42.59885
G1 X43.1 Y139.241 E42.6077
G1 X42.844 Y139.316 E42.61302
G1 X33.356 Y142.121 E42.94209
G1 X33.1 Y142.196 E42.95096
G1 X33.1 Y141.93 E42.95627
G1 X33.1 Y141.929 E42.9563
G1 X33.1 Y118.8 E43.72557
G1 X33.1 Y118.799 E43.72561
G1 X33.1 Y118.557 E43.73366
G1 X33.338 Y118.604 E43.73861
G1 X43.033 Y120.544 E44.06746
G1 X43.034 Y120.545 E44.0675
G1 X43.357 Y120.608 E44.07378
G0 F3600 X43.43 Y120.675
G0 X77.94 Y142.524
G0 X80.349 Y144.122
G0 X82.449 Y145.989
G0 X84.036 Y147.968
G0 X84.619 Y149.045
G0 X84.998 Y150.124
G0 X85.119 Y150.999
G0 X85.11 Y152.286
G0 X85.013 Y152.265
G1 F1800 X85.11 Y151.206 E44.10915
G1 X84.96 Y150.133 E44.14518
G1 X84.583 Y149.061 E44.18298
G1 X84.003 Y147.99 E44.22349
G1 X82.421 Y146.016 E44.30762
G1 X80.325 Y144.153 E44.40089
G1 X77.92 Y142.558 E44.49688
G1 X75.344 Y141.274 E44.59261
G1 X72.668 Y140.263 E44.68775
G1 X69.894 Y139.417 E44.78421
G1 X60.683 Y136.879 E45.10199
G1 X57.356 Y136.057 E45.21597
G1 X54.09 Y135.536 E45.32597
G1 X52.429 Y135.463 E45.38127
G1 X50.932 Y135.591 E45.43124
G1 X49.541 Y135.945 E45.47898
G1 X48.284 Y136.556 E45.52547
G1 X47.208 Y137.438 E45.57174
G1 X46.345 Y138.58 E45.61935
G1 X45.715 Y139.953 E45.6696
G1 X45.324 Y141.526 E45.72351
G1 X45.167 Y143.261 E45.78145
G1 X45.237 Y145.124 E45.84346
G1 X45.534 Y147.073 E45.90903
G1 X46.049 Y149.063 E45.9774
G1 X46.775 Y151.047 E46.04766
G1 X47.704 Y152.976 E46.11888
G1 X48.825 Y154.805 E46.19023
G1 X50.127 Y156.493 E46.26113
G1 X51.593 Y157.998 E46.33101
G1 X53.21 Y159.293 E46.39991
G1 X54.956 Y160.357 E46.46792
G1 X56.812 Y161.179 E46.53543
G1 X58.754 Y161.759 E46.60284
G1 X60.761 Y162.105 E46.67058
G1 X62.809 Y162.232 E46.73883
G1 X64.885 Y162.168 E46.80791
G1 X68.881 Y161.559 E46.94235
G1 X72.828 Y160.475 E47.07849
G1 X76.46 Y159.11 E47.20754
G1 X79.616 Y157.609 E47.32378
G1 X81.057 Y156.782 E47.37904
G1 X82.248 Y155.97 E47.42698
G1 X83.255 Y155.124 E47.47072
G1 X84.064 Y154.231 E47.5108
G1 X84.658 Y153.279 E47.54812
G1 X85.013 Y152.265 E47.58385
G0 F3600 X85.11 Y152.286
G0 X100.163 Y160.166
G0 X103.332 Y161.261
G0 X103.354 Y161.164
G1 F1800 X106.663 Y161.612 E47.69492
G1 X110.001 Y161.462 E47.80605
G1 X113.257 Y160.718 E47.91714
G1 X116.328 Y159.406 E48.02821
G1 X119.115 Y157.566 E48.13929
G1 X121.529 Y155.257 E48.25039
G1 X123.493 Y152.555 E48.36149
G1 X124.942 Y149.546 E48.47257
G1 X125.831 Y146.327 E48.58364
G1 X126.131 Y143 E48.69475
G1 X125.831 Y139.673 E48.80585
G1 X124.942 Y136.453 E48.91696
G1 X123.493 Y133.445 E49.02801
G1 X121.529 Y130.743 E49.13911
G1 X119.115 Y128.434 E49.25021
G1 X116.328 Y126.594 E49.36129
G1 X113.257 Y125.282 E49.47236
G1 X110.001 Y124.538 E49.58345
G1 X106.664 Y124.388 E49.69455
G1 X103.566 Y124.807 E49.79853
G1 X103.353 Y124.837 E49.80568
G1 X100.384 Y125.802 E49.90952
G1 X100.178 Y125.869 E49.91672
G1 X97.237 Y127.453 E50.02783
G1 X94.625 Y129.535 E50.13892
G1 X92.428 Y132.05 E50.24999
G1 X90.715 Y134.917 E50.36108
G1 X89.542 Y138.043 E50.47213
G1 X88.945 Y141.329 E50.58321
G1 X88.945 Y144.67 E50.69433
G1 X89.542 Y147.957 E50.80544
G1 X90.715 Y151.084 E50.91652
G1 X92.428 Y153.95 E51.02758
G1 X94.625 Y156.465 E51.13865
G1 X97.237 Y158.548 E51.24977
G1 X100.178 Y160.13 E51.36084
G1 X103.354 Y161.164 E51.47193
G0 F3600 X103.332 Y161.261
G0 X106.662 Y161.651
G0 X110.006 Y161.501
G0 X112.942 Y160.831
G0 X136.718 Y152.835
G0 X136.814 Y152.81
G1 F1800 X137.296 Y153.954 E51.51322
G1 X138.118 Y154.961 E51.55645
G1 X139.25 Y155.798 E51.60328
G1 X140.65 Y156.46 E51.65479
G1 X142.284 Y156.94 E51.71143
G1 X144.106 Y157.231 E51.7728
G1 X146.068 Y157.321 E51.83812
G1 X148.115 Y157.199 E51.90633
G1 X150.185 Y156.851 E51.97614
G1 X152.219 Y156.273 E52.04647
