;FLAVOR:Marlin
;TIME:6367
;Filament used: 6.26052m
;Layer height: 0.2
;MINX:29.3
;MINY:28.8
;MINZ:0.2
;MAXX:170.7
;MAXY:171.2
;MAXZ:2
;Generated with Cura_SteamEngine 4.2.1
M140 S60
M105
M190 S60
M104 S200
M105
M109 S200
M82 ;absolute extrusion mode
G28 ;Home
G1 Z15.0 F6000 ;Move the platform down 15mm
;Prime the extruder
G92 E0
G1 F200 E3
G92 E0
;
M117 Printing...        ☺
M141 S28
G92 E0
G92 E0
G1 F1500 E-3
;LAYER_COUNT:10
;LAYER:0
M107
G0 F3600 X35.183 Y35.828 Z0.2
;TYPE:SKIRT
G1 F1500 E0
G1 F1800 X36.02 Y35.012 E0.03888
G1 X36.1 Y34.937 E0.04253
G1 X36.624 Y34.46 E0.06609
G1 X36.854 Y34.269 E0.07604
G1 X37.824 Y33.539 E0.11642
G1 X37.898 Y33.485 E0.11946
G1 X38.457 Y33.089 E0.14225
G1 X38.685 Y32.942 E0.15127
G1 X39.348 Y32.552 E0.17685
G1 X39.389 Y32.528 E0.17843
G1 X39.741 Y32.328 E0.1919
G1 X39.775 Y32.309 E0.1932
G1 X40.414 Y31.956 E0.21748
G1 X40.58 Y31.87 E0.22369
G1 X40.881 Y31.726 E0.23479
G1 X40.962 Y31.689 E0.23775
G1 X41.774 Y31.328 E0.26731
G1 X41.812 Y31.311 E0.26869
G1 X42.474 Y31.027 E0.29265
G1 X42.654 Y30.957 E0.29908
G1 X43.461 Y30.667 E0.3276
G1 X43.503 Y30.652 E0.32908
G1 X43.992 Y30.484 E0.34628
G1 X44.057 Y30.462 E0.34856
G1 X44.939 Y30.18 E0.37936
G1 X45.084 Y30.137 E0.38439
G1 X45.464 Y30.035 E0.39748
G1 X45.493 Y30.028 E0.39847
G1 X46.298 Y29.82 E0.42612
G1 X46.335 Y29.81 E0.4274
G1 X46.799 Y29.696 E0.44329
G1 X46.909 Y29.672 E0.44703
G1 X48.097 Y29.424 E0.4874
G1 X48.165 Y29.41 E0.48971
G1 X48.788 Y29.294 E0.51078
G1 X48.826 Y29.287 E0.51207
G1 X49.401 Y29.187 E0.53148
G1 X49.494 Y29.173 E0.53461
G1 X50.357 Y29.049 E0.56361
G1 X50.409 Y29.042 E0.56535
G1 X51.251 Y28.935 E0.59358
G1 X51.292 Y28.93 E0.59496
G1 X51.889 Y28.862 E0.61494
G1 X52.185 Y28.842 E0.62481
G1 X53.391 Y28.817 E0.66493
G1 X53.457 Y28.816 E0.66712
G1 X161.749 Y28.8 E4.26893
G1 X166.839 Y28.8 E4.43823
G1 X167.537 Y28.81 E4.46144
G1 X168.04 Y28.857 E4.47825
G1 X168.53 Y28.983 E4.49507
G1 X168.994 Y29.185 E4.51191
G1 X169.42 Y29.457 E4.52872
G1 X169.798 Y29.792 E4.54552
G1 X170.118 Y30.183 E4.56232
G1 X170.373 Y30.62 E4.57915
G1 X170.556 Y31.091 E4.59595
G1 X170.663 Y31.585 E4.61277
G1 X170.69 Y31.916 E4.62381
G1 X170.699 Y32.222 E4.63399
G1 X170.7 Y32.316 E4.63712
G1 X170.7 Y39.339 E4.87071
G1 X170.69 Y40.036 E4.89389
G1 X170.67 Y40.35 E4.90436
G1 X170.344 Y43.227 E5.00066
G1 X170.116 Y45.91 E5.09022
G1 X169.96 Y48.657 E5.18173
G1 X169.882 Y51.41 E5.27333
G1 X169.882 Y54.127 E5.3637
G1 X169.96 Y56.879 E5.45527
G1 X170.116 Y59.626 E5.54678
G1 X170.345 Y62.323 E5.63681
G1 X170.653 Y65.007 E5.72666
G1 X170.673 Y65.281 E5.7358
G1 X170.699 Y66.195 E5.76621
G1 X170.7 Y66.286 E5.76924
G1 X170.7 Y87.339 E6.46946
G1 X170.69 Y88.036 E6.49265
G1 X170.653 Y88.474 E6.50727
G1 X170.598 Y88.835 E6.51941
G1 X170.202 Y91.61 E6.61265
G1 X169.893 Y94.313 E6.70313
G1 X169.663 Y97.016 E6.79336
G1 X169.506 Y99.767 E6.88501
G1 X169.427 Y102.52 E6.97661
G1 X169.425 Y105.238 E7.06701
G1 X169.502 Y107.988 E7.15851
G1 X169.655 Y110.703 E7.24896
G1 X169.887 Y113.447 E7.34055
G1 X170.196 Y116.171 E7.43173
G1 X170.654 Y119.342 E7.53829
G1 X170.675 Y120.078 E7.56278
G1 X170.613 Y120.79 E7.58655
G1 X170.393 Y123.541 E7.67834
G1 X170.251 Y126.29 E7.7699
G1 X170.186 Y129.009 E7.86036
G1 X170.2 Y131.761 E7.95189
G1 X170.29 Y134.479 E8.04234
G1 X170.459 Y137.236 E8.13421
G1 X170.576 Y138.643 E8.18117
G1 X170.677 Y139.754 E8.21827
G1 X170.688 Y139.921 E8.22384
G1 X170.696 Y140.129 E8.23076
G1 X170.698 Y140.225 E8.23396
G1 X170.7 Y140.461 E8.24181
G1 X170.7 Y167.304 E9.13461
G1 X170.691 Y168.031 E9.15879
G1 X170.645 Y168.534 E9.17559
G1 X170.52 Y169.024 E9.19241
G1 X170.319 Y169.488 E9.20923
G1 X170.048 Y169.915 E9.22605
G1 X169.713 Y170.294 E9.24287
G1 X169.323 Y170.615 E9.25967
G1 X168.887 Y170.871 E9.27649
G1 X168.416 Y171.054 E9.2933
G1 X167.922 Y171.162 E9.31012
G1 X167.581 Y171.19 E9.3215
G1 X167.26 Y171.199 E9.33218
G1 X167.17 Y171.2 E9.33517
G1 X53.161 Y171.2 E13.12712
G1 X52.403 Y171.189 E13.15234
G1 X52.316 Y171.186 E13.15523
G1 X51.715 Y171.161 E13.17524
G1 X51.674 Y171.159 E13.17661
G1 X50.811 Y171.112 E13.20535
G1 X50.765 Y171.109 E13.20688
G1 X50.038 Y171.059 E13.23112
G1 X49.949 Y171.052 E13.23409
G1 X49.228 Y170.982 E13.25818
G1 X49.178 Y170.977 E13.25986
G1 X48.336 Y170.882 E13.28804
G1 X48.291 Y170.876 E13.28955
G1 X47.937 Y170.831 E13.30142
G1 X47.827 Y170.815 E13.30511
G1 X46.456 Y170.592 E13.35131
G1 X46.391 Y170.581 E13.35351
G1 X46.027 Y170.514 E13.36582
G1 X45.985 Y170.506 E13.36724
G1 X45.272 Y170.365 E13.39141
G1 X45.116 Y170.33 E13.39673
G1 X44.489 Y170.173 E13.41823
G1 X44.436 Y170.16 E13.42004
G1 X43.762 Y169.979 E13.44325
G1 X43.726 Y169.968 E13.44451
G1 X43.15 Y169.806 E13.46441
G1 X42.947 Y169.742 E13.47149
G1 X41.72 Y169.307 E13.51479
G1 X41.639 Y169.277 E13.51766
G1 X40.933 Y169.005 E13.54282
G1 X40.714 Y168.911 E13.55075
G1 X40.262 Y168.697 E13.56738
G1 X40.211 Y168.673 E13.56926
G1 X39.581 Y168.361 E13.59264
G1 X39.539 Y168.339 E13.59422
G1 X39.033 Y168.079 E13.61314
G1 X38.781 Y167.935 E13.62279
G1 X37.755 Y167.284 E13.66321
G1 X37.676 Y167.232 E13.66635
G1 X37.135 Y166.866 E13.68808
G1 X36.923 Y166.71 E13.69683
G1 X36.719 Y166.546 E13.70554
G1 X36.643 Y166.483 E13.70882
G1 X36.019 Y165.949 E13.73614
G1 X35.978 Y165.913 E13.73795
G1 X35.453 Y165.448 E13.76128
G1 X35.216 Y165.216 E13.77231
G1 X34.852 Y164.819 E13.79022
G1 X34.815 Y164.777 E13.79208
G1 X34.467 Y164.384 E13.80954
G1 X34.435 Y164.347 E13.81117
G1 X33.974 Y163.81 E13.83471
G1 X33.813 Y163.607 E13.84333
G1 X33.659 Y163.395 E13.85204
G1 X33.596 Y163.305 E13.8557
G1 X33.12 Y162.6 E13.88399
G1 X33.093 Y162.559 E13.88562
G1 X32.758 Y162.046 E13.906
G1 X32.607 Y161.79 E13.91589
G1 X32.03 Y160.697 E13.95699
G1 X31.989 Y160.616 E13.96001
G1 X31.68 Y159.988 E13.98329
G1 X31.578 Y159.758 E13.99166
G1 X31.358 Y159.205 E14.01146
G1 X31.34 Y159.16 E14.01307
G1 X31.108 Y158.55 E14.03477
G1 X31.093 Y158.51 E14.03619
G1 X30.898 Y157.976 E14.0551
G1 X30.836 Y157.788 E14.06169
G1 X30.548 Y156.817 E14.09537
G1 X30.532 Y156.762 E14.09728
G1 X30.403 Y156.297 E14.11333
G1 X30.391 Y156.249 E14.11497
G1 X30.227 Y155.62 E14.13659
G1 X30.191 Y155.47 E14.14172
G1 X30.06 Y154.846 E14.16293
G1 X30.049 Y154.792 E14.16476
G1 X29.902 Y154.026 E14.19071
G1 X29.892 Y153.967 E14.1927
G1 X29.828 Y153.596 E14.20522
G1 X29.812 Y153.499 E14.20849
G1 X29.618 Y152.123 E14.25471
G1 X29.61 Y152.061 E14.25679
G1 X29.552 Y151.583 E14.2728
G1 X29.546 Y151.53 E14.27458
G1 X29.484 Y150.935 E14.29447
G1 X29.476 Y150.839 E14.29768
G1 X29.401 Y149.824 E14.33153
G1 X29.397 Y149.773 E14.33323
G1 X29.355 Y149.049 E14.35735
G1 X29.353 Y149.003 E14.35888
G1 X29.321 Y148.266 E14.38342
G1 X29.318 Y148.174 E14.38648
G1 X29.307 Y147.418 E14.41163
G1 X29.307 Y147.371 E14.41319
G1 X29.3 Y57.759 E17.3937
G1 X29.3 Y53.663 E17.52993
G1 X29.309 Y53.011 E17.55162
G1 X29.312 Y52.916 E17.55478
G1 X29.347 Y52.111 E17.58158
G1 X29.35 Y52.058 E17.58334
G1 X29.396 Y51.292 E17.60887
G1 X29.399 Y51.25 E17.61027
G1 X29.446 Y50.608 E17.63168
G1 X29.454 Y50.516 E17.63475
G1 X29.538 Y49.697 E17.66213
G1 X29.545 Y49.633 E17.66427
G1 X29.687 Y48.478 E17.70298
G1 X29.707 Y48.337 E17.70771
G1 X29.924 Y47.047 E17.75122
G1 X29.936 Y46.984 E17.75336
G1 X30.014 Y46.571 E17.76734
G1 X30.022 Y46.528 E17.76879
G1 X30.162 Y45.839 E17.79217
G1 X30.194 Y45.698 E17.79698
G1 X30.324 Y45.179 E17.81478
G1 X30.339 Y45.121 E17.81677
G1 X30.562 Y44.297 E17.84516
G1 X30.575 Y44.252 E17.84672
G1 X30.738 Y43.683 E17.86641
G1 X30.795 Y43.502 E17.87272
G1 X31.088 Y42.669 E17.90209
G1 X31.108 Y42.614 E17.90404
G1 X31.251 Y42.23 E17.91766
G1 X31.264 Y42.197 E17.91884
G1 X31.526 Y41.517 E17.94308
G1 X31.6 Y41.341 E17.94943
G1 X31.732 Y41.051 E17.96003
G1 X31.77 Y40.97 E17.96301
G1 X32.15 Y40.194 E17.99174
G1 X32.171 Y40.152 E17.99331
G1 X32.493 Y39.518 E18.01696
G1 X32.631 Y39.273 E18.02631
G1 X33.018 Y38.653 E18.05062
G1 X33.041 Y38.617 E18.05204
G1 X33.264 Y38.27 E18.06576
G1 X33.289 Y38.231 E18.0673
G1 X33.632 Y37.714 E18.08793
G1 X33.799 Y37.486 E18.09733
G1 X34.423 Y36.705 E18.13058
G1 X34.482 Y36.633 E18.13368
G1 X34.976 Y36.05 E18.15909
G1 X35.183 Y35.828 E18.16919
G1 F1500 E15.16919
;MESH:LptB_Top_Right.stl
G0 F3600 X37.066 Y37.505
G0 X37.943 Y38.441
G0 X56.642 Y46.84
G0 X59.353 Y48.412
G0 X60.568 Y49.372
G0 X61.611 Y50.429
G0 X62.462 Y51.604
G0 X63.091 Y52.903
G0 X63.478 Y54.327
G0 X63.548 Y55.199
G0 X67.516 Y59.707
G0 X67.565 Y59.621
;TYPE:WALL-INNER
G1 F1500 E18.16919
G1 F1800 X68.5 Y59.871 E18.20138
G1 X69.435 Y59.621 E18.23357
G1 X70.121 Y58.935 E18.26584
G1 X70.35 Y58.079 E18.29531
G1 X70.35 Y43.921 E18.76621
G1 X70.121 Y43.065 E18.79568
G1 X69.435 Y42.379 E18.82795
G1 X68.5 Y42.129 E18.86014
G1 X67.565 Y42.379 E18.89233
G1 X66.879 Y43.065 E18.9246
G1 X66.65 Y43.921 E18.95407
G1 X66.65 Y58.079 E19.42496
G1 X66.879 Y58.935 E19.45444
G1 X67.565 Y59.621 E19.4867
G0 F3600 X67.516 Y59.707
G0 X57.754 Y82.348
G0 X57.725 Y82.443
G1 F1800 X56.597 Y82.254 E19.52474
G1 X55.398 Y82.353 E19.56476
G1 X54.15 Y82.716 E19.60799
G1 X52.864 Y83.315 E19.65517
G1 X51.541 Y84.121 E19.7067
G1 X50.186 Y85.113 E19.76255
G1 X47.535 Y87.451 E19.88012
G1 X44.878 Y90.215 E20.00764
G1 X42.425 Y93.13 E20.13435
G1 X40.297 Y96.02 E20.25372
G1 X38.595 Y98.795 E20.36199
G1 X37.396 Y101.433 E20.45837
G1 X36.725 Y104.079 E20.54916
G1 X36.72 Y106.49 E20.62935
G1 X37.332 Y108.768 E20.70781
G1 X38.539 Y110.834 E20.78739
G1 X40.192 Y112.474 E20.86484
G1 X41.3 Y113.24 E20.90964
G1 X42.468 Y113.823 E20.95305
G1 X43.729 Y114.262 E20.99746
G1 X45.07 Y114.544 E21.04304
G1 X46.472 Y114.668 E21.08986
G1 X47.931 Y114.633 E21.1384
G1 X50.779 Y114.115 E21.23467
G1 X53.643 Y113.067 E21.33611
G1 X56.29 Y111.591 E21.43691
G1 X58.589 Y109.796 E21.53392
G1 X60.443 Y107.77 E21.62526
G1 X61.803 Y105.546 E21.71197
G1 X62.679 Y103.136 E21.79726
G1 X63.127 Y100.522 E21.88547
G1 X63.232 Y97.694 E21.97959
G1 X63.07 Y94.672 E22.08025
G1 X62.668 Y91.551 E22.18491
G1 X62.016 Y88.532 E22.28764
G1 X61.557 Y87.048 E22.3393
G1 X61.025 Y85.761 E22.38562
G1 X60.39 Y84.623 E22.42896
G1 X59.635 Y83.665 E22.46953
G1 X58.748 Y82.924 E22.50797
G1 X57.725 Y82.443 E22.54557
G0 F3600 X57.754 Y82.348
G0 X40.071 Y80.797
G0 X39.115 Y80.555
G0 X37.865 Y79.413
G0 X37.959 Y79.382
G1 F1800 X38.396 Y80.062 E22.57246
G1 X39.13 Y80.519 E22.60122
G1 X40.076 Y80.758 E22.63367
G1 X41.22 Y80.789 E22.67173
G1 X42.551 Y80.601 E22.71644
G1 X44.042 Y80.172 E22.76804
G1 X45.664 Y79.494 E22.82651
G1 X47.384 Y78.569 E22.89147
G1 X49.168 Y77.408 E22.96227
G1 X50.979 Y76.03 E23.03795
G1 X52.789 Y74.457 E23.11771
G1 X56.311 Y70.792 E23.28677
G1 X59.149 Y67.07 E23.44245
G1 X60.493 Y64.974 E23.52526
G1 X61.564 Y63.003 E23.59987
G1 X62.421 Y61.089 E23.66962
G1 X63.048 Y59.252 E23.73418
G1 X63.432 Y57.507 E23.79361
G1 X63.563 Y55.866 E23.84836
G1 X63.439 Y54.333 E23.89952
G1 X63.054 Y52.917 E23.94832
G1 X62.428 Y51.624 E23.9961
G1 X61.581 Y50.454 E24.04414
G1 X60.542 Y49.401 E24.09335
G1 X59.331 Y48.445 E24.14466
G1 X56.625 Y46.875 E24.24871
G1 X53.52 Y45.609 E24.36024
G1 X50.326 Y44.778 E24.47001
G1 X48.664 Y44.543 E24.52584
G1 X47.146 Y44.494 E24.57635
G1 X45.711 Y44.621 E24.62427
G1 X44.377 Y44.952 E24.66998
G1 X43.173 Y45.498 E24.71395
G1 X42.126 Y46.266 E24.75714
G1 X41.257 Y47.246 E24.80071
G1 X40.578 Y48.415 E24.84567
G1 X40.085 Y49.748 E24.89294
G1 X39.761 Y51.224 E24.9432
G1 X39.591 Y52.819 E24.99655
G1 X39.555 Y54.521 E25.05317
G1 X39.789 Y58.016 E25.16968
G1 X40.724 Y65.089 E25.40697
G1 X41.021 Y68.586 E25.5237
G1 X41.025 Y70.147 E25.57562
G1 X40.909 Y71.493 E25.62056
G1 X40.685 Y72.708 E25.66165
G1 X40.356 Y73.795 E25.69942
G1 X39.484 Y75.596 E25.76597
G1 X38.537 Y77.115 E25.82551
G1 X38.131 Y77.863 E25.85382
G1 X37.904 Y78.604 E25.87959
G1 X37.959 Y79.382 E25.90554
G0 F3600 X37.865 Y79.413
G0 X38.368 Y80.09
G0 X39.115 Y80.555
G0 X40.071 Y80.797
G0 X41.002 Y80.821
G0 X88.332 Y76.261
G0 X88.354 Y76.164
G1 F1800 X91.663 Y76.612 E26.0166
G1 X95.001 Y76.462 E26.12773
G1 X98.257 Y75.718 E26.23882
G1 X101.328 Y74.406 E26.34989
G1 X104.115 Y72.566 E26.46097
G1 X106.529 Y70.257 E26.57207
G1 X108.493 Y67.555 E26.68317
G1 X109.942 Y64.547 E26.79422
G1 X110.831 Y61.327 E26.90533
G1 X111.131 Y58 E27.01643
G1 X110.831 Y54.673 E27.12754
G1 X109.942 Y51.454 E27.23861
G1 X108.493 Y48.445 E27.34969
G1 X106.529 Y45.743 E27.46079
G1 X104.115 Y43.434 E27.5719
G1 X101.328 Y41.594 E27.68297
G1 X98.257 Y40.282 E27.79404
G1 X95.001 Y39.538 E27.90513
G1 X91.664 Y39.388 E28.01623
G1 X88.566 Y39.807 E28.12021
G1 X88.353 Y39.837 E28.12736
G1 X85.384 Y40.802 E28.2312
G1 X85.178 Y40.869 E28.2384
G1 X82.237 Y42.453 E28.34951
G1 X79.625 Y44.535 E28.4606
G1 X77.428 Y47.05 E28.57168
G1 X75.715 Y49.917 E28.68276
G1 X74.542 Y53.043 E28.79381
G1 X73.945 Y56.329 E28.90489
G1 X73.945 Y59.67 E29.01601
G1 X74.542 Y62.957 E29.12712
G1 X75.715 Y66.084 E29.23821
G1 X77.428 Y68.95 E29.34926
G1 X79.625 Y71.465 E29.46033
G1 X82.237 Y73.548 E29.57145
G1 X85.178 Y75.13 E29.68252
G1 X88.354 Y76.164 E29.79361
G0 F3600 X88.332 Y76.261
G0 X97.643 Y103
G0 X97.743 Y103
G1 F1800 X98.047 Y107.235 E29.93483
G1 X98.949 Y111.383 E30.07602
G1 X100.433 Y115.361 E30.21723
G1 X102.467 Y119.087 E30.35842
G1 X105.011 Y122.486 E30.49963
G1 X108.014 Y125.489 E30.64088
G1 X111.413 Y128.033 E30.78209
G1 X115.139 Y130.067 E30.92328
G1 X119.117 Y131.551 E31.0645
G1 X123.265 Y132.453 E31.20569
G1 X127.5 Y132.757 E31.34691
G1 X131.735 Y132.453 E31.48812
G1 X135.883 Y131.551 E31.62931
G1 X139.861 Y130.067 E31.77053
G1 X143.587 Y128.033 E31.91172
G1 X146.986 Y125.489 E32.05293
G1 X149.989 Y122.486 E32.19418
G1 X152.533 Y119.087 E32.33539
G1 X154.567 Y115.361 E32.47658
G1 X156.051 Y111.383 E32.61779
G1 X156.953 Y107.235 E32.75898
G1 X157.257 Y103 E32.9002
G1 X156.953 Y98.765 E33.04142
G1 X156.051 Y94.617 E33.18261
G1 X154.567 Y90.639 E33.32382
G1 X152.533 Y86.913 E33.46501
G1 X149.989 Y83.514 E33.60622
G1 X146.986 Y80.511 E33.74747
G1 X143.587 Y77.967 E33.88868
G1 X139.861 Y75.933 E34.02987
G1 X135.883 Y74.449 E34.17109
G1 X131.735 Y73.547 E34.31228
G1 X127.5 Y73.243 E34.45349
G1 X123.265 Y73.547 E34.59471
G1 X119.117 Y74.449 E34.7359
G1 X115.139 Y75.933 E34.87712
G1 X111.413 Y77.967 E35.01831
G1 X108.014 Y80.511 E35.15952
G1 X105.011 Y83.514 E35.30077
G1 X102.467 Y86.913 E35.44198
G1 X100.433 Y90.639 E35.58317
G1 X98.949 Y94.617 E35.72438
G1 X98.047 Y98.765 E35.86557
G1 X97.743 Y103 E36.00679
G0 F3600 X97.643 Y103
G0 X83.809 Y121.324
G0 X82.39 Y123.051
G0 X80.987 Y124.495
G0 X79.61 Y125.616
G0 X78.268 Y126.388
G0 X77.098 Y126.737
G0 X75.726 Y126.8
G0 X75.747 Y126.703
G1 F1800 X76.963 Y126.737 E36.04725
G1 X78.253 Y126.352 E36.09203
G1 X79.588 Y125.584 E36.14325
G1 X80.96 Y124.466 E36.20212
G1 X82.361 Y123.025 E36.26896
G1 X83.778 Y121.3 E36.34321
G1 X85.186 Y119.332 E36.42369
G1 X86.569 Y117.174 E36.50894
G1 X89.083 Y112.64 E36.68138
G1 X91.298 Y107.9 E36.85539
G1 X92.27 Y105.483 E36.94204
G1 X93.034 Y103.291 E37.01925
G1 X93.631 Y101.219 E37.09097
G1 X94.049 Y99.274 E37.15713
G1 X94.277 Y97.446 E37.2184
G1 X94.3 Y95.722 E37.27575
G1 X94.117 Y94.089 E37.3304
G1 X93.722 Y92.531 E37.38386
G1 X93.122 Y91.031 E37.4376
G1 X92.33 Y89.575 E37.49272
G1 X91.363 Y88.148 E37.55006
G1 X90.235 Y86.736 E37.61017
G1 X87.677 Y84.092 E37.73253
G1 X84.74 Y81.647 E37.85963
G1 X83.137 Y80.537 E37.92448
G1 X81.618 Y79.662 E37.98279
G1 X80.137 Y78.992 E38.03685
G1 X78.714 Y78.562 E38.08629
G1 X77.372 Y78.4 E38.13125
G1 X76.133 Y78.537 E38.17271
G1 X75.04 Y78.998 E38.21217
G1 X74.152 Y79.764 E38.25117
G1 X73.501 Y80.784 E38.29142
G1 X73.077 Y82.002 E38.33431
G1 X72.859 Y83.386 E38.38091
G1 X72.819 Y84.909 E38.43159
G1 X72.922 Y86.553 E38.48637
G1 X73.139 Y88.303 E38.54502
G1 X73.755 Y91.945 E38.66788
G1 X74.403 Y95.911 E38.80154
G1 X74.823 Y100.015 E38.93875
G1 X74.853 Y104.168 E39.07688
G1 X74.472 Y108.293 E39.21466
G1 X73.819 Y112.342 E39.35107
G1 X73.145 Y116.211 E39.4817
G1 X72.874 Y118.142 E39.54655
G1 X72.729 Y119.879 E39.60452
G1 X72.722 Y121.503 E39.65854
G1 X72.889 Y122.985 E39.70814
G1 X73.252 Y124.299 E39.75348
G1 X73.842 Y125.404 E39.79515
G1 X74.679 Y126.235 E39.83438
G1 X75.747 Y126.703 E39.87316
