;FLAVOR:Marlin
;TIME:5620
;Filament used: 5.57892m
;Layer height: 0.2
;MINX:16.663
;MINY:43.304
;MINZ:0.2
;MAXX:179.234
;MAXY:177.103
;MAXZ:2
;Generated with Cura_SteamEngine 4.2.1
M140 S60
M105
M190 S60
M104 S200
M105
M109 S200
M82 ;absolute extrusion mode
G28 ;Home
G1 Z15.0 F6000 ;Move the platform down 15mm
;Prime the extruder
G92 E0
G1 F200 E3
G92 E0
;
M117 Printing...        ☺
M141 S28
G92 E0
G92 E0
G1 F1500 E-3
;LAYER_COUNT:10
;LAYER:0
M107
G0 F3600 X25.227 Y81.514 Z0.2
;TYPE:SKIRT
G1 F1500 E0
G1 F1800 X25.668 Y81.411 E0.01506
G1 X27.069 Y81.189 E0.06224
G1 X28.437 Y80.965 E0.10835
G1 X31.132 Y80.463 E0.19952
G1 X33.808 Y79.885 E0.29058
G1 X36.457 Y79.234 E0.38131
G1 X39.089 Y78.509 E0.47211
G1 X41.736 Y77.697 E0.5642
G1 X44.319 Y76.825 E0.65487
G1 X46.882 Y75.878 E0.74575
G1 X49.448 Y74.845 E0.83775
G1 X51.925 Y73.768 E0.92759
G1 X54.432 Y72.591 E1.01971
G1 X56.867 Y71.362 E1.11042
G1 X59.255 Y70.072 E1.2007
G1 X61.639 Y68.696 E1.29225
G1 X63.955 Y67.269 E1.38273
G1 X66.278 Y65.747 E1.4751
G1 X68.498 Y64.2 E1.5651
G1 X70.735 Y62.545 E1.65765
G1 X72.834 Y60.898 E1.74639
G1 X74.987 Y59.108 E1.83951
G1 X77.03 Y57.311 E1.93001
G1 X79.025 Y55.453 E2.02068
G1 X80.978 Y53.526 E2.11194
G1 X82.864 Y51.558 E2.2026
G1 X84.718 Y49.512 E2.29443
G1 X84.972 Y49.218 E2.30735
G1 X85.004 Y49.181 E2.30898
G1 X85.44 Y48.691 E2.33079
G1 X85.505 Y48.62 E2.334
G1 X85.728 Y48.384 E2.34479
G1 X85.794 Y48.316 E2.34795
G1 X86.585 Y47.527 E2.38511
G1 X86.618 Y47.495 E2.38663
G1 X87.105 Y47.023 E2.40919
G1 X87.386 Y46.781 E2.42153
G1 X88.117 Y46.221 E2.45215
G1 X88.167 Y46.183 E2.45424
G1 X88.534 Y45.913 E2.4694
G1 X88.565 Y45.891 E2.47066
G1 X89.131 Y45.485 E2.49383
G1 X89.408 Y45.307 E2.50478
G1 X89.618 Y45.187 E2.51282
G1 X89.713 Y45.135 E2.51643
G1 X89.95 Y45.01 E2.52534
G1 X89.978 Y44.995 E2.52639
G1 X90.71 Y44.618 E2.55378
G1 X90.748 Y44.599 E2.55519
G1 X91.374 Y44.287 E2.57846
G1 X91.759 Y44.125 E2.59235
G1 X92.276 Y43.947 E2.61054
G1 X92.334 Y43.928 E2.61257
G1 X93.349 Y43.6 E2.64804
G1 X93.41 Y43.581 E2.65017
G1 X93.888 Y43.437 E2.66677
G1 X94.382 Y43.33 E2.68358
G1 X94.949 Y43.304 E2.70246
G1 X95.829 Y43.342 E2.73176
G1 X98.568 Y43.432 E2.82291
G1 X101.323 Y43.445 E2.91454
G1 X104.099 Y43.38 E3.00689
G1 X104.749 Y43.359 E3.02853
G1 X105.254 Y43.382 E3.04534
G1 X105.765 Y43.49 E3.06271
G1 X106.801 Y43.798 E3.09866
G1 X106.877 Y43.821 E3.1013
G1 X107.561 Y44.043 E3.12522
G1 X107.913 Y44.181 E3.13779
G1 X108.776 Y44.579 E3.1694
G1 X108.824 Y44.602 E3.17117
G1 X109.146 Y44.757 E3.18306
G1 X109.191 Y44.779 E3.18472
G1 X109.696 Y45.032 E3.20351
G1 X110.027 Y45.223 E3.21622
G1 X110.976 Y45.85 E3.25405
G1 X111.032 Y45.888 E3.2563
G1 X111.233 Y46.027 E3.26443
G1 X111.269 Y46.052 E3.26589
G1 X111.8 Y46.43 E3.28757
G1 X112.088 Y46.662 E3.29987
G1 X112.694 Y47.209 E3.32702
G1 X112.725 Y47.237 E3.32841
G1 X113.094 Y47.579 E3.34514
G1 X113.132 Y47.614 E3.34686
G1 X113.67 Y48.129 E3.37163
G1 X113.881 Y48.352 E3.38184
G1 X114.186 Y48.706 E3.39738
G1 X114.223 Y48.75 E3.3993
G1 X116.244 Y51.183 E3.5045
G1 X118.058 Y53.254 E3.59606
G1 X119.944 Y55.291 E3.6884
G1 X121.822 Y57.207 E3.77763
G1 X123.81 Y59.123 E3.86946
G1 X125.84 Y60.973 E3.96081
G1 X127.905 Y62.749 E4.0514
G1 X130.054 Y64.494 E4.14347
G1 X132.217 Y66.152 E4.23412
G1 X134.417 Y67.74 E4.32436
G1 X136.704 Y69.297 E4.41638
G1 X139.002 Y70.765 E4.50708
G1 X141.33 Y72.163 E4.5974
G1 X143.732 Y73.515 E4.68907
G1 X146.174 Y74.799 E4.78084
G1 X148.594 Y75.985 E4.87047
G1 X151.125 Y77.138 E4.96298
G1 X153.658 Y78.209 E5.05445
G1 X156.153 Y79.177 E5.14346
G1 X158.779 Y80.115 E5.2362
G1 X161.34 Y80.947 E5.32577
G1 X164.007 Y81.732 E5.41823
G1 X166.644 Y82.427 E5.50894
G1 X169.131 Y83.011 E5.5939
G1 X169.494 Y83.091 E5.60627
G1 X169.977 Y83.238 E5.62306
G1 X170.432 Y83.46 E5.6399
G1 X170.845 Y83.751 E5.6567
G1 X171.208 Y84.103 E5.67352
G1 X171.634 Y84.72 E5.69846
G1 X171.928 Y85.276 E5.71937
G1 X171.955 Y85.329 E5.72135
G1 X174.584 Y90.532 E5.91524
G1 X174.599 Y90.563 E5.91639
G1 X174.96 Y91.297 E5.94359
G1 X175.178 Y91.875 E5.96414
G1 X175.326 Y92.423 E5.98302
G1 X175.342 Y92.482 E5.98505
G1 X175.726 Y94.021 E6.03781
G1 X176.47 Y96.68 E6.12964
G1 X177.271 Y99.262 E6.21956
G1 X178.162 Y101.869 E6.31119
G1 X179.04 Y104.261 E6.39594
G1 X179.176 Y104.748 E6.41276
G1 X179.234 Y105.251 E6.4296
G1 X179.212 Y105.756 E6.44641
G1 X179.111 Y106.251 E6.46322
G1 X178.933 Y106.724 E6.48002
G1 X178.682 Y107.163 E6.49684
G1 X178.366 Y107.558 E6.51367
G1 X178.178 Y107.741 E6.52239
G1 X177.925 Y107.969 E6.53372
G1 X177.888 Y108.002 E6.53537
G1 X176.298 Y109.391 E6.60559
G1 X174.283 Y111.255 E6.69689
G1 X172.338 Y113.16 E6.78744
G1 X170.429 Y115.138 E6.87887
G1 X168.58 Y117.164 E6.9701
G1 X166.798 Y119.233 E7.06092
G1 X165.057 Y121.372 E7.15265
G1 X163.429 Y123.494 E7.24161
G1 X161.798 Y125.748 E7.33414
G1 X160.243 Y128.032 E7.42604
G1 X158.777 Y130.321 E7.51645
G1 X157.377 Y132.648 E7.60678
G1 X156.015 Y135.065 E7.69905
G1 X154.752 Y137.462 E7.78917
G1 X153.537 Y139.937 E7.88087
G1 X152.404 Y142.419 E7.97162
G1 X151.342 Y144.931 E8.06232
G1 X150.342 Y147.495 E8.15386
G1 X149.422 Y150.07 E8.24481
G1 X148.573 Y152.672 E8.33584
G1 X147.798 Y155.3 E8.42697
G1 X147.098 Y157.945 E8.51797
G1 X146.467 Y160.633 E8.6098
G1 X145.926 Y163.28 E8.69966
G1 X145.496 Y165.711 E8.78177
G1 X145.446 Y165.944 E8.7897
G1 X145.36 Y166.281 E8.80127
G1 X145.336 Y166.369 E8.8043
G1 X145.068 Y167.307 E8.83675
G1 X145.055 Y167.35 E8.83824
G1 X144.843 Y168.055 E8.86273
G1 X144.716 Y168.404 E8.87508
G1 X144.403 Y169.127 E8.90128
G1 X144.382 Y169.174 E8.903
G1 X144.174 Y169.634 E8.91979
G1 X144.155 Y169.675 E8.92129
G1 X143.852 Y170.321 E8.94502
G1 X143.696 Y170.613 E8.95603
G1 X143.525 Y170.897 E8.96706
G1 X143.472 Y170.983 E8.97042
G1 X143.061 Y171.619 E8.99561
G1 X143.022 Y171.677 E8.99793
G1 X142.541 Y172.387 E9.02645
G1 X142.293 Y172.707 E9.03992
G1 X141.982 Y173.06 E9.05557
G1 X141.935 Y173.112 E9.0579
G1 X141.715 Y173.351 E9.0687
G1 X141.685 Y173.383 E9.07016
G1 X141.246 Y173.847 E9.09141
G1 X140.871 Y174.186 E9.10822
G1 X140.447 Y174.461 E9.12503
G1 X139.841 Y174.713 E9.14686
G1 X139.194 Y174.907 E9.16932
G1 X139.104 Y174.933 E9.17244
G1 X134.977 Y176.04 E9.31456
G1 X134.933 Y176.051 E9.31607
G1 X134.241 Y176.226 E9.33981
G1 X133.916 Y176.291 E9.35083
G1 X133.331 Y176.376 E9.37049
G1 X133.267 Y176.384 E9.37264
G1 X132.425 Y176.489 E9.40086
G1 X132.394 Y176.493 E9.4019
G1 X131.592 Y176.585 E9.42875
G1 X131.567 Y176.588 E9.42958
G1 X130.258 Y176.728 E9.47337
G1 X130.214 Y176.732 E9.47484
G1 X128.932 Y176.851 E9.51766
G1 X128.851 Y176.858 E9.52037
G1 X127.871 Y176.924 E9.55304
G1 X127.83 Y176.926 E9.5544
G1 X125.189 Y177.07 E9.64237
G1 X125.072 Y177.074 E9.64627
G1 X123.494 Y177.102 E9.69876
G1 X123.435 Y177.103 E9.70072
G1 X121.441 Y177.102 E9.76704
G1 X121.391 Y177.102 E9.7687
G1 X120.351 Y177.085 E9.8033
G1 X120.267 Y177.082 E9.8061
G1 X119.772 Y177.061 E9.82257
G1 X119.687 Y177.056 E9.82541
G1 X119.369 Y177.034 E9.83601
G1 X119.34 Y177.032 E9.83697
G1 X116.685 Y176.824 E9.92555
G1 X116.64 Y176.82 E9.92705
G1 X115.992 Y176.76 E9.9487
G1 X115.901 Y176.751 E9.95174
G1 X115.695 Y176.726 E9.95864
G1 X115.599 Y176.712 E9.96187
G1 X114.718 Y176.578 E9.99151
G1 X111.948 Y176.183 E10.08457
G1 X109.243 Y175.875 E10.17512
G1 X106.534 Y175.645 E10.26555
G1 X103.787 Y175.489 E10.35706
G1 X101.034 Y175.411 E10.44866
G1 X98.317 Y175.411 E10.53903
G1 X95.561 Y175.489 E10.63073
G1 X92.819 Y175.643 E10.72207
G1 X90.138 Y175.872 E10.81157
G1 X87.369 Y176.186 E10.90426
G1 X85.364 Y176.463 E10.97158
G1 X84.138 Y176.646 E11.0128
G1 X83.969 Y176.667 E11.01847
G1 X83.317 Y176.729 E11.04025
G1 X83.273 Y176.733 E11.04172
G1 X80.485 Y176.959 E11.13475
G1 X80.439 Y176.962 E11.13629
G1 X79.691 Y177.012 E11.16122
G1 X79.558 Y177.018 E11.16565
G1 X79.079 Y177.03 E11.18159
G1 X79.012 Y177.031 E11.18382
G1 X76.285 Y177.042 E11.27452
G1 X76.23 Y177.042 E11.27635
G1 X74.851 Y177.024 E11.32222
G1 X74.754 Y177.021 E11.32544
G1 X73.993 Y176.988 E11.35078
G1 X73.953 Y176.986 E11.35211
G1 X71.869 Y176.869 E11.42153
G1 X71.835 Y176.867 E11.42267
G1 X70.979 Y176.81 E11.4512
G1 X70.902 Y176.804 E11.45377
G1 X69.549 Y176.681 E11.49896
G1 X69.49 Y176.675 E11.50093
G1 X67.085 Y176.411 E11.5814
G1 X67 Y176.4 E11.58425
G1 X65.823 Y176.239 E11.62376
G1 X65.489 Y176.176 E11.63507
G1 X64.87 Y176.023 E11.65627
G1 X64.81 Y176.007 E11.65834
G1 X60.592 Y174.877 E11.80358
G1 X60.551 Y174.866 E11.80499
G1 X59.924 Y174.689 E11.82666
G1 X59.449 Y174.513 E11.84351
G1 X59.009 Y174.265 E11.86031
G1 X58.485 Y173.825 E11.88306
G1 X57.957 Y173.275 E11.90842
G1 X57.872 Y173.184 E11.91256
G1 X57.373 Y172.622 E11.93756
G1 X57.117 Y172.293 E11.95143
G1 X56.778 Y171.793 E11.97152
G1 X56.739 Y171.734 E11.97387
G1 X56.242 Y170.965 E12.00432
G1 X56.196 Y170.891 E12.00722
G1 X55.954 Y170.493 E12.02271
G1 X55.775 Y170.154 E12.03546
G1 X55.284 Y169.074 E12.07492
G1 X55.251 Y168.999 E12.07765
G1 X54.95 Y168.289 E12.1033
G1 X54.828 Y167.951 E12.11525
G1 X54.529 Y166.944 E12.15019
G1 X54.511 Y166.881 E12.15237
G1 X54.417 Y166.539 E12.16416
G1 X54.404 Y166.487 E12.16595
G1 X54.225 Y165.79 E12.18988
G1 X54.185 Y165.618 E12.19575
G1 X54.124 Y165.311 E12.20617
G1 X53.557 Y162.636 E12.29711
G1 X52.917 Y159.994 E12.38753
G1 X52.194 Y157.334 E12.47921
G1 X51.395 Y154.695 E12.57092
G1 X50.529 Y152.101 E12.66188
G1 X49.596 Y149.551 E12.75219
G1 X48.576 Y146.991 E12.84384
G1 X47.496 Y144.489 E12.93448
G1 X46.326 Y141.971 E13.02683
G1 X45.134 Y139.59 E13.11539
G1 X43.798 Y137.097 E13.20947
G1 X42.481 Y134.799 E13.29756
G1 X41.007 Y132.387 E13.39158
G1 X39.538 Y130.129 E13.48117
G1 X37.981 Y127.88 E13.57215
G1 X36.364 Y125.677 E13.66304
G1 X34.677 Y123.512 E13.75433
G1 X32.928 Y121.394 E13.84569
G1 X31.134 Y119.341 E13.93637
G1 X29.27 Y117.325 E14.02769
G1 X27.367 Y115.384 E14.1181
G1 X25.37 Y113.457 E14.2104
G1 X23.376 Y111.638 E14.30017
G1 X21.277 Y109.828 E14.39236
G1 X19.168 Y108.117 E14.48268
G1 X17.899 Y107.131 E14.53613
G1 X17.525 Y106.79 E14.55297
G1 X17.21 Y106.395 E14.56977
G1 X16.961 Y105.955 E14.58659
G1 X16.784 Y105.481 E14.60342
G1 X16.684 Y104.986 E14.62021
G1 X16.663 Y104.48 E14.63706
G1 X16.769 Y103.778 E14.66067
G1 X17.783 Y99.975 E14.79158
G1 X18.412 Y97.3 E14.88297
G1 X18.956 Y94.641 E14.97325
G1 X19.607 Y90.826 E15.10197
G1 X19.731 Y90.336 E15.11878
G1 X19.859 Y90.014 E15.1303
G1 X19.999 Y89.713 E15.14134
G1 X20.041 Y89.628 E15.1445
G1 X23.017 Y83.696 E15.36523
G1 X23.041 Y83.649 E15.36699
G1 X23.333 Y83.09 E15.38797
G1 X23.601 Y82.662 E15.40476
G1 X23.934 Y82.282 E15.42157
G1 X24.323 Y81.958 E15.4384
G1 X24.758 Y81.7 E15.45523
G1 X25.227 Y81.514 E15.47201
G1 F1500 E12.47201
;MESH:LptB_Bottom_Left.stl
G0 F3600 X26.884 Y84.107
G0 X26.471 Y85.317
G0 X35.703 Y91.952
G0 X35.621 Y92.008
;TYPE:WALL-INNER
G1 F1500 E15.47201
G1 F1800 X23.968 Y90.878 E15.8614
G1 X23.679 Y90.85 E15.87106
G1 X23.809 Y90.59 E15.87675
G1 X26.464 Y85.299 E16.07364
G1 X29.355 Y86.29 E16.17529
G1 X33.041 Y87.428 E16.30359
G1 X40.365 Y89.342 E16.55537
G1 X44.298 Y90.196 E16.68923
G1 X47.974 Y90.847 E16.8134
G1 X51.542 Y91.314 E16.93308
G1 X54.972 Y91.565 E17.04747
G1 X58.234 Y91.565 E17.15596
G1 X61.304 Y91.277 E17.25852
G1 X64.162 Y90.672 E17.35569
G1 X66.79 Y89.725 E17.44859
G1 X69.176 Y88.423 E17.539
G1 X71.308 Y86.767 E17.62879
G1 X73.19 Y84.779 E17.71984
G1 X74.839 Y82.491 E17.81364
G1 X76.279 Y79.951 E17.91076
G1 X77.544 Y77.206 E18.01128
G1 X78.671 Y74.315 E18.11449
G1 X79.694 Y71.333 E18.21934
G1 X81.542 Y65.513 E18.42244
G1 X82.532 Y62.497 E18.52802
G1 X83.514 Y59.782 E18.62404
G1 X84.574 Y57.24 E18.71565
G1 X85.706 Y54.964 E18.80019
G1 X86.947 Y52.934 E18.87933
G1 X88.29 Y51.192 E18.95249
G1 X89.744 Y49.743 E19.02076
G1 X91.327 Y48.575 E19.08619
G1 X93.033 Y47.695 E19.15004
G1 X94.837 Y47.113 E19.21309
G1 X96.438 Y47.54 E19.2682
G1 X97.061 Y48.178 E19.29786
G1 X97.632 Y49.104 E19.33404
G1 X98.076 Y50.266 E19.37541
G1 X98.384 Y51.659 E19.42286
G1 X98.557 Y53.36 E19.47973
G1 X98.579 Y55.221 E19.54163
G1 X98.454 Y57.297 E19.61081
G1 X98.192 Y59.575 E19.68707
G1 X97.782 Y62.144 E19.7736
G1 X97.267 Y64.754 E19.86208
G1 X96.665 Y67.402 E19.9524
G1 X95.923 Y70.371 E20.05419
G1 X94.26 Y76.316 E20.25951
G1 X94.114 Y76.803 E20.27642
G1 X92.342 Y82.596 E20.47791
G1 X90.547 Y88.278 E20.6761
G1 X88.715 Y94.199 E20.88224
G1 X87.223 Y99.567 E21.06755
G1 X86.591 Y102.256 E21.15942
G1 X86.084 Y104.885 E21.24848
G1 X85.745 Y107.271 E21.32863
G1 X85.518 Y109.846 E21.41461
G1 X85.459 Y112.227 E21.49383
G1 X85.543 Y114.836 E21.58065
G1 X85.802 Y117.501 E21.6697
G1 X86.186 Y120.019 E21.75442
G1 X86.751 Y122.832 E21.84985
G1 X87.408 Y125.519 E21.94185
G1 X88.231 Y128.526 E22.04554
G1 X89.16 Y131.634 E22.15343
G1 X91.113 Y137.821 E22.36922
G1 X93.135 Y144.393 E22.59792
G1 X93.974 Y147.39 E22.70143
G1 X94.706 Y150.324 E22.80201
G1 X95.349 Y153.376 E22.90575
G1 X95.782 Y156.185 E23.00028
G1 X96.016 Y158.918 E23.09151
G1 X96.005 Y161.324 E23.17154
G1 X95.749 Y163.492 E23.24415
G1 X95.248 Y165.4 E23.30976
G1 X94.47 Y167.134 E23.37297
G1 X93.489 Y168.536 E23.42988
G1 X92.284 Y169.716 E23.48598
G1 X90.869 Y170.693 E23.54317
G1 X89.28 Y171.475 E23.60207
G1 X87.435 Y172.12 E23.66708
G1 X85.538 Y172.577 E23.73198
G1 X83.602 Y172.894 E23.79723
G1 X79.459 Y173.229 E23.93547
G1 X75.409 Y173.246 E24.07018
G1 X74.805 Y173.227 E24.09028
G1 X71.547 Y173.046 E24.19881
G1 X70.653 Y172.976 E24.22863
G1 X68.153 Y172.711 E24.31225
G1 X66.652 Y172.533 E24.36252
G1 X66.346 Y172.485 E24.37282
G1 X61.096 Y171.079 E24.55359
G1 X60.239 Y170.143 E24.5958
G1 X59.451 Y168.934 E24.6438
G1 X59.199 Y168.535 E24.6595
G1 X58.478 Y166.901 E24.7189
G1 X58.41 Y166.733 E24.72493
G1 X57.901 Y164.869 E24.78919
G1 X57.585 Y162.649 E24.86378
G1 X57.516 Y160.278 E24.94267
G1 X57.671 Y157.632 E25.03083
G1 X58.025 Y154.907 E25.12222
G1 X58.532 Y152.068 E25.21814
G1 X59.154 Y149.096 E25.31913
G1 X60.502 Y142.967 E25.52786
G1 X61.13 Y139.734 E25.6374
G1 X61.595 Y136.666 E25.7406
G1 X61.862 Y133.656 E25.84111
G1 X61.873 Y130.738 E25.93816
G1 X61.57 Y127.937 E26.03187
G1 X60.911 Y125.28 E26.12292
G1 X59.868 Y122.787 E26.2128
G1 X58.367 Y120.377 E26.30723
G1 X56.521 Y118.257 E26.40073
G1 X54.309 Y116.32 E26.49852
G1 X51.757 Y114.551 E26.6018
G1 X48.898 Y112.932 E26.71108
G1 X45.772 Y111.447 E26.82619
G1 X42.42 Y110.077 E26.94663
G1 X38.738 Y108.759 E27.0767
G1 X35.228 Y107.647 E27.19916
G1 X27.727 Y105.617 E27.45762
G1 X23.802 Y104.732 E27.59144
G1 X21.043 Y104.214 E27.68481
G1 X20.771 Y104.163 E27.69402
G1 X20.905 Y103.921 E27.69948
G1 X22.879 Y100.363 E27.83481
G1 X32.154 Y104.09 E28.16728
G1 X32.362 Y104.173 E28.17473
G1 X32.419 Y103.957 E28.17937
G1 X32.42 Y103.956 E28.17942
G1 X35.621 Y92.008 E28.59083
G0 F3600 X35.112 Y92.361
;TYPE:WALL-OUTER
G1 F1800 X34.878 Y92.339 E28.59864
G1 X23.349 Y91.22 E28.9839
G1 X23.06 Y91.192 E28.99356
G1 X23.19 Y90.932 E28.99924
G1 X26.263 Y84.808 E29.22713
G1 X29.479 Y85.91 E29.3402
G1 X33.151 Y87.043 E29.46802
G1 X40.458 Y88.953 E29.71921
G1 X44.375 Y89.803 E29.85253
G1 X48.035 Y90.452 E29.97616
G1 X51.583 Y90.916 E30.09517
G1 X54.987 Y91.165 E30.20869
G1 X58.215 Y91.165 E30.31605
G1 X61.244 Y90.881 E30.41724
G1 X64.052 Y90.286 E30.51271
G1 X66.625 Y89.359 E30.60367
G1 X68.956 Y88.087 E30.69199
G1 X71.039 Y86.47 E30.7797
G1 X72.881 Y84.523 E30.86884
G1 X74.502 Y82.275 E30.96102
G1 X75.923 Y79.768 E31.05687
G1 X77.176 Y77.05 E31.15642
G1 X78.295 Y74.177 E31.25896
G1 X79.314 Y71.208 E31.36337
G1 X81.162 Y65.388 E31.56647
G1 X82.156 Y62.361 E31.67243
G1 X83.145 Y59.628 E31.7691
G1 X84.21 Y57.074 E31.86114
G1 X85.356 Y54.769 E31.94675
G1 X86.617 Y52.706 E32.02717
G1 X87.987 Y50.93 E32.10178
G1 X89.487 Y49.435 E32.17221
G1 X91.114 Y48.234 E32.23947
G1 X92.879 Y47.324 E32.30552
G1 X94.825 Y46.696 E32.37353
G1 X96.588 Y47.167 E32.43423
G1 X96.667 Y47.203 E32.43711
G1 X97.381 Y47.934 E32.4711
G1 X97.992 Y48.926 E32.50985
G1 X98.46 Y50.15 E32.55344
G1 X98.779 Y51.593 E32.60259
G1 X98.957 Y53.336 E32.66086
G1 X98.979 Y55.226 E32.72373
G1 X98.852 Y57.331 E32.79387
G1 X98.587 Y59.638 E32.8711
G1 X98.177 Y62.207 E32.95763
