;FLAVOR:Marlin
;TIME:2962
;Filament used: 2.95497m
;Layer height: 0.2
;MINX:48.3
;MINY:31.8
;MINZ:0.2
;MAXX:151.7
;MAXY:167.874
;MAXZ:2
;Generated with Cura_SteamEngine 4.2.1
M140 S60
M105
M190 S60
M104 S200
M105
M109 S200
M82 ;absolute extrusion mode
G28 ;Home
G1 Z15.0 F6000 ;Move the platform down 15mm
;Prime the extruder
G92 E0
G1 F200 E3
G92 E0
;
M117 Printing...        ☺
M141 S28
G92 E0
G92 E0
G1 F1500 E-3
;LAYER_COUNT:10
;LAYER:0
M107
G0 F3600 X91.682 Y40.257 Z0.2
;TYPE:SKIRT
G1 F1500 E0
G1 F1800 X91.916 Y39.775 E0.01782
G1 X91.942 Y39.725 E0.0197
G1 X92.244 Y39.13 E0.04189
G1 X92.264 Y39.091 E0.04335
G1 X92.549 Y38.548 E0.06374
G1 X92.7 Y38.29 E0.07369
G1 X93.378 Y37.248 E0.11503
G1 X93.432 Y37.168 E0.11824
G1 X93.791 Y36.651 E0.13918
G1 X93.932 Y36.462 E0.14702
G1 X94.081 Y36.278 E0.1549
G1 X94.149 Y36.197 E0.15841
G1 X94.337 Y35.98 E0.16796
G1 X94.362 Y35.952 E0.16921
G1 X94.753 Y35.511 E0.18881
G1 X94.782 Y35.479 E0.19025
G1 X95.234 Y34.983 E0.21257
G1 X95.5 Y34.723 E0.22494
G1 X96.248 Y34.073 E0.2579
G1 X96.308 Y34.022 E0.26052
G1 X96.908 Y33.526 E0.28641
G1 X97.199 Y33.312 E0.29843
G1 X97.754 Y32.95 E0.32046
G1 X97.796 Y32.923 E0.32213
G1 X98.172 Y32.686 E0.33691
G1 X98.206 Y32.665 E0.33824
G1 X98.831 Y32.282 E0.36262
G1 X99.282 Y32.052 E0.37946
G1 X99.763 Y31.897 E0.39626
G1 X100.452 Y31.81 E0.41936
G1 X101.075 Y31.8 E0.44009
G1 X101.839 Y31.8 E0.4655
G1 X102.537 Y31.81 E0.48871
G1 X103.04 Y31.857 E0.50552
G1 X103.53 Y31.983 E0.52235
G1 X104.069 Y32.226 E0.54201
G1 X104.376 Y32.4 E0.55375
G1 X104.479 Y32.461 E0.55773
G1 X104.91 Y32.727 E0.57457
G1 X104.947 Y32.751 E0.57604
G1 X105.456 Y33.075 E0.59611
G1 X105.697 Y33.243 E0.60588
G1 X106.613 Y33.952 E0.64441
G1 X106.7 Y34.023 E0.64814
G1 X107.187 Y34.428 E0.66921
G1 X107.431 Y34.653 E0.68025
G1 X107.834 Y35.066 E0.69944
G1 X107.871 Y35.105 E0.70123
G1 X108.139 Y35.389 E0.71422
G1 X108.174 Y35.426 E0.71591
G1 X108.652 Y35.949 E0.73948
G1 X108.841 Y36.176 E0.7493
G1 X109.144 Y36.576 E0.76599
G1 X109.188 Y36.635 E0.76844
G1 X109.463 Y37.016 E0.78407
G1 X109.487 Y37.051 E0.78548
G1 X109.894 Y37.631 E0.80904
G1 X110.053 Y37.88 E0.81887
G1 X110.626 Y38.882 E0.85726
G1 X110.669 Y38.961 E0.86025
G1 X110.988 Y39.557 E0.88274
G1 X111.093 Y39.77 E0.89064
G1 X111.331 Y40.307 E0.91017
G1 X111.355 Y40.365 E0.91226
G1 X111.539 Y40.803 E0.92806
G1 X111.554 Y40.837 E0.9293
G1 X111.836 Y41.531 E0.95421
G1 X111.903 Y41.712 E0.96063
G1 X112.23 Y42.681 E0.99465
G1 X113.156 Y45.307 E1.08726
G1 X114.144 Y47.874 E1.17874
G1 X115.192 Y50.38 E1.26909
G1 X116.323 Y52.884 E1.36047
G1 X117.522 Y55.352 E1.45173
G1 X118.787 Y57.781 E1.54282
G1 X120.094 Y60.123 E1.63202
G1 X121.533 Y62.537 E1.7255
G1 X122.979 Y64.818 E1.81532
G1 X124.509 Y67.083 E1.90624
G1 X126.115 Y69.323 E1.99791
G1 X127.791 Y71.525 E2.08995
G1 X129.471 Y73.61 E2.17901
G1 X131.264 Y75.71 E2.27085
G1 X133.113 Y77.754 E2.36252
G1 X134.996 Y79.722 E2.45311
G1 X136.935 Y81.636 E2.54373
G1 X138.957 Y83.523 E2.63572
G1 X140.988 Y85.313 E2.72576
G1 X143.108 Y87.078 E2.81751
G1 X145.262 Y88.769 E2.90859
G1 X147.436 Y90.381 E2.99861
G1 X149.682 Y91.931 E3.08937
G1 X149.702 Y91.946 E3.0902
G1 X150.319 Y92.379 E3.11528
G1 X150.709 Y92.701 E3.1321
G1 X151.043 Y93.08 E3.1489
G1 X151.313 Y93.508 E3.16573
G1 X151.512 Y93.972 E3.18252
G1 X151.636 Y94.463 E3.19937
G1 X151.68 Y94.935 E3.21513
G1 X151.699 Y95.896 E3.2471
G1 X151.7 Y95.959 E3.2492
G1 X151.7 Y105.548 E3.56813
G1 X151.69 Y106.246 E3.59135
G1 X151.643 Y106.749 E3.60815
G1 X151.517 Y107.239 E3.62498
G1 X151.315 Y107.703 E3.64181
G1 X151.043 Y108.129 E3.65862
G1 X150.708 Y108.507 E3.67542
G1 X150.29 Y108.845 E3.6933
G1 X149.241 Y109.559 E3.7355
G1 X146.97 Y111.143 E3.82759
G1 X144.755 Y112.784 E3.91928
G1 X142.61 Y114.468 E4.00998
G1 X140.487 Y116.236 E4.10187
G1 X138.459 Y118.022 E4.19175
G1 X136.451 Y119.895 E4.28308
G1 X134.478 Y121.843 E4.3753
G1 X132.613 Y123.792 E4.46502
G1 X130.767 Y125.831 E4.55651
G1 X128.983 Y127.918 E4.64782
G1 X127.26 Y130.057 E4.73918
G1 X125.608 Y132.229 E4.82994
G1 X124.023 Y134.437 E4.92034
G1 X122.486 Y136.713 E5.01169
G1 X121.01 Y139.038 E5.10328
G1 X119.614 Y141.382 E5.19402
G1 X118.277 Y143.776 E5.28522
G1 X117.017 Y146.193 E5.37588
G1 X115.818 Y148.658 E5.46705
G1 X114.695 Y151.146 E5.55784
G1 X113.618 Y153.724 E5.65077
G1 X112.64 Y156.259 E5.74114
G1 X112.365 Y157.047 E5.7689
G1 X112.35 Y157.089 E5.77038
G1 X111.962 Y158.153 E5.80805
G1 X111.922 Y158.257 E5.81176
G1 X111.437 Y159.456 E5.85477
G1 X111.401 Y159.542 E5.85788
G1 X111.12 Y160.182 E5.88112
G1 X111.049 Y160.333 E5.88667
G1 X110.958 Y160.514 E5.89341
G1 X110.921 Y160.586 E5.8961
G1 X110.813 Y160.788 E5.90372
G1 X110.795 Y160.821 E5.90497
G1 X110.504 Y161.35 E5.92505
G1 X110.481 Y161.391 E5.92662
G1 X110.119 Y162.027 E5.95096
G1 X109.967 Y162.269 E5.96046
G1 X109.49 Y162.956 E5.98828
G1 X109.437 Y163.03 E5.99131
G1 X109.002 Y163.62 E6.01569
G1 X108.823 Y163.841 E6.02515
G1 X108.228 Y164.514 E6.05502
G1 X108.165 Y164.584 E6.05816
G1 X107.618 Y165.167 E6.08475
G1 X107.419 Y165.361 E6.09399
G1 X107.237 Y165.524 E6.10212
G1 X107.17 Y165.582 E6.10506
G1 X106.687 Y165.991 E6.12611
G1 X106.641 Y166.029 E6.1281
G1 X106.084 Y166.483 E6.152
G1 X105.789 Y166.697 E6.16412
G1 X105.193 Y167.079 E6.18766
G1 X105.105 Y167.133 E6.1911
G1 X104.639 Y167.411 E6.20915
G1 X104.186 Y167.635 E6.22595
G1 X103.703 Y167.785 E6.24278
G1 X103.101 Y167.861 E6.26296
G1 X102.752 Y167.872 E6.27457
G1 X102.651 Y167.874 E6.27793
G1 X100.659 Y167.874 E6.34419
G1 X99.958 Y167.864 E6.3675
G1 X99.455 Y167.817 E6.38431
G1 X98.965 Y167.691 E6.40113
G1 X98.418 Y167.443 E6.42111
G1 X98.171 Y167.302 E6.43057
G1 X98.084 Y167.251 E6.43392
G1 X97.846 Y167.105 E6.44321
G1 X97.796 Y167.073 E6.44518
G1 X97.203 Y166.694 E6.46859
G1 X96.924 Y166.495 E6.47999
G1 X96.445 Y166.111 E6.50041
G1 X96.365 Y166.044 E6.50388
G1 X95.771 Y165.535 E6.5299
G1 X95.547 Y165.324 E6.54013
G1 X94.727 Y164.472 E6.57946
G1 X94.634 Y164.371 E6.58403
G1 X94.294 Y163.986 E6.60111
G1 X94.113 Y163.761 E6.61072
G1 X93.414 Y162.808 E6.65003
G1 X93.351 Y162.719 E6.65365
G1 X92.968 Y162.158 E6.67625
G1 X92.812 Y161.905 E6.68613
G1 X92.276 Y160.938 E6.7229
G1 X92.224 Y160.84 E6.72659
G1 X91.982 Y160.365 E6.74433
G1 X91.895 Y160.18 E6.75112
G1 X91.387 Y159.003 E6.79376
G1 X91.364 Y158.947 E6.79578
G1 X91.251 Y158.671 E6.8057
G1 X91.231 Y158.621 E6.80749
G1 X90.993 Y158.011 E6.82926
G1 X89.939 Y155.421 E6.92227
G1 X88.848 Y152.943 E7.01232
G1 X87.664 Y150.451 E7.10409
G1 X86.42 Y148.009 E7.19524
G1 X85.112 Y145.613 E7.28603
G1 X83.737 Y143.257 E7.37676
G1 X82.277 Y140.907 E7.46878
G1 X80.801 Y138.677 E7.55772
G1 X79.197 Y136.396 E7.65047
G1 X77.551 Y134.191 E7.74199
G1 X75.867 Y132.063 E7.83225
G1 X74.111 Y129.968 E7.92317
G1 X72.262 Y127.886 E8.01578
G1 X70.41 Y125.915 E8.10573
G1 X68.499 Y123.994 E8.19586
G1 X66.499 Y122.092 E8.28766
G1 X64.456 Y120.257 E8.37899
G1 X62.372 Y118.49 E8.46987
G1 X60.224 Y116.769 E8.56141
G1 X58.057 Y115.134 E8.6517
G1 X55.833 Y113.552 E8.74248
G1 X53.544 Y112.017 E8.83414
G1 X51.213 Y110.55 E8.92575
G1 X50.347 Y110.035 E8.95926
G1 X50.307 Y110.011 E8.96081
G1 X49.836 Y109.722 E8.97919
G1 X49.428 Y109.425 E8.99598
G1 X49.071 Y109.067 E9.01279
G1 X48.775 Y108.657 E9.02961
G1 X48.548 Y108.205 E9.04643
G1 X48.394 Y107.723 E9.06326
G1 X48.311 Y107.083 E9.08473
G1 X48.301 Y106.718 E9.09687
G1 X48.3 Y106.63 E9.0998
G1 X48.3 Y95.661 E9.46463
G1 X48.31 Y94.963 E9.48785
G1 X48.357 Y94.46 E9.50465
G1 X48.483 Y93.97 E9.52148
G1 X48.685 Y93.506 E9.53831
G1 X48.957 Y93.08 E9.55512
G1 X49.292 Y92.702 E9.57192
G1 X49.776 Y92.319 E9.59245
G1 X50.167 Y92.067 E9.60792
G1 X50.22 Y92.034 E9.61
G1 X51.86 Y91.021 E9.67411
G1 X54.171 Y89.503 E9.76607
G1 X56.408 Y87.94 E9.85684
G1 X58.605 Y86.313 E9.94777
G1 X60.746 Y84.63 E10.03834
G1 X62.876 Y82.856 E10.13054
G1 X64.894 Y81.075 E10.22006
G1 X66.926 Y79.179 E10.3125
G1 X68.852 Y77.277 E10.40253
G1 X70.744 Y75.3 E10.49354
G1 X72.602 Y73.245 E10.58569
G1 X74.372 Y71.171 E10.67637
G1 X76.076 Y69.057 E10.76668
G1 X77.745 Y66.861 E10.85842
G1 X79.328 Y64.652 E10.94881
G1 X80.881 Y62.35 E11.04117
G1 X82.341 Y60.048 E11.13184
G1 X83.729 Y57.718 E11.22204
G1 X85.063 Y55.325 E11.31317
G1 X86.345 Y52.863 E11.40549
G1 X87.529 Y50.427 E11.49557
G1 X88.667 Y47.903 E11.58766
G1 X89.724 Y45.376 E11.67876
G1 X90.909 Y42.258 E11.78971
G1 X91.123 Y41.666 E11.81064
G1 X91.14 Y41.62 E11.81227
G1 X91.31 Y41.172 E11.82821
G1 X91.328 Y41.126 E11.82985
G1 X91.587 Y40.474 E11.85319
G1 X91.682 Y40.257 E11.86107
G1 F1500 E8.86107
;MESH:LptB_Bottom_Middle.stl
G0 F3600 X69.346 Y88.371
G0 X69.542 Y89.64
G0 X62.345 Y97.837
G0 X62.274 Y97.767
;TYPE:WALL-INNER
G1 F1500 E11.86107
G1 F1800 X62.213 Y97.472 E11.87109
G1 X60.783 Y90.648 E12.10298
G1 X60.736 Y90.421 E12.11069
G1 X60.967 Y90.409 E12.11547
G1 X63.178 Y90.287 E12.18912
G1 X66.414 Y90.009 E12.29714
G1 X69.54 Y89.621 E12.40191
G1 X72.53 Y89.103 E12.50284
G1 X75.355 Y88.442 E12.59934
G1 X77.996 Y87.62 E12.69133
G1 X80.431 Y86.617 E12.77892
G1 X82.645 Y85.42 E12.86263
G1 X84.622 Y84.016 E12.94328
G1 X86.35 Y82.4 E13.02197
G1 X87.825 Y80.575 E13.10002
G1 X89.05 Y78.55 E13.17874
G1 X90.037 Y76.344 E13.25912
G1 X90.806 Y73.978 E13.34186
G1 X91.383 Y71.477 E13.42723
G1 X91.802 Y68.864 E13.51525
G1 X92.275 Y63.591 E13.69134
G1 X92.539 Y58.124 E13.87338
G1 X92.833 Y52.862 E14.04867
G1 X93.074 Y50.267 E14.13535
G1 X93.402 Y47.925 E14.21401
G1 X93.84 Y45.744 E14.28799
G1 X94.406 Y43.721 E14.35786
G1 X95.099 Y41.902 E14.42261
G1 X95.93 Y40.263 E14.48373
G1 X96.906 Y38.811 E14.54192
G1 X98.022 Y37.551 E14.5979
G1 X99.291 Y36.473 E14.65328
G1 X100.674 Y35.6 E14.70767
G1 X102.331 Y35.6 E14.76279
G1 X103.501 Y36.322 E14.80851
G1 X104.748 Y37.331 E14.86187
G1 X105.841 Y38.492 E14.9149
G1 X106.801 Y39.819 E14.96938
G1 X107.637 Y41.329 E15.02678
G1 X108.347 Y43.013 E15.08757
G1 X108.926 Y44.836 E15.15118
G1 X109.403 Y46.875 E15.22083
G1 X109.761 Y48.997 E15.29241
G1 X110.032 Y51.281 E15.36891
G1 X110.36 Y56.074 E15.5287
G1 X110.593 Y61.24 E15.70069
G1 X110.934 Y66.443 E15.87412
G1 X111.231 Y69.127 E15.96393
G1 X111.64 Y71.606 E16.0475
G1 X112.194 Y73.986 E16.12877
G1 X112.924 Y76.242 E16.20764
G1 X113.848 Y78.356 E16.28437
G1 X114.988 Y80.305 E16.35947
G1 X116.356 Y82.076 E16.4339
G1 X117.951 Y83.657 E16.5086
G1 X119.775 Y85.046 E16.58485
G1 X121.817 Y86.246 E16.66363
G1 X124.065 Y87.265 E16.74572
G1 X126.506 Y88.114 E16.83168
G1 X129.122 Y88.811 E16.92172
G1 X131.896 Y89.368 E17.01583
G1 X134.806 Y89.802 E17.11369
G1 X137.097 Y90.05 E17.19033
G1 X137.315 Y90.073 E17.19762
G1 X137.271 Y90.288 E17.20222
G1 X135.793 Y97.45 E17.44545
G1 X135.792 Y97.451 E17.4455
G1 X135.735 Y97.735 E17.45513
G1 X136.021 Y97.689 E17.46081
G1 X136.022 Y97.688 E17.46085
G1 X147.668 Y95.747 E17.85354
G1 X147.9 Y95.709 E17.86136
G1 X147.9 Y95.944 E17.8662
G1 X147.9 Y95.945 E17.86624
G1 X147.9 Y105.307 E18.17762
G1 X147.9 Y105.308 E18.17765
G1 X147.9 Y105.532 E18.1851
G1 X147.677 Y105.505 E18.18978
G1 X138.046 Y104.341 E18.51244
G1 X136.637 Y109.99 E18.70608
G1 X134.237 Y110.271 E18.78645
G1 X131.282 Y110.737 E18.88595
G1 X128.586 Y111.312 E18.97763
G1 X126.049 Y112.025 E19.06528
G1 X123.684 Y112.887 E19.14901
G1 X121.416 Y113.959 E19.23244
G1 X119.447 Y115.17 E19.30933
G1 X117.691 Y116.565 E19.38392
G1 X116.156 Y118.147 E19.45723
G1 X114.843 Y119.912 E19.5304
G1 X113.702 Y121.927 E19.60742
G1 X112.821 Y124.024 E19.68307
G1 X112.127 Y126.258 E19.76088
G1 X111.598 Y128.606 E19.84093
G1 X111.19 Y131.153 E19.92672
G1 X110.93 Y133.567 E20.00748
G1 X110.351 Y144.162 E20.36039
G1 X110.03 Y148.774 E20.51416
G1 X109.773 Y150.918 E20.58598
G1 X109.405 Y153.14 E20.66089
G1 X108.926 Y155.179 E20.73055
G1 X108.348 Y156.999 E20.79407
G1 X107.654 Y158.649 E20.8536
G1 X106.821 Y160.159 E20.91096
G1 X105.944 Y161.38 E20.96096
G1 X104.874 Y162.551 E21.01372
G1 X103.695 Y163.542 E21.06495
G1 X102.832 Y164.074 E21.09866
G1 X100.169 Y164.074 E21.18724
G1 X99.274 Y163.519 E21.22226
G1 X98.335 Y162.739 E21.26286
G1 X98.051 Y162.48 E21.27565
G1 X97.066 Y161.397 E21.32434
G1 X96.053 Y159.954 E21.38298
G1 X95.274 Y158.477 E21.43852
G1 X94.514 Y156.611 E21.50553
G1 X93.942 Y154.675 E21.57267
G1 X93.488 Y152.572 E21.64423
G1 X93.15 Y150.353 E21.71889
G1 X92.886 Y147.859 E21.8023
G1 X92.582 Y142.798 E21.97094
G1 X92.355 Y137.714 E22.1402
G1 X91.934 Y132.198 E22.32419
G1 X91.566 Y129.512 E22.41437
G1 X91.07 Y127.032 E22.49848
G1 X90.404 Y124.672 E22.58004
G1 X89.542 Y122.451 E22.65928
G1 X88.462 Y120.395 E22.73653
G1 X87.093 Y118.442 E22.81585
G1 X85.53 Y116.768 E22.89203
G1 X83.73 Y115.296 E22.96937
G1 X81.698 Y114.025 E23.04908
G1 X79.448 Y112.944 E23.13211
G1 X76.995 Y112.042 E23.21903
G1 X74.243 Y111.272 E23.31408
G1 X71.427 Y110.685 E23.40976
G1 X68.466 Y110.23 E23.50939
G1 X65.384 Y109.891 E23.61252
G1 X62.581 Y109.68 E23.70601
G1 X62.052 Y104.5 E23.8792
G1 X62.03 Y104.282 E23.88648
G1 X61.815 Y104.325 E23.89108
G1 X52.338 Y106.221 E24.21253
G1 X52.1 Y106.268 E24.2206
G1 X52.1 Y106.026 E24.22554
G1 X52.1 Y106.025 E24.22557
G1 X52.1 Y95.975 E24.55984
G1 X52.1 Y95.974 E24.55987
G1 X52.1 Y95.732 E24.56792
G1 X52.338 Y95.779 E24.57287
G1 X61.978 Y97.708 E24.89985
G1 X62.274 Y97.767 E24.90571
G0 F3600 X61.758 Y97.256
;TYPE:WALL-OUTER
G1 F1800 X61.697 Y96.961 E24.91573
G1 X60.296 Y90.275 E25.14293
G1 X60.249 Y90.048 E25.15064
G1 X60.48 Y90.036 E25.15541
G1 X63.15 Y89.888 E25.24436
G1 X66.372 Y89.611 E25.35192
G1 X69.481 Y89.225 E25.45611
G1 X72.45 Y88.711 E25.55633
G1 X75.25 Y88.056 E25.65198
G1 X77.86 Y87.243 E25.7429
G1 X80.259 Y86.255 E25.82919
G1 X82.433 Y85.08 E25.91138
G1 X84.368 Y83.705 E25.99034
G1 X86.056 Y82.127 E26.06719
G1 X87.497 Y80.345 E26.14341
G1 X88.695 Y78.364 E26.22041
G1 X89.663 Y76.2 E26.29926
G1 X90.42 Y73.871 E26.38071
G1 X90.99 Y71.4 E26.46506
G1 X91.405 Y68.814 E26.55217
G1 X91.876 Y63.563 E26.72752
G1 X92.139 Y58.105 E26.90926
G1 X92.435 Y52.825 E27.08515
G1 X92.678 Y50.212 E27.17244
G1 X93.008 Y47.856 E27.25156
G1 X93.451 Y45.651 E27.32637
G1 X94.026 Y43.594 E27.39741
G1 X94.733 Y41.738 E27.46346
G1 X95.583 Y40.062 E27.52597
G1 X96.587 Y38.568 E27.58584
G1 X97.745 Y37.262 E27.64389
G1 X99.053 Y36.15 E27.70099
G1 X100.558 Y35.2 E27.76019
G1 X102.444 Y35.2 E27.82291
G1 X103.737 Y35.998 E27.87345
G1 X105.018 Y37.034 E27.92825
G1 X106.15 Y38.237 E27.98319
G1 X107.141 Y39.608 E28.03945
G1 X107.999 Y41.157 E28.09835
G1 X108.72 Y42.865 E28.16001
G1 X109.315 Y44.739 E28.22541
G1 X109.793 Y46.784 E28.29526
G1 X110.158 Y48.95 E28.36831
G1 X110.431 Y51.254 E28.44548
G1 X110.76 Y56.056 E28.60557
G1 X110.992 Y61.218 E28.77743
G1 X111.333 Y66.408 E28.95042
G1 X111.627 Y69.072 E29.03957
G1 X112.033 Y71.528 E29.12236
G1 X112.58 Y73.879 E29.20265
G1 X113.298 Y76.1 E29.28028
G1 X114.205 Y78.174 E29.35557
G1 X115.32 Y80.081 E29.42904
G1 X116.656 Y81.811 E29.50174
G1 X118.214 Y83.355 E29.5747
G1 X119.998 Y84.713 E29.64927
G1 X122.001 Y85.89 E29.72654
G1 X124.214 Y86.893 E29.80735
G1 X126.623 Y87.731 E29.89219
G1 X129.213 Y88.421 E29.98133
G1 X131.965 Y88.974 E30.0747
G1 X134.857 Y89.405 E30.17195
G1 X137.578 Y89.699 E30.26297
G1 X137.796 Y89.722 E30.27026
G1 X137.752 Y89.937 E30.27486
G1 X136.303 Y96.96 E30.51337
G1 X136.302 Y96.961 E30.51342
G1 X136.245 Y97.245 E30.52305
G1 X136.531 Y97.199 E30.52873
G1 X136.532 Y97.198 E30.52877
G1 X148.068 Y95.274 E30.91776
G1 X148.3 Y95.236 E30.92558
G1 X148.3 Y95.471 E30.93042
G1 X148.3 Y95.472 E30.93045
G1 X148.3 Y105.758 E31.27257
G1 X148.3 Y105.759 E31.2726
G1 X148.3 Y105.983 E31.28005
G1 X148.077 Y105.956 E31.28473
G1 X138.349 Y104.78 E31.61064
G1 X136.958 Y110.355 E31.80175
G1 X134.291 Y110.667 E31.89106
G1 X131.355 Y111.13 E31.98992
G1 X128.682 Y111.701 E32.08083
G1 X126.172 Y112.406 E32.16754
G1 X123.838 Y113.257 E32.25017
G1 X121.607 Y114.311 E32.33224
G1 X119.677 Y115.498 E32.4076
G1 X117.96 Y116.862 E32.48053
G1 X116.461 Y118.407 E32.55213
G1 X115.179 Y120.131 E32.62359
G1 X114.062 Y122.104 E32.699
G1 X113.197 Y124.161 E32.77322
G1 X112.514 Y126.361 E32.84983
G1 X111.991 Y128.682 E32.92897
G1 X111.587 Y131.206 E33.01398
G1 X111.329 Y133.599 E33.09404
