;FLAVOR:Marlin
;TIME:7712
;Filament used: 7.07747m
;Layer height: 0.2
;MINX:34.834
;MINY:26.217
;MINZ:0.3
;MAXX:164.016
;MAXY:178.922
;MAXZ:11.9
;Generated with Cura_SteamEngine 4.2.1
M140 S60
M105
M190 S60
M104 S200
M105
M109 S200
M82 ;absolute extrusion mode
G28 ;Home
G1 Z15.0 F6000 ;Move the platform down 15mm
;Prime the extruder
G92 E0
G1 F200 E3
G92 E0
;
M117 Printing...        ☺
M141 S28
G92 E0
G92 E0
G1 F1500 E-3
;LAYER_COUNT:64
;LAYER:0
M107
G0 F3600 X35.822 Y33.617 Z0.3
;TYPE:SKIRT
G1 F1500 E0
G1 F1800 X36.213 Y33.296 E0.02524
G1 X36.649 Y33.04 E0.05046
G1 X37.12 Y32.857 E0.07567
G1 X37.614 Y32.75 E0.10089
G1 X37.951 Y32.722 E0.11776
G1 X38.264 Y32.713 E0.13338
G1 X38.356 Y32.712 E0.13797
G1 X83.77 Y32.71 E2.40369
G1 X86.567 Y32.67 E2.54324
G1 X89.284 Y32.555 E2.67892
G1 X92.026 Y32.361 E2.81606
G1 X94.739 Y32.091 E2.95208
G1 X97.471 Y31.741 E3.08949
G1 X100.151 Y31.321 E3.22483
G1 X102.86 Y30.817 E3.3623
G1 X105.531 Y30.242 E3.49861
G1 X108.172 Y29.595 E3.63427
G1 X110.812 Y28.868 E3.77088
G1 X113.47 Y28.055 E3.90955
G1 X116.021 Y27.194 E4.04388
G1 X117.565 Y26.624 E4.12599
G1 X117.606 Y26.61 E4.12815
G1 X118.199 Y26.4 E4.15954
G1 X118.687 Y26.269 E4.18474
G1 X119.19 Y26.217 E4.20997
G1 X119.695 Y26.245 E4.23521
G1 X120.189 Y26.352 E4.26042
G1 X120.829 Y26.623 E4.2951
G1 X121.237 Y26.851 E4.31842
G1 X123.649 Y28.151 E4.45512
G1 X126.097 Y29.384 E4.59186
G1 X128.598 Y30.554 E4.72962
G1 X131.084 Y31.634 E4.86484
G1 X133.638 Y32.659 E5.00214
G1 X136.208 Y33.606 E5.13879
G1 X139.447 Y34.685 E5.30911
G1 X139.619 Y34.738 E5.31809
G1 X140.089 Y34.924 E5.34331
G1 X140.524 Y35.183 E5.36857
G1 X140.878 Y35.473 E5.3914
G1 X141.127 Y35.709 E5.40851
G1 X141.189 Y35.769 E5.41282
G1 X154.21 Y48.79 E6.33152
G1 X154.24 Y48.821 E6.33367
G1 X154.712 Y49.306 E6.36744
G1 X155.035 Y49.695 E6.39266
G1 X155.293 Y50.13 E6.41789
G1 X155.458 Y50.536 E6.43976
G1 X155.8 Y51.573 E6.49423
G1 X155.814 Y51.615 E6.49644
G1 X155.988 Y52.17 E6.52546
G1 X156.873 Y54.727 E6.66046
G1 X157.85 Y57.315 E6.79847
G1 X158.878 Y59.817 E6.93342
G1 X160.011 Y62.369 E7.07272
G1 X161.173 Y64.802 E7.20724
G1 X162.407 Y67.204 E7.34196
G1 X163.624 Y69.427 E7.4684
G1 X163.831 Y69.889 E7.49366
G1 X163.963 Y70.377 E7.51888
G1 X164.016 Y70.879 E7.54406
G1 X163.989 Y71.384 E7.56929
G1 X163.883 Y71.879 E7.59455
G1 X163.701 Y72.35 E7.61974
G1 X163.447 Y72.787 E7.64496
G1 X163.176 Y73.126 E7.66661
G1 X161.259 Y75.219 E7.80821
G1 X159.455 Y77.303 E7.94572
G1 X157.723 Y79.421 E8.08222
G1 X156.06 Y81.578 E8.21811
G1 X154.442 Y83.804 E8.3554
G1 X152.902 Y86.055 E8.49147
G1 X151.417 Y88.361 E8.62831
G1 X150 Y90.707 E8.76504
G1 X148.654 Y93.083 E8.90128
G1 X147.364 Y95.519 E9.0388
G1 X146.156 Y97.962 E9.17477
G1 X145.017 Y100.444 E9.31102
G1 X143.937 Y102.981 E9.44858
G1 X142.941 Y105.516 E9.58446
G1 X142.01 Y108.109 E9.72191
G1 X141.158 Y110.702 E9.85808
G1 X140.387 Y113.294 E9.993
G1 X139.67 Y115.978 E10.1316
G1 X139.042 Y118.632 E10.26766
G1 X138.482 Y121.327 E10.40499
G1 X138.008 Y124.004 E10.54062
G1 X137.603 Y126.724 E10.67782
G1 X137.282 Y129.405 E10.81253
G1 X137.03 Y132.159 E10.9505
G1 X136.858 Y134.9 E11.08752
G1 X136.764 Y137.619 E11.22325
G1 X136.75 Y140.893 E11.3866
G1 X136.708 Y141.397 E11.41183
G1 X136.587 Y141.888 E11.43706
G1 X136.39 Y142.354 E11.4623
G1 X136.123 Y142.783 E11.48751
G1 X135.791 Y143.164 E11.51272
G1 X135.221 Y143.609 E11.5488
G1 X133.001 Y144.969 E11.67868
G1 X130.721 Y146.452 E11.81438
G1 X128.473 Y148.007 E11.95075
G1 X126.244 Y149.645 E12.08875
G1 X124.098 Y151.316 E12.22445
G1 X121.997 Y153.05 E12.36035
G1 X119.912 Y154.874 E12.49856
G1 X117.907 Y156.727 E12.63477
G1 X115.956 Y158.637 E12.77098
G1 X114.074 Y160.587 E12.90619
G1 X112.206 Y162.637 E13.04456
G1 X110.425 Y164.704 E13.18068
G1 X108.684 Y166.844 E13.31831
G1 X107.036 Y168.993 E13.45342
G1 X105.427 Y171.218 E13.59041
G1 X103.875 Y173.496 E13.72793
G1 X102.403 Y175.794 E13.86408
G1 X101.431 Y177.393 E13.95744
G1 X101.135 Y177.803 E13.98267
G1 X100.779 Y178.161 E14.00786
G1 X100.37 Y178.459 E14.0331
G1 X99.919 Y178.688 E14.05834
G1 X99.438 Y178.844 E14.08357
G1 X98.939 Y178.922 E14.10876
G1 X98.433 Y178.92 E14.13401
G1 X97.934 Y178.839 E14.15923
G1 X97.454 Y178.68 E14.18446
G1 X97.005 Y178.447 E14.20969
G1 X96.62 Y178.166 E14.23347
G1 X94.559 Y176.408 E14.36862
G1 X92.485 Y174.735 E14.50156
G1 X90.266 Y173.045 E14.64072
G1 X88.07 Y171.469 E14.77557
G1 X85.786 Y169.927 E14.91306
G1 X83.479 Y168.461 E15.04943
G1 X81.141 Y167.068 E15.18521
G1 X78.73 Y165.721 E15.32299
G1 X76.313 Y164.46 E15.459
G1 X73.821 Y163.247 E15.59728
G1 X71.361 Y162.136 E15.73194
G1 X68.814 Y161.07 E15.86969
G1 X66.25 Y160.081 E16.0068
G1 X63.693 Y159.18 E16.14205
G1 X61.105 Y158.348 E16.27768
G1 X58.446 Y157.574 E16.41584
G1 X55.803 Y156.886 E16.5521
G1 X54.047 Y156.472 E16.6421
G1 X53.565 Y156.317 E16.66736
G1 X53.114 Y156.089 E16.69258
G1 X52.705 Y155.792 E16.71779
G1 X52.347 Y155.435 E16.74302
G1 X52.05 Y155.026 E16.76824
G1 X51.822 Y154.575 E16.79345
G1 X51.667 Y154.093 E16.81871
G1 X51.59 Y153.594 E16.8439
G1 X51.596 Y153.05 E16.87104
G1 X51.67 Y152.281 E16.90958
G1 X51.896 Y149.541 E17.04675
G1 X52.042 Y146.832 E17.18209
G1 X52.112 Y144.08 E17.31944
G1 X52.105 Y141.326 E17.45683
G1 X52.02 Y138.607 E17.59255
G1 X51.86 Y135.894 E17.72814
G1 X51.62 Y133.155 E17.86531
G1 X51.301 Y130.414 E18.00298
G1 X50.911 Y127.729 E18.13835
G1 X50.439 Y125.014 E18.27583
G1 X49.895 Y122.344 E18.41177
G1 X49.275 Y119.679 E18.54828
G1 X48.572 Y117.005 E18.68622
G1 X47.819 Y114.438 E18.81968
G1 X46.959 Y111.789 E18.95863
G1 X46.037 Y109.199 E19.09579
G1 X45.056 Y106.673 E19.23099
G1 X43.986 Y104.134 E19.36845
G1 X42.851 Y101.637 E19.50529
G1 X41.652 Y99.188 E19.64133
G1 X40.377 Y96.76 E19.77815
G1 X39.04 Y94.38 E19.91434
G1 X37.637 Y92.039 E20.0505
G1 X35.455 Y88.67 E20.25075
G1 X35.441 Y88.647 E20.2521
G1 X35.345 Y88.496 E20.26102
G1 X35.108 Y88.049 E20.28626
G1 X34.944 Y87.571 E20.31148
G1 X34.846 Y86.869 E20.34684
G1 X34.837 Y86.55 E20.36276
G1 X34.836 Y86.46 E20.36725
G1 X34.834 Y36.611 E22.85423
G1 X34.834 Y36.569 E22.85632
G1 X34.843 Y35.879 E22.89075
G1 X34.89 Y35.376 E22.91595
G1 X35.015 Y34.886 E22.94118
G1 X35.216 Y34.422 E22.96641
G1 X35.487 Y33.995 E22.99164
G1 X35.822 Y33.617 E23.01684
G1 F1500 E20.01684
;MESH:gift.stl
G0 F3600 X38.647 Y35.246
G0 X38.648 Y36.525
G0 X60.404 Y36.681
G0 X60.474 Y36.751
;TYPE:WALL-INNER
G1 F1500 E23.01684
G1 F1800 X60.475 Y58.351 E24.09447
G1 X38.875 Y58.351 E25.1721
G1 X38.875 Y64.351 E25.47144
G1 X60.475 Y64.351 E26.54907
G1 X60.475 Y83.551 E27.50696
G1 X66.475 Y83.551 E27.8063
G1 X66.475 Y64.351 E28.76419
G1 X87.995 Y64.35 E29.83783
G1 X88.075 Y64.35 E29.84182
G1 X88.075 Y58.55 E30.13118
G1 X88.075 Y58.35 E30.14116
G1 X87.875 Y58.35 E30.14762
G1 X66.475 Y58.351 E31.21527
G1 X66.474 Y36.831 E32.28891
G1 X66.474 Y36.751 E32.2929
G1 X60.474 Y36.751 E32.59224
G0 F3600 X60.404 Y36.681
G0 X38.847 Y58.323
G0 X38.847 Y64.379
G0 X63.003 Y89.728
G0 X63.06 Y89.81
G1 F1800 X62.638 Y90.968 E32.65373
G1 X62.331 Y91.771 E32.69662
G1 X62.016 Y92.54 E32.73808
G1 X61.673 Y93.315 E32.78036
G1 X61.309 Y94.076 E32.82245
G1 X60.932 Y94.798 E32.86309
G1 X60.519 Y95.519 E32.90454
G1 X60.052 Y96.25 E32.94782
G1 X59.574 Y96.917 E32.98876
G1 X59.042 Y97.572 E33.03085
G1 X58.428 Y98.223 E33.0755
G1 X57.731 Y98.849 E33.12224
G1 X57.381 Y99.123 E33.14442
G1 X56.615 Y99.631 E33.19027
G1 X56.232 Y99.843 E33.21211
G1 X55.393 Y100.214 E33.25788
G1 X54.976 Y100.357 E33.27987
G1 X54.257 Y100.536 E33.31684
G1 X53.695 Y100.622 E33.3452
G1 X53.114 Y100.661 E33.37425
G1 X52.54 Y100.646 E33.4029
G1 X51.995 Y100.58 E33.43029
G1 X51.441 Y100.452 E33.45866
G1 X50.928 Y100.277 E33.4857
G1 X50.445 Y100.049 E33.51235
G1 X49.923 Y99.722 E33.54308
G1 X49.576 Y99.444 E33.56526
G1 X49.16 Y99.025 E33.59472
G1 X48.895 Y98.693 E33.61591
G1 X48.525 Y98.116 E33.65011
G1 X48.325 Y97.716 E33.67242
G1 X48.09 Y97.098 E33.7054
G1 X47.958 Y96.618 E33.73024
G1 X47.857 Y96.084 E33.75735
G1 X47.797 Y95.57 E33.78317
G1 X47.772 Y95.09 E33.80715
G1 X47.783 Y94.342 E33.84447
G1 X47.821 Y93.867 E33.86825
G1 X47.889 Y93.347 E33.89441
G1 X47.98 Y92.842 E33.92001
G1 X48.096 Y92.335 E33.94596
G1 X48.239 Y91.821 E33.97258
G1 X48.395 Y91.34 E33.9978
G1 X48.585 Y90.834 E34.02477
G1 X48.787 Y90.351 E34.05089
G1 X49.004 Y89.883 E34.07663
G1 X49.209 Y89.481 E34.09914
G1 X49.59 Y88.825 E34.13699
G1 X49.927 Y88.321 E34.16723
G1 X50.268 Y87.871 E34.1954
G1 X51.093 Y86.905 E34.25878
G1 X50.773 Y86.207 E34.29709
G1 X38.636 Y86.192 E34.90261
G1 X38.636 Y64.352 E35.99221
G1 X38.635 Y58.352 E36.17146
G1 X38.634 Y36.511 E37.26111
G1 X60.474 Y36.511 E38.35071
G1 X66.473 Y36.511 E38.53028
G1 X66.553 Y36.511 E38.53371
G1 X88.314 Y36.51 E39.61937
G1 X88.314 Y58.349 E40.70892
G1 X88.315 Y64.349 E41.00826
G1 X88.315 Y64.429 E41.01169
G1 X88.316 Y85.99 E42.08737
G1 X88.316 Y86.19 E42.09735
G1 X88.116 Y86.19 E42.10381
G1 X76.162 Y86.19 E42.7002
G1 X75.844 Y86.895 E42.73878
G1 X76.496 Y87.64 E42.78817
G1 X76.84 Y88.073 E42.81576
G1 X77.171 Y88.544 E42.84448
G1 X77.51 Y89.094 E42.87672
G1 X77.749 Y89.518 E42.901
G1 X77.975 Y89.957 E42.92563
G1 X78.199 Y90.438 E42.9521
G1 X78.391 Y90.899 E42.97702
G1 X78.576 Y91.406 E43.00394
G1 X78.731 Y91.888 E43.0292
G1 X78.861 Y92.366 E43.05392
G1 X78.974 Y92.861 E43.07925
G1 X79.064 Y93.369 E43.10499
G1 X79.129 Y93.869 E43.13014
G1 X79.17 Y94.382 E43.15582
G1 X79.182 Y94.872 E43.18027
G1 X79.167 Y95.392 E43.20623
G1 X79.125 Y95.863 E43.22982
G1 X79.051 Y96.343 E43.25405
G1 X78.926 Y96.879 E43.28151
G1 X78.729 Y97.473 E43.31273
G1 X78.557 Y97.866 E43.33413
G1 X78.314 Y98.311 E43.35943
G1 X78.032 Y98.726 E43.38446
G1 X77.698 Y99.126 E43.41046
G1 X77.325 Y99.488 E43.43639
G1 X76.94 Y99.786 E43.46068
G1 X76.435 Y100.087 E43.49001
G1 X75.866 Y100.338 E43.52104
G1 X75.34 Y100.499 E43.54848
G1 X74.846 Y100.597 E43.57361
G1 X74.325 Y100.649 E43.59973
G1 X73.804 Y100.661 E43.62573
G1 X73.277 Y100.624 E43.65208
G1 X72.728 Y100.544 E43.67976
G1 X72.127 Y100.403 E43.71056
G1 X71.621 Y100.24 E43.73708
G1 X71.092 Y100.024 E43.76559
G1 X70.509 Y99.728 E43.79821
G1 X69.91 Y99.362 E43.83323
G1 X69.522 Y99.087 E43.85696
G1 X69.153 Y98.795 E43.88043
G1 X68.791 Y98.478 E43.90444
G1 X68.445 Y98.146 E43.92836
G1 X68.106 Y97.792 E43.95282
G1 X67.787 Y97.429 E43.97693
G1 X67.494 Y97.068 E44.00012
G1 X67.197 Y96.673 E44.02478
G1 X66.902 Y96.252 E44.05043
G1 X66.525 Y95.67 E44.08502
G1 X66.147 Y95.027 E44.12223
G1 X65.782 Y94.351 E44.16056
G1 X65.43 Y93.642 E44.20005
G1 X65.069 Y92.849 E44.24352
G1 X64.722 Y92.025 E44.28813
G1 X64.538 Y91.561 E44.31303
G1 X64.212 Y90.688 E44.35952
G1 X63.905 Y89.816 E44.40564
G1 X63.06 Y89.81 E44.4478
G0 F3600 X63.339 Y90.212
;TYPE:WALL-OUTER
G1 F1800 X63.283 Y90.366 E44.45598
G1 X63.012 Y91.111 E44.49553
G1 X62.705 Y91.914 E44.53842
G1 X62.382 Y92.702 E44.58091
G1 X62.034 Y93.488 E44.62379
G1 X61.67 Y94.249 E44.66588
G1 X61.279 Y94.997 E44.70799
G1 X60.864 Y95.721 E44.74962
G1 X60.382 Y96.476 E44.79431
G1 X59.896 Y97.155 E44.83597
G1 X59.341 Y97.837 E44.87984
G1 X58.704 Y98.513 E44.92618
G1 X57.993 Y99.152 E44.97387
G1 X57.615 Y99.447 E44.99779
G1 X56.822 Y99.973 E45.04526
G1 X56.404 Y100.204 E45.06909
G1 X55.545 Y100.585 E45.11597
G1 X55.087 Y100.742 E45.14013
G1 X54.34 Y100.928 E45.17853
G1 X53.734 Y101.02 E45.20911
G1 X53.12 Y101.061 E45.23982
G1 X52.512 Y101.046 E45.27016
G1 X51.926 Y100.974 E45.29961
G1 X51.337 Y100.839 E45.32976
G1 X50.77 Y100.645 E45.35966
G1 X50.259 Y100.404 E45.38785
G1 X49.691 Y100.049 E45.42126
G1 X49.305 Y99.739 E45.44596
G1 X48.864 Y99.294 E45.47722
G1 X48.567 Y98.923 E45.50093
G1 X48.177 Y98.314 E45.53701
G1 X47.959 Y97.879 E45.56128
G1 X47.708 Y97.22 E45.59646
G1 X47.569 Y96.713 E45.62269
G1 X47.462 Y96.148 E45.65138
G1 X47.399 Y95.605 E45.67865
G1 X47.372 Y95.084 E45.70468
G1 X47.383 Y94.319 E45.74285
G1 X47.424 Y93.815 E45.76808
G1 X47.492 Y93.295 E45.79424
G1 X47.586 Y92.771 E45.8208
G1 X47.706 Y92.246 E45.84767
G1 X47.854 Y91.714 E45.87522
G1 X48.021 Y91.199 E45.90223
G1 X48.216 Y90.68 E45.92989
G1 X48.424 Y90.183 E45.95677
G1 X48.641 Y89.715 E45.98251
G1 X48.863 Y89.28 E46.00687
G1 X49.251 Y88.612 E46.04541
G1 X49.594 Y88.099 E46.0762
G1 X49.959 Y87.617 E46.10636
G1 X50.523 Y86.957 E46.14967
G1 X50.623 Y86.84 E46.15735
G1 X50.516 Y86.607 E46.17014
G1 X50.361 Y86.607 E46.17788
G1 X38.236 Y86.591 E46.7828
G1 X38.234 Y36.311 E49.29128
G1 X38.234 Y36.111 E49.30125
G1 X38.434 Y36.111 E49.30772
G1 X88.714 Y36.11 E51.81619
G1 X88.716 Y86.39 E54.32467
G1 X88.716 Y86.59 E54.33465
G1 X88.516 Y86.59 E54.34111
G1 X76.577 Y86.59 E54.93675
G1 X76.42 Y86.59 E54.94458
G1 X76.314 Y86.825 E54.95745
G1 X76.417 Y86.943 E54.96526
G1 X76.797 Y87.376 E54.994
G1 X77.159 Y87.831 E55.02301
G1 X77.512 Y88.334 E55.05367
G1 X77.851 Y88.884 E55.0859
G1 X78.105 Y89.335 E55.11173
G1 X78.338 Y89.788 E55.13714
G1 X78.562 Y90.269 E55.16361
G1 X78.766 Y90.761 E55.19018
G1 X78.952 Y91.268 E55.21713
G1 X79.112 Y91.765 E55.24318
G1 X79.251 Y92.277 E55.26964
G1 X79.368 Y92.791 E55.29594
G1 X79.461 Y93.318 E55.32264
G1 X79.527 Y93.828 E55.3483
G1 X79.569 Y94.35 E55.37442
G1 X79.582 Y94.873 E55.40053
G1 X79.567 Y95.407 E55.42718
G1 X79.522 Y95.912 E55.45247
G1 X79.441 Y96.434 E55.47883
G1 X79.312 Y96.986 E55.50711
G1 X79.105 Y97.612 E55.54
G1 X78.915 Y98.045 E55.56359
G1 X78.655 Y98.521 E55.59065
G1 X78.351 Y98.969 E55.61766
G1 X77.992 Y99.398 E55.64557
G1 X77.59 Y99.788 E55.67351
G1 X77.162 Y100.12 E55.70054
G1 X76.623 Y100.441 E55.73184
G1 X76.008 Y100.712 E55.76537
G1 X75.436 Y100.887 E55.79521
G1 X74.902 Y100.993 E55.82237
G1 X74.348 Y101.049 E55.85015
G1 X73.797 Y101.061 E55.87765
G1 X73.23 Y101.022 E55.906
G1 X72.662 Y100.939 E55.93464
G1 X72.01 Y100.786 E55.96805
G1 X71.493 Y100.619 E55.99516
G1 X70.919 Y100.385 E56.02608
G1 X70.317 Y100.08 E56.05975
G1 X69.687 Y99.695 E56.09659
G1 X69.282 Y99.407 E56.12138
G1 X68.893 Y99.1 E56.1461
G1 X68.521 Y98.774 E56.17078
G1 X68.168 Y98.435 E56.1952
G1 X67.817 Y98.068 E56.22053
G1 X67.487 Y97.693 E56.24545
G1 X67.175 Y97.309 E56.27014
G1 X66.869 Y96.903 E56.2955
G1 X66.574 Y96.482 E56.32115
G1 X66.181 Y95.874 E56.35727
G1 X65.802 Y95.23 E56.39455
G1 X65.43 Y94.541 E56.43361
G1 X65.066 Y93.808 E56.47444
G1 X64.705 Y93.015 E56.51791
G1 X64.353 Y92.18 E56.56312
G1 X64.166 Y91.708 E56.58845
G1 X63.837 Y90.828 E56.63532
G1 X63.675 Y90.368 E56.65965
G1 X63.621 Y90.214 E56.66666
G1 X63.339 Y90.212 E56.68073
G0 F3600 X63.283 Y90.366
G0 X63.271 Y90.4
G0 X62.802 Y90.229
G0 X38.847 Y64.379
G0 X38.775 Y58.751
G0 X39.275 Y58.751
G1 F1800 X39.275 Y63.951 E56.94016
G1 X60.875 Y63.951 E58.01779
G1 X60.875 Y83.151 E58.97568
G1 X66.075 Y83.151 E59.23511
G1 X66.075 Y63.951 E60.193
G1 X87.675 Y63.95 E61.27063
G1 X87.675 Y58.95 E61.52008
G1 X87.675 Y58.75 E61.53006
G1 X87.475 Y58.75 E61.53652
G1 X66.075 Y58.751 E62.60417
G1 X66.074 Y37.151 E63.6818
G1 X61.074 Y37.151 E63.93125
G1 X60.874 Y37.151 E63.94122
G1 X60.874 Y37.351 E63.94769
G1 X60.875 Y58.551 E65.00536
G1 X60.875 Y58.751 E65.01534
G1 X60.675 Y58.751 E65.0218
G1 X39.275 Y58.751 E66.08945
G0 F3600 X39.275 Y58.951
G0 X38.775 Y58.951
G0 X39.025 Y57.961
;TYPE:SKIN
G1 F1800 X39.024 Y36.901 E67.14013
G1 X60.084 Y36.901 E68.19082
G1 X60.085 Y57.961 E69.24151
G1 X39.025 Y57.961 E70.2922
G0 F3600 X39.678 Y57.78
G1 F1800 X39.204 Y57.306 E70.32564
G0 F3600 X39.204 Y56.74
G1 F1800 X40.244 Y57.78 E70.39902
G0 F3600 X40.809 Y57.78
G1 F1800 X39.204 Y56.174 E70.5123
G0 F3600 X39.204 Y55.608
G1 F1800 X41.375 Y57.78 E70.66551
G0 F3600 X41.941 Y57.78
G1 F1800 X39.204 Y55.043 E70.85862
G0 F3600 X39.204 Y54.477
G1 F1800 X42.507 Y57.78 E71.09166
G0 F3600 X43.072 Y57.78
G1 F1800 X39.204 Y53.911 E71.3646
G0 F3600 X39.204 Y53.346
G1 F1800 X43.638 Y57.78 E71.67745
G0 F3600 X44.204 Y57.78
G1 F1800 X39.204 Y52.78 E72.03022
G0 F3600 X39.204 Y52.214
G1 F1800 X44.769 Y57.78 E72.4229
G0 F3600 X45.335 Y57.78
G1 F1800 X39.204 Y51.649 E72.85548
G0 F3600 X39.204 Y51.083
G1 F1800 X45.901 Y57.78 E73.32798
G0 F3600 X46.466 Y57.78
G1 F1800 X39.204 Y50.517 E73.84039
G0 F3600 X39.204 Y49.952
G1 F1800 X47.032 Y57.78 E74.3927
G0 F3600 X47.598 Y57.78
