;FLAVOR:Marlin
;TIME:1372
;Filament used: 1.17549m
;Layer height: 0.2
;MINX:85.827
;MINY:85.458
;MINZ:0.3
;MAXX:115.511
;MAXY:115.112
;MAXZ:40.5
;Generated with Cura_SteamEngine 4.2.1
M140 S60
M105
M190 S60
M104 S200
M105
M109 S200
M82 ;absolute extrusion mode
G28 ;Home
G1 Z15.0 F6000 ;Move the platform down 15mm
;Prime the extruder
G92 E0
G1 F200 E3
G92 E0
;
M117 Printing...        ☺
M141 S28
G92 E0
G92 E0
G1 F1500 E-3
;LAYER_COUNT:202
;LAYER:0
M107
G0 F3600 X91.395 Y91.195 Z0.3
;TYPE:SKIRT
G1 F1500 E0
G1 F1800 X91.993 Y90.621 E0.04135
G1 X92.318 Y90.338 E0.06285
G1 X92.991 Y89.808 E0.10559
G1 X93.191 Y89.66 E0.118
G1 X93.737 Y89.278 E0.15125
G1 X93.833 Y89.212 E0.15706
G1 X94.525 Y88.755 E0.19844
G1 X96.737 Y87.203 E0.33325
G1 X97.911 Y86.341 E0.40591
G1 X97.944 Y86.317 E0.40795
G1 X97.994 Y86.281 E0.41102
G1 X98.498 Y85.968 E0.44062
G1 X99.039 Y85.725 E0.47021
G1 X99.607 Y85.558 E0.49974
G1 X100.193 Y85.468 E0.52932
G1 X100.786 Y85.458 E0.55891
G1 X101.375 Y85.527 E0.5885
G1 X101.949 Y85.675 E0.61807
G1 X102.498 Y85.899 E0.64765
G1 X103.061 Y86.229 E0.68021
G1 X103.887 Y86.798 E0.73025
G1 X103.942 Y86.836 E0.73359
G1 X104.411 Y87.17 E0.76231
G1 X106.911 Y88.838 E0.91225
G1 X107.493 Y89.214 E0.94682
G1 X107.623 Y89.302 E0.95465
G1 X108.424 Y89.86 E1.00335
G1 X108.767 Y90.125 E1.02498
G1 X109.42 Y90.683 E1.06783
G1 X109.736 Y90.981 E1.0895
G1 X110.31 Y91.579 E1.13086
G1 X110.593 Y91.904 E1.15236
G1 X111.123 Y92.577 E1.19509
G1 X111.278 Y92.786 E1.20807
G1 X111.861 Y93.624 E1.259
G1 X113.566 Y96.056 E1.40719
G1 X114.617 Y97.475 E1.49528
G1 X114.937 Y97.974 E1.52486
G1 X115.255 Y98.702 E1.56449
G1 X115.291 Y98.81 E1.57017
G1 X115.44 Y99.383 E1.59971
G1 X115.511 Y99.972 E1.62931
G1 X115.502 Y100.565 E1.65889
G1 X115.413 Y101.151 E1.68847
G1 X115.246 Y101.72 E1.71805
G1 X115.005 Y102.262 E1.74764
G1 X114.725 Y102.719 E1.77438
G1 X114.443 Y103.123 E1.79896
G1 X114.412 Y103.167 E1.80165
G1 X113.362 Y104.633 E1.89161
G1 X111.332 Y107.659 E2.0734
G1 X111.196 Y107.851 E2.08514
G1 X110.927 Y108.209 E2.10748
G1 X110.859 Y108.297 E2.11303
G1 X110.73 Y108.46 E2.1234
G1 X110.591 Y108.626 E2.1342
G1 X110.325 Y108.93 E2.15436
G1 X110.148 Y109.121 E2.16735
G1 X109.681 Y109.595 E2.20055
G1 X109.451 Y109.813 E2.21636
G1 X108.999 Y110.21 E2.24637
G1 X108.791 Y110.381 E2.2598
G1 X108.524 Y110.588 E2.27666
G1 X108.306 Y110.747 E2.29012
G1 X107.427 Y111.346 E2.34319
G1 X105.237 Y112.883 E2.47667
G1 X103.734 Y114.003 E2.57019
G1 X103.684 Y114.039 E2.57326
G1 X103.362 Y114.272 E2.59309
G1 X102.86 Y114.586 E2.62263
G1 X102.319 Y114.83 E2.65224
G1 X101.751 Y114.999 E2.6818
G1 X101.316 Y115.075 E2.70383
G1 X101.275 Y115.08 E2.70589
G1 X100.683 Y115.112 E2.73547
G1 X100.092 Y115.064 E2.76506
G1 X99.512 Y114.937 E2.79468
G1 X98.955 Y114.733 E2.82427
G1 X98.234 Y114.327 E2.86555
G1 X97.94 Y114.123 E2.88341
G1 X97.889 Y114.087 E2.88652
G1 X96.228 Y112.899 E2.9884
G1 X93.747 Y111.233 E3.1375
G1 X93.687 Y111.191 E3.14115
G1 X92.891 Y110.637 E3.18954
G1 X92.7 Y110.497 E3.20135
G1 X92.501 Y110.342 E3.21393
G1 X92.296 Y110.172 E3.22722
G1 X91.968 Y109.883 E3.24903
G1 X91.786 Y109.714 E3.26142
G1 X91.331 Y109.265 E3.29331
G1 X91.109 Y109.029 E3.30948
G1 X90.713 Y108.576 E3.3395
G1 X90.597 Y108.438 E3.34849
G1 X90.449 Y108.254 E3.36027
G1 X90.242 Y107.974 E3.37764
G1 X89.766 Y107.276 E3.41979
G1 X88.167 Y104.989 E3.55901
G1 X86.689 Y102.989 E3.68308
G1 X86.369 Y102.489 E3.7127
G1 X86.12 Y101.951 E3.74228
G1 X85.945 Y101.385 E3.77183
G1 X85.848 Y100.8 E3.80142
G1 X85.828 Y100.453 E3.81876
G1 X85.827 Y100.398 E3.8215
G1 X85.856 Y99.806 E3.85107
G1 X85.964 Y99.223 E3.88065
G1 X86.15 Y98.66 E3.91024
G1 X86.41 Y98.127 E3.93982
G1 X86.613 Y97.807 E3.95873
G1 X86.802 Y97.535 E3.97525
G1 X86.836 Y97.486 E3.97823
G1 X88.054 Y95.783 E4.08269
G1 X89.676 Y93.364 E4.22799
G1 X89.722 Y93.295 E4.23213
G1 X90.261 Y92.523 E4.2791
G1 X90.519 Y92.19 E4.30012
G1 X91.092 Y91.517 E4.34421
G1 X91.395 Y91.195 E4.36627
G0 F3600 X91.672 Y91.483
G1 F1800 X92.27 Y90.909 E4.40763
G1 X92.565 Y90.652 E4.42715
G1 X93.238 Y90.122 E4.46988
G1 X93.42 Y89.988 E4.48116
G1 X93.966 Y89.606 E4.5144
G1 X94.054 Y89.546 E4.51972
G1 X94.729 Y89.1 E4.56008
G1 X97.002 Y87.505 E4.69862
G1 X98.148 Y86.664 E4.76953
G1 X98.178 Y86.642 E4.77139
G1 X98.228 Y86.606 E4.77446
G1 X98.709 Y86.309 E4.80267
G1 X99.227 Y86.082 E4.83088
G1 X99.772 Y85.931 E4.8591
G1 X100.332 Y85.859 E4.88727
G1 X100.898 Y85.866 E4.91551
G1 X101.456 Y85.953 E4.94368
G1 X101.997 Y86.117 E4.97188
G1 X102.509 Y86.356 E5.00007
G1 X102.834 Y86.558 E5.01916
G1 X103.66 Y87.127 E5.06921
G1 X103.71 Y87.162 E5.07225
G1 X104.195 Y87.507 E5.10194
G1 X106.679 Y89.165 E5.25094
G1 X107.276 Y89.55 E5.28638
G1 X107.394 Y89.63 E5.2935
G1 X108.195 Y90.188 E5.3422
G1 X108.508 Y90.429 E5.36191
G1 X109.161 Y90.987 E5.40476
G1 X109.448 Y91.258 E5.42445
G1 X110.022 Y91.856 E5.46581
G1 X110.279 Y92.151 E5.48533
G1 X110.809 Y92.824 E5.52806
G1 X110.95 Y93.015 E5.53991
G1 X111.533 Y93.853 E5.59084
G1 X113.232 Y96.276 E5.73848
G1 X114.296 Y97.713 E5.82768
G1 X114.599 Y98.19 E5.85588
G1 X114.876 Y98.828 E5.89058
G1 X114.912 Y98.936 E5.89626
G1 X115.052 Y99.484 E5.92447
G1 X115.114 Y100.046 E5.95268
G1 X115.096 Y100.611 E5.98089
G1 X114.998 Y101.168 E6.0091
G1 X114.823 Y101.705 E6.03728
G1 X114.574 Y102.213 E6.0655
G1 X114.397 Y102.49 E6.0819
G1 X114.115 Y102.894 E6.10648
G1 X114.087 Y102.934 E6.10892
G1 X113.032 Y104.407 E6.19931
G1 X111 Y107.436 E6.38128
G1 X110.876 Y107.611 E6.39199
G1 X110.607 Y107.969 E6.41433
G1 X110.546 Y108.048 E6.41931
G1 X110.417 Y108.211 E6.42968
G1 X110.29 Y108.363 E6.43956
G1 X110.024 Y108.667 E6.45971
G1 X109.863 Y108.84 E6.4715
G1 X109.396 Y109.314 E6.5047
G1 X109.187 Y109.512 E6.51906
G1 X108.735 Y109.909 E6.54908
G1 X108.546 Y110.065 E6.5613
G1 X108.279 Y110.272 E6.57816
G1 X108.081 Y110.416 E6.59037
G1 X107.247 Y110.984 E6.64071
G1 X104.991 Y112.568 E6.77824
G1 X103.495 Y113.682 E6.87129
G1 X103.45 Y113.715 E6.87408
G1 X103.128 Y113.948 E6.89391
G1 X102.648 Y114.246 E6.92209
G1 X102.13 Y114.473 E6.95031
G1 X101.586 Y114.626 E6.9785
G1 X101.267 Y114.678 E6.99463
G1 X101.226 Y114.683 E6.99669
G1 X100.662 Y114.711 E7.02486
G1 X100.099 Y114.66 E7.05306
G1 X99.548 Y114.53 E7.08131
G1 X99.022 Y114.323 E7.10951
G1 X98.462 Y113.998 E7.14181
G1 X98.168 Y113.794 E7.15967
G1 X98.122 Y113.762 E7.16246
G1 X96.431 Y112.553 E7.26617
G1 X93.97 Y110.9 E7.41408
G1 X93.915 Y110.863 E7.41738
G1 X93.119 Y110.309 E7.46577
G1 X92.946 Y110.182 E7.47647
G1 X92.747 Y110.027 E7.48906
G1 X92.561 Y109.872 E7.50114
G1 X92.233 Y109.583 E7.52295
G1 X92.067 Y109.429 E7.53424
G1 X91.612 Y108.98 E7.56614
G1 X91.41 Y108.766 E7.58082
G1 X91.014 Y108.313 E7.61084
G1 X90.909 Y108.187 E7.61902
G1 X90.761 Y108.003 E7.6308
G1 X90.573 Y107.749 E7.64656
G1 X90.094 Y107.046 E7.689
G1 X88.493 Y104.755 E7.82845
G1 X87.011 Y102.751 E7.9528
G1 X86.707 Y102.274 E7.98102
G1 X86.475 Y101.759 E8.0092
G1 X86.317 Y101.216 E8.03741
G1 X86.228 Y100.446 E8.07608
G1 X86.227 Y100.391 E8.07883
G1 X86.256 Y99.826 E8.10705
G1 X86.365 Y99.271 E8.13527
G1 X86.551 Y98.738 E8.16343
G1 X86.941 Y98.036 E8.2035
G1 X87.13 Y97.764 E8.22002
G1 X87.161 Y97.719 E8.22275
G1 X88.373 Y96.024 E8.32671
G1 X90.008 Y93.586 E8.47316
G1 X90.05 Y93.524 E8.47689
G1 X90.589 Y92.752 E8.52387
G1 X90.823 Y92.449 E8.54297
G1 X91.396 Y91.776 E8.58707
G1 X91.672 Y91.483 E8.60715
G0 F3600 X91.949 Y91.772
G1 F1800 X92.547 Y91.198 E8.6485
G1 X92.813 Y90.967 E8.66608
G1 X93.486 Y90.437 E8.70882
G1 X93.649 Y90.315 E8.71897
G1 X94.195 Y89.933 E8.75222
G1 X94.274 Y89.879 E8.75699
G1 X94.998 Y89.401 E8.80028
G1 X97.183 Y87.868 E8.93344
G1 X98.384 Y86.986 E9.00778
G1 X98.412 Y86.966 E9.0095
G1 X98.462 Y86.93 E9.01257
G1 X98.919 Y86.65 E9.03931
G1 X99.413 Y86.441 E9.06607
G1 X99.932 Y86.308 E9.0928
G1 X100.466 Y86.253 E9.11958
G1 X101.001 Y86.279 E9.1463
G1 X101.527 Y86.383 E9.17305
G1 X102.032 Y86.564 E9.19982
G1 X102.607 Y86.887 E9.23272
G1 X103.433 Y87.456 E9.28276
G1 X103.478 Y87.488 E9.28552
G1 X103.97 Y87.838 E9.31564
G1 X106.491 Y89.521 E9.46687
G1 X107.059 Y89.887 E9.50058
G1 X107.166 Y89.958 E9.50698
G1 X107.967 Y90.516 E9.55569
G1 X108.248 Y90.733 E9.5734
G1 X108.901 Y91.291 E9.61625
G1 X109.159 Y91.535 E9.63397
G1 X109.733 Y92.133 E9.67532
G1 X109.964 Y92.399 E9.6929
G1 X110.494 Y93.072 E9.73564
G1 X110.621 Y93.243 E9.74626
G1 X111.206 Y94.083 E9.79733
G1 X112.922 Y96.529 E9.9464
G1 X113.974 Y97.951 E10.03465
G1 X114.26 Y98.404 E10.06137
G1 X114.496 Y98.955 E10.09128
G1 X114.532 Y99.063 E10.09696
G1 X114.663 Y99.583 E10.12371
G1 X114.716 Y100.116 E10.15044
G1 X114.689 Y100.652 E10.17721
G1 X114.582 Y101.177 E10.20394
G1 X114.399 Y101.681 E10.23069
G1 X114.069 Y102.262 E10.26403
G1 X113.787 Y102.666 E10.28861
G1 X113.762 Y102.701 E10.29075
G1 X112.713 Y104.165 E10.38061
G1 X110.668 Y107.214 E10.56377
G1 X110.556 Y107.371 E10.57339
G1 X110.287 Y107.729 E10.59573
G1 X110.232 Y107.8 E10.60021
G1 X110.103 Y107.963 E10.61058
G1 X109.989 Y108.1 E10.61947
G1 X109.723 Y108.404 E10.63963
G1 X109.578 Y108.56 E10.65025
G1 X109.111 Y109.034 E10.68345
G1 X108.923 Y109.212 E10.69637
G1 X108.471 Y109.609 E10.72638
G1 X108.301 Y109.749 E10.73737
G1 X108.034 Y109.956 E10.75422
G1 X107.855 Y110.086 E10.76526
G1 X107.017 Y110.657 E10.81585
G1 X104.745 Y112.252 E10.95434
G1 X103.256 Y113.361 E11.04697
G1 X103.215 Y113.391 E11.04951
G1 X102.893 Y113.624 E11.06933
G1 X102.437 Y113.905 E11.09606
G1 X101.943 Y114.115 E11.12284
G1 X101.219 Y114.281 E11.1599
G1 X101.178 Y114.286 E11.16196
G1 X100.642 Y114.311 E11.18873
G1 X100.109 Y114.256 E11.21546
G1 X99.589 Y114.122 E11.24225
G1 X99.095 Y113.913 E11.26901
G1 X98.69 Y113.67 E11.29257
G1 X98.396 Y113.466 E11.31043
G1 X98.354 Y113.437 E11.31297
G1 X96.641 Y112.212 E11.41804
G1 X94.193 Y110.568 E11.56515
G1 X94.144 Y110.535 E11.5681
G1 X93.348 Y109.981 E11.61649
G1 X93.192 Y109.866 E11.62616
G1 X92.993 Y109.711 E11.63874
G1 X92.825 Y109.572 E11.64962
G1 X92.497 Y109.283 E11.67143
G1 X92.348 Y109.144 E11.68159
G1 X91.893 Y108.695 E11.71349
G1 X91.712 Y108.502 E11.72669
G1 X91.316 Y108.049 E11.7567
G1 X91.221 Y107.936 E11.76407
G1 X91.073 Y107.752 E11.77585
G1 X90.903 Y107.523 E11.79008
G1 X90.398 Y106.782 E11.83482
G1 X88.831 Y104.54 E11.97128
G1 X87.332 Y102.513 E12.09706
G1 X87.046 Y102.059 E12.12383
G1 X86.831 Y101.568 E12.15057
G1 X86.691 Y101.051 E12.17729
G1 X86.628 Y100.438 E12.20804
G1 X86.627 Y100.383 E12.21078
G1 X86.657 Y99.848 E12.23751
G1 X86.766 Y99.323 E12.26427
G1 X86.952 Y98.82 E12.29102
G1 X87.27 Y98.264 E12.32298
G1 X87.459 Y97.992 E12.3395
G1 X87.487 Y97.952 E12.34194
G1 X88.688 Y96.273 E12.44493
G1 X90.34 Y93.809 E12.59293
G1 X90.378 Y93.753 E12.5963
G1 X90.917 Y92.981 E12.64328
G1 X91.128 Y92.708 E12.66049
G1 X91.701 Y92.035 E12.70459
G1 X91.949 Y91.772 E12.72262
G0 F3600 X92.226 Y92.06
G1 F1800 X92.824 Y91.486 E12.76398
G1 X93.06 Y91.281 E12.77957
G1 X93.733 Y90.751 E12.82231
G1 X93.879 Y90.643 E12.83137
G1 X94.425 Y90.261 E12.86462
G1 X94.495 Y90.213 E12.86885
G1 X95.185 Y89.757 E12.91011
G1 X97.473 Y88.152 E13.04955
G1 X98.621 Y87.309 E13.12061
G1 X98.645 Y87.291 E13.1221
G1 X98.695 Y87.255 E13.12518
G1 X99.128 Y86.993 E13.15042
G1 X99.596 Y86.802 E13.17564
G1 X100.088 Y86.688 E13.20084
G1 X100.593 Y86.652 E13.2261
G1 X101.096 Y86.696 E13.25129
G1 X101.587 Y86.819 E13.27654
G1 X102.051 Y87.018 E13.30173
G1 X102.38 Y87.217 E13.32091
G1 X103.206 Y87.786 E13.37095
G1 X103.246 Y87.813 E13.37336
G1 X103.761 Y88.179 E13.40488
G1 X106.27 Y89.854 E13.55539
G1 X106.842 Y90.223 E13.58935
G1 X106.937 Y90.286 E13.59503
G1 X107.738 Y90.844 E13.64374
G1 X107.988 Y91.037 E13.65949
G1 X108.641 Y91.595 E13.70235
G1 X108.871 Y91.812 E13.71812
G1 X109.445 Y92.41 E13.75948
G1 X109.65 Y92.646 E13.77507
G1 X110.18 Y93.319 E13.81781
G1 X110.293 Y93.472 E13.8273
G1 X110.878 Y94.313 E13.87841
G1 X112.574 Y96.732 E14.0258
G1 X113.653 Y98.189 E14.11625
G1 X113.921 Y98.618 E14.14149
G1 X114.117 Y99.081 E14.16657
G1 X114.153 Y99.189 E14.17225
G1 X114.274 Y99.68 E14.19748
G1 X114.317 Y100.184 E14.22272
G1 X114.28 Y100.688 E14.24793
G1 X114.164 Y101.18 E14.27315
G1 X113.971 Y101.647 E14.29836
G1 X113.741 Y102.033 E14.32078
G1 X113.459 Y102.437 E14.34536
G1 X113.437 Y102.468 E14.34725
G1 X112.368 Y103.961 E14.43886
G1 X110.335 Y106.991 E14.62091
G1 X110.236 Y107.13 E14.62942
G1 X109.967 Y107.488 E14.65176
G1 X109.918 Y107.552 E14.65578
G1 X109.789 Y107.715 E14.66615
G1 X109.688 Y107.836 E14.67402
G1 X109.422 Y108.14 E14.69417
G1 X109.294 Y108.279 E14.7036
G1 X108.827 Y108.753 E14.73679
G1 X108.659 Y108.911 E14.7483
G1 X108.207 Y109.308 E14.77831
G1 X108.056 Y109.433 E14.78809
G1 X107.789 Y109.64 E14.80495
G1 X107.63 Y109.755 E14.81474
G1 X106.751 Y110.354 E14.8678
G1 X104.521 Y111.919 E15.00372
G1 X103.017 Y113.04 E15.09731
G1 X102.981 Y113.066 E15.09952
G1 X102.659 Y113.299 E15.11935
G1 X102.227 Y113.563 E15.14461
G1 X101.759 Y113.754 E15.16983
G1 X101.17 Y113.883 E15.19991
G1 X101.129 Y113.888 E15.20197
G1 X100.624 Y113.91 E15.22719
G1 X100.122 Y113.851 E15.25241
G1 X99.635 Y113.715 E15.27763
G1 X99.176 Y113.503 E15.30286
G1 X98.918 Y113.341 E15.31806
G1 X98.624 Y113.137 E15.33591
G1 X98.587 Y113.111 E15.33817
G1 X96.891 Y111.898 E15.44219
G1 X94.416 Y110.236 E15.59093
G1 X94.372 Y110.206 E15.59359
G1 X93.576 Y109.652 E15.64197
G1 X93.438 Y109.551 E15.6505
G1 X93.239 Y109.396 E15.66309
G1 X93.09 Y109.272 E15.67276
G1 X92.762 Y108.983 E15.69457
G1 X92.629 Y108.86 E15.7036
G1 X92.174 Y108.411 E15.7355
G1 X92.013 Y108.239 E15.74725
G1 X91.617 Y107.786 E15.77727
G1 X91.533 Y107.686 E15.78378
G1 X91.385 Y107.502 E15.79557
G1 X91.234 Y107.298 E15.80823
G1 X90.75 Y106.588 E15.8511
G1 X89.148 Y104.295 E15.99065
G1 X87.654 Y102.275 E16.116
G1 X87.386 Y101.846 E16.14123
G1 X87.19 Y101.381 E16.16641
G1 X87.069 Y100.89 E16.19164
G1 X87.028 Y100.431 E16.21463
G1 X87.027 Y100.376 E16.21737
G1 X87.057 Y99.872 E16.24256
G1 X87.167 Y99.378 E16.26781
G1 X87.353 Y98.908 E16.29303
G1 X87.598 Y98.492 E16.31711
G1 X87.787 Y98.22 E16.33364
G1 X87.812 Y98.184 E16.33583
G1 X89.028 Y96.483 E16.44014
G1 X90.672 Y94.032 E16.58738
G1 X90.706 Y93.982 E16.5904
G1 X91.245 Y93.21 E16.63737
G1 X91.432 Y92.968 E16.65263
G1 X92.005 Y92.295 E16.69673
G1 X92.226 Y92.06 E16.71282
G1 F1500 E13.71282
;MESH:dv2.stl
G0 F3600 X92.124 Y96.722
G0 X93.29 Y97.26
G0 X93.02 Y99.912
G0 X93.119 Y99.915
;TYPE:WALL-INNER
G1 F1500 E16.71282
G1 F1800 X93.163 Y101.137 E16.77383
G1 X93.306 Y101.958 E16.81541
G1 X93.535 Y102.751 E16.85659
G1 X93.848 Y103.515 E16.89778
G1 X94.246 Y104.24 E16.93904
G1 X94.717 Y104.916 E16.98014
G1 X95.261 Y105.539 E17.02141
G1 X95.869 Y106.097 E17.06258
G1 X96.534 Y106.586 E17.10376
G1 X97.249 Y107 E17.14498
G1 X98.005 Y107.332 E17.18617
G1 X98.791 Y107.581 E17.22731
G1 X99.602 Y107.743 E17.26857
G1 X100.424 Y107.814 E17.30973
G1 X101.25 Y107.797 E17.35095
G1 X102.069 Y107.689 E17.39216
G1 X102.87 Y107.492 E17.43331
G1 X103.647 Y107.209 E17.47457
G1 X104.386 Y106.843 E17.51571
G1 X105.082 Y106.4 E17.55687
G1 X105.726 Y105.882 E17.59811
G1 X106.309 Y105.296 E17.63935
G1 X106.825 Y104.652 E17.68052
G1 X107.268 Y103.955 E17.72172
G1 X107.631 Y103.214 E17.76289
G1 X107.912 Y102.437 E17.80411
G1 X108.106 Y101.635 E17.84527
G1 X108.213 Y100.815 E17.88653
G1 X108.227 Y99.99 E17.9277
G1 X108.153 Y99.167 E17.96892
G1 X107.99 Y98.358 E18.01009
G1 X107.738 Y97.572 E18.05127
G1 X107.404 Y96.818 E18.09242
G1 X106.988 Y96.104 E18.13364
G1 X106.498 Y95.439 E18.17485
G1 X105.937 Y94.832 E18.21609
G1 X105.314 Y94.291 E18.25725
G1 X104.636 Y93.82 E18.29844
G1 X103.91 Y93.427 E18.33963
G1 X103.146 Y93.114 E18.38082
G1 X102.351 Y92.887 E18.42207
G1 X101.538 Y92.748 E18.46322
G1 X100.713 Y92.698 E18.50445
G1 X99.889 Y92.739 E18.54561
G1 X99.074 Y92.868 E18.58678
G1 X98.278 Y93.087 E18.62797
G1 X97.51 Y93.391 E18.66917
G1 X96.779 Y93.777 E18.71042
G1 X96.096 Y94.241 E18.75161
G1 X95.467 Y94.775 E18.79278
G1 X94.9 Y95.376 E18.834
G1 X94.402 Y96.034 E18.87517
G1 X93.979 Y96.744 E18.9164
G1 X93.636 Y97.494 E18.95754
G1 X93.376 Y98.278 E18.99875
G1 X93.203 Y99.086 E19.03998
G1 X93.119 Y99.915 E19.08155
