;FLAVOR:Marlin
;TIME:874
;Filament used: 0.737795m
;Layer height: 0.2
;MINX:54.3
;MINY:48.341
;MINZ:0.3
;MAXX:145.7
;MAXY:135.743
;MAXZ:1.3
;Generated with Cura_SteamEngine 4.2.1
M140 S60
M105
M190 S60
M104 S200
M105
M109 S200
M82 ;absolute extrusion mode
G28 ;Home
G1 Z15.0 F6000 ;Move the platform down 15mm
;Prime the extruder
G92 E0
G1 F200 E3
G92 E0
;
M117 Printing...        ☺
M141 S28
G92 E0
G92 E0
G1 F1500 E-3
;LAYER_COUNT:6
;LAYER:0
M107
G0 F3600 X55.289 Y49.316 Z0.3
;TYPE:SKIRT
G1 F1500 E0
G1 F1800 X55.68 Y48.995 E0.02524
G1 X56.116 Y48.74 E0.05044
G1 X56.587 Y48.557 E0.07565
G1 X57.081 Y48.45 E0.10086
G1 X57.419 Y48.422 E0.11779
G1 X57.74 Y48.413 E0.13381
G1 X57.831 Y48.412 E0.13835
G1 X72.842 Y48.416 E0.88725
G1 X74.324 Y48.385 E0.9612
G1 X74.324 Y48.384 E0.96125
G1 X75.75 Y48.342 E1.03243
G1 X75.844 Y48.341 E1.03712
G1 X87.838 Y48.341 E1.6355
G1 X89.818 Y48.369 E1.73429
G1 X89.86 Y48.37 E1.73639
G1 X90.284 Y48.382 E1.75755
G1 X92.686 Y48.363 E1.87739
G1 X92.726 Y48.363 E1.87939
G1 X93.828 Y48.368 E1.93437
G1 X105.839 Y48.368 E2.5336
G1 X106.536 Y48.378 E2.56837
G1 X106.877 Y48.401 E2.58542
G1 X107.109 Y48.429 E2.59708
G1 X109.887 Y48.745 E2.73657
G1 X112.561 Y48.972 E2.87046
G1 X115.311 Y49.128 E3.00788
G1 X118.073 Y49.206 E3.14573
G1 X119.446 Y49.216 E3.21423
G1 X122.138 Y49.216 E3.34853
G1 X124.935 Y49.176 E3.48809
G1 X127.647 Y49.061 E3.62351
G1 X127.903 Y49.043 E3.63632
G1 X127.946 Y49.04 E3.63847
G1 X129.325 Y48.96 E3.70738
G1 X129.42 Y48.956 E3.71213
G1 X129.74 Y48.947 E3.7281
G1 X129.83 Y48.946 E3.73259
G1 X141.839 Y48.946 E4.33172
G1 X142.537 Y48.956 E4.36655
G1 X143.04 Y49.003 E4.39175
G1 X143.53 Y49.129 E4.41699
G1 X143.994 Y49.331 E4.44224
G1 X144.42 Y49.603 E4.46746
G1 X144.798 Y49.938 E4.49265
G1 X145.118 Y50.329 E4.51786
G1 X145.373 Y50.766 E4.5431
G1 X145.556 Y51.237 E4.56831
G1 X145.663 Y51.731 E4.59353
G1 X145.69 Y52.066 E4.6103
G1 X145.699 Y52.386 E4.62627
G1 X145.7 Y52.476 E4.63076
G1 X145.7 Y64.483 E5.22979
G1 X145.685 Y65.563 E5.28368
G1 X145.684 Y65.61 E5.28602
G1 X145.625 Y67.673 E5.38899
G1 X145.625 Y70.435 E5.52679
G1 X145.656 Y71.874 E5.59859
G1 X145.657 Y71.874 E5.59864
G1 X145.699 Y73.306 E5.67012
G1 X145.7 Y73.4 E5.67481
G1 X145.7 Y85.412 E6.27409
G1 X145.678 Y86.966 E6.35163
G1 X145.677 Y87.01 E6.35382
G1 X145.646 Y88.12 E6.40922
G1 X145.646 Y90.872 E6.54652
G1 X145.677 Y92.307 E6.61813
G1 X145.678 Y92.307 E6.61818
G1 X145.699 Y93.023 E6.65392
G1 X145.7 Y93.117 E6.65861
G1 X145.7 Y105.131 E7.25799
G1 X145.69 Y105.811 E7.29192
G1 X145.687 Y105.897 E7.29621
G1 X145.675 Y106.193 E7.31099
G1 X145.595 Y108.985 E7.45034
G1 X145.595 Y111.702 E7.58589
G1 X145.697 Y115.275 E7.76422
G1 X145.698 Y115.366 E7.76876
G1 X145.698 Y127.354 E8.36684
G1 X145.688 Y128.072 E8.40267
G1 X145.641 Y128.575 E8.42787
G1 X145.515 Y129.065 E8.45311
G1 X145.314 Y129.528 E8.4783
G1 X145.017 Y129.988 E8.50561
G1 X144.692 Y130.407 E8.53207
G1 X144.654 Y130.455 E8.53512
G1 X143.539 Y131.837 E8.62371
G1 X142.449 Y133.253 E8.71287
G1 X142.328 Y133.401 E8.7224
G1 X141.968 Y133.815 E8.74977
G1 X141.607 Y134.169 E8.775
G1 X141.035 Y134.551 E8.80931
G1 X140.702 Y134.725 E8.82806
G1 X140.237 Y134.923 E8.85327
G1 X139.659 Y135.059 E8.8829
G1 X139.421 Y135.092 E8.89489
G1 X139.32 Y135.104 E8.89996
G1 X139.113 Y135.126 E8.91034
G1 X138.762 Y135.144 E8.92788
G1 X138.256 Y135.142 E8.95312
G1 X138.211 Y135.141 E8.95537
G1 X136.397 Y135.108 E9.04589
G1 X134.095 Y135.126 E9.16074
G1 X133.196 Y135.143 E9.2056
G1 X133.107 Y135.144 E9.21004
G1 X132.867 Y135.142 E9.22201
G1 X132.819 Y135.141 E9.22441
G1 X130.476 Y135.086 E9.34133
G1 X127.725 Y135.1 E9.47858
G1 X124.994 Y135.192 E9.61491
G1 X121.765 Y135.399 E9.77633
G1 X121.439 Y135.425 E9.79265
G1 X121.178 Y135.435 E9.80568
G1 X120.715 Y135.434 E9.82878
G1 X120.663 Y135.433 E9.83137
G1 X118.875 Y135.4 E9.92059
G1 X116.711 Y135.414 E10.02856
G1 X115.56 Y135.434 E10.08599
G1 X115.376 Y135.432 E10.09517
G1 X115.173 Y135.424 E10.10531
G1 X112.392 Y135.355 E10.24409
G1 X109.638 Y135.364 E10.38149
G1 X106.943 Y135.45 E10.51601
G1 X104.305 Y135.616 E10.64788
G1 X104.271 Y135.618 E10.64958
G1 X103.772 Y135.644 E10.67451
G1 X103.593 Y135.648 E10.68345
G1 X103.058 Y135.646 E10.71014
G1 X103.011 Y135.645 E10.71248
G1 X101.291 Y135.613 E10.79831
G1 X99.191 Y135.627 E10.90308
G1 X97.984 Y135.648 E10.96331
G1 X97.8 Y135.645 E10.97249
G1 X97.1 Y135.617 E11.00744
G1 X97.058 Y135.615 E11.00954
G1 X95.582 Y135.536 E11.08328
G1 X92.83 Y135.468 E11.22062
G1 X90.093 Y135.477 E11.35717
G1 X86.771 Y135.592 E11.523
G1 X85.779 Y135.644 E11.57256
G1 X85.6 Y135.648 E11.5815
G1 X85.058 Y135.646 E11.60854
G1 X85.011 Y135.645 E11.61088
G1 X83.291 Y135.613 E11.69671
G1 X81.19 Y135.627 E11.80153
G1 X79.973 Y135.648 E11.86226
G1 X79.791 Y135.645 E11.87134
G1 X78.651 Y135.6 E11.92826
G1 X75.867 Y135.529 E12.0672
G1 X73.114 Y135.536 E12.20454
G1 X70.43 Y135.619 E12.33851
G1 X69.637 Y135.67 E12.37816
G1 X69.581 Y135.673 E12.38096
G1 X68.138 Y135.74 E12.45302
G1 X67.977 Y135.743 E12.46106
G1 X67.498 Y135.741 E12.48496
G1 X67.451 Y135.74 E12.4873
G1 X65.698 Y135.707 E12.57477
G1 X63.549 Y135.721 E12.68199
G1 X62.411 Y135.741 E12.73877
G1 X61.763 Y135.686 E12.77122
G1 X61.343 Y135.607 E12.79254
G1 X60.856 Y135.474 E12.81773
G1 X60.299 Y135.212 E12.84844
G1 X59.946 Y135.002 E12.86893
G1 X59.533 Y134.71 E12.89416
G1 X59.062 Y134.224 E12.92793
G1 X58.392 Y133.368 E12.98216
G1 X58.36 Y133.327 E12.98475
G1 X57.982 Y132.828 E13.01599
G1 X56.938 Y131.513 E13.09975
G1 X56.235 Y130.644 E13.15552
G1 X55.949 Y130.227 E13.18075
G1 X55.733 Y129.77 E13.20596
G1 X55.59 Y129.285 E13.23119
G1 X55.525 Y128.729 E13.25912
G1 X55.515 Y128.403 E13.27539
G1 X55.513 Y128.306 E13.28023
G1 X55.51 Y113.649 E14.01147
G1 X55.431 Y110.896 E14.14888
G1 X55.273 Y108.123 E14.28745
G1 X55.163 Y106.729 E14.35721
G1 X55.156 Y106.606 E14.36336
G1 X55.14 Y106.207 E14.38328
G1 X55.137 Y106.079 E14.38967
G1 X55.138 Y91.237 E15.13014
G1 X55.059 Y88.481 E15.26769
G1 X54.966 Y86.685 E15.35741
G1 X54.963 Y86.612 E15.36106
G1 X54.953 Y86.269 E15.37818
G1 X54.952 Y86.176 E15.38282
G1 X54.952 Y75.967 E15.89215
G1 X54.912 Y73.17 E16.0317
G1 X54.797 Y70.453 E16.16738
G1 X54.603 Y67.714 E16.30437
G1 X54.333 Y65.01 E16.43994
G1 X54.32 Y64.825 E16.44919
G1 X54.303 Y64.415 E16.46967
G1 X54.3 Y64.282 E16.4763
G1 X54.3 Y52.254 E17.07638
G1 X54.309 Y51.578 E17.11011
G1 X54.356 Y51.075 E17.13532
G1 X54.481 Y50.585 E17.16055
G1 X54.682 Y50.121 E17.18577
G1 X54.954 Y49.695 E17.21099
G1 X55.289 Y49.316 E17.23622
G1 F1500 E14.23622
;MESH:gift_overlay.stl(12)
G0 F3600 X58.114 Y50.947
G0 X58.114 Y52.226
G0 X58.13 Y58.132
G0 X58.2 Y58.062
;TYPE:WALL-INNER
G1 F1500 E17.23622
G1 F1800 X63.95 Y58.062 E17.52309
G1 X63.95 Y52.312 E17.80996
G1 X58.2 Y52.312 E18.09683
G1 X58.2 Y58.062 E18.3837
G0 F3600 X58.2 Y58.162
G1 F1800 X58.2 Y63.912 E18.67057
G1 X62.15 Y63.912 E18.86763
G1 X63.54 Y63.912 E18.93698
G1 X63.95 Y63.912 E18.95744
G1 X63.95 Y58.162 E19.24431
G1 X58.2 Y58.162 E19.31602
G0 F3600 X58.13 Y58.092
G0 X58.572 Y63.54
G0 X62.806 Y63.736
G0 X62.216 Y61.868
G0 X62.286 Y61.962
G1 F1800 X62.299 Y61.962 E19.31667
G1 X62.31 Y62.021 E19.31967
G1 X62.286 Y61.962 E19.31979
G0 F3600 X62.216 Y61.868
G0 X62.806 Y63.736
G0 X62.15 Y64.012
G1 F1800 X58.2 Y64.012 E19.36906
G1 X58.1 Y64.012 E19.3723
G1 X58.1 Y63.912 E19.37555
G1 X58.1 Y58.162 E19.44727
G1 X58.1 Y58.062 E19.45051
G1 X58.1 Y52.312 E19.52223
G1 X58.1 Y52.212 E19.52548
G1 X58.2 Y52.212 E19.52872
G1 X63.95 Y52.212 E19.60044
G1 X64.05 Y52.212 E19.60369
G1 X69.8 Y52.212 E19.89055
G1 X69.9 Y52.212 E19.89554
G1 X69.9 Y52.312 E19.89879
G1 X69.9 Y58.062 E20.18566
G1 X69.9 Y58.162 E20.19065
G1 X69.9 Y63.912 E20.47752
G1 X69.9 Y64.012 E20.4825
G1 X69.8 Y64.012 E20.48575
G1 X65.856 Y64.012 E20.68252
G1 X65.697 Y64.645 E20.71508
G1 X65.515 Y64.59 E20.72456
G1 X64.931 Y64.736 E20.7546
G1 X64.881 Y64.811 E20.75909
G1 X64.736 Y65.025 E20.77199
G1 X64.675 Y64.808 E20.77509
G1 X64.628 Y64.642 E20.78038
G1 X64.463 Y64.012 E20.81287
G1 X64.05 Y64.012 E20.83347
G1 X63.95 Y64.012 E20.83672
G1 X63.54 Y64.012 E20.84183
G1 X63.324 Y64.806 E20.88288
G1 X63.264 Y65.025 E20.89421
G1 X63.069 Y64.736 E20.90281
G1 X62.479 Y64.588 E20.93316
G1 X62.3 Y64.646 E20.94255
G1 X62.297 Y64.632
G1 X62.15 Y64.012 E20.97434
G0 F3600 X62.211 Y63.934
G0 X63.978 Y63.94
G0 X63.98 Y58.092
G0 X64.05 Y58.162
G1 F1800 X64.05 Y63.912 E21.04606
G1 X64.463 Y63.912 E21.05121
G1 X65.856 Y63.912 E21.1207
G1 X69.8 Y63.912 E21.1699
G1 X69.8 Y58.162 E21.24161
G1 X64.05 Y58.162 E21.52848
G0 F3600 X64.05 Y58.062
G1 F1800 X69.8 Y58.062 E21.6002
G1 X69.8 Y52.312 E21.67192
G1 X64.05 Y52.312 E21.74363
G1 X64.05 Y58.062 E21.81535
G0 F3600 X64.45 Y57.662
;TYPE:WALL-OUTER
G1 F1800 X69.4 Y57.662 E22.06231
G1 X69.4 Y52.712 E22.30926
G1 X64.45 Y52.712 E22.55622
G1 X64.45 Y57.662 E22.80318
G0 F3600 X64.65 Y57.662
G0 X64.65 Y58.162
G0 X58.172 Y58.09
G0 X58.6 Y57.662
G1 F1800 X63.55 Y57.662 E23.05013
G1 X63.55 Y52.712 E23.29709
G1 X58.6 Y52.712 E23.54405
G1 X58.6 Y57.662 E23.791
G0 F3600 X58.8 Y57.662
G0 X58.8 Y58.162
G0 X62.553 Y63.481
G0 X62.475 Y63.512
G1 F1800 X62.366 Y63.238 E23.80571
G1 X61.805 Y61.836 E23.88105
G1 X61.696 Y61.562 E23.89576
G1 X61.99 Y61.562 E23.90436
G1 X61.991 Y61.562 E23.90441
G1 X62.133 Y61.562 E23.91149
G1 X62.293 Y61.402 E23.92278
G1 X62.567 Y61.128 E23.94211
G1 X62.63 Y61.51 E23.95283
G1 X62.964 Y63.512 E24.05409
G1 X63.55 Y63.512 E24.08333
G1 X63.55 Y58.562 E24.33028
G1 X58.6 Y58.562 E24.57724
G1 X58.6 Y63.512 E24.8242
G1 X62.18 Y63.512 E25.0028
G1 X62.181 Y63.512 E25.00285
G1 X62.475 Y63.512 E25.01145
G0 F3600 X62.401 Y63.326
G0 X62.479 Y63.295
G0 X62.306 Y64.537
G0 X61.907 Y64.72
G1 F1800 X61.834 Y64.412 E25.02724
G1 X61.657 Y64.412 E25.03607
G1 X57.7 Y64.412 E25.23349
G1 X57.7 Y51.812 E25.8621
G1 X70.3 Y51.812 E26.49072
G1 X70.3 Y64.412 E27.11934
G1 X66.344 Y64.412 E27.3167
G1 X66.168 Y64.412 E27.32548
G1 X66.092 Y64.715 E27.34107
G1 X66.247 Y64.797 E27.34888
G1 X66.679 Y65.028 E27.37332
G1 X67.075 Y65.368 E27.39936
G1 X67.362 Y65.733 E27.42252
G1 X67.613 Y66.206 E27.44924
G1 X67.66 Y66.355 E27.45703
G1 X67.748 Y66.636 E27.47172
G1 X67.77 Y66.704 E27.47529
G1 X67.815 Y67.118 E27.49606
G1 X67.823 Y67.184 E27.49938
G1 X67.822 Y67.195 E27.49993
G1 X67.8 Y67.38 E27.50923
G1 X67.773 Y67.607 E27.52063
G1 X67.636 Y67.927 E27.538
G1 X67.428 Y68.149 E27.55318
G1 X67.163 Y68.281 E27.56795
G1 X66.791 Y68.326 E27.58664
G1 X66.377 Y68.249 E27.60765
G1 X65.963 Y68.039 E27.63081
G1 X65.587 Y67.712 E27.65567
G1 X65.495 Y67.595 E27.6631
G1 X65.46 Y67.55 E27.66594
G1 X65.272 Y67.311 E27.68111
G1 X65.114 Y67.042 E27.69667
G1 X65.015 Y66.874 E27.7064
G1 X64.843 Y66.502 E27.72685
G1 X64.767 Y66.339 E27.73582
G1 X64.617 Y65.945 E27.75686
G1 X64.569 Y65.819 E27.76358
G1 X64.559 Y65.787 E27.76525
G1 X64.38 Y65.236 E27.79416
G1 X64.243 Y64.751 E27.8193
G1 X64.198 Y64.581 E27.82808
G1 X64.154 Y64.412 E27.83679
G1 X63.847 Y64.412 E27.8521
G1 X63.802 Y64.581 E27.85984
G1 X63.678 Y65.041 E27.88361
G1 X63.532 Y65.52 E27.9086
G1 X63.418 Y65.85 E27.92601
G1 X63.39 Y65.932 E27.93034
G1 X63.349 Y66.051 E27.93662
G1 X63.189 Y66.439 E27.95756
G1 X63.153 Y66.527 E27.9623
G1 X62.929 Y66.973 E27.9872
G1 X62.893 Y67.043 E27.99113
G1 X62.637 Y67.439 E28.01465
G1 X62.576 Y67.51 E28.01932
G1 X62.501 Y67.597 E28.02505
G1 X62.321 Y67.806 E28.03881
G1 X61.947 Y68.097 E28.06245
G1 X61.522 Y68.278 E28.0855
G1 X61.111 Y68.326 E28.10615
G1 X60.763 Y68.255 E28.12386
G1 X60.505 Y68.094 E28.13904
G1 X60.317 Y67.847 E28.15452
G1 X60.202 Y67.498 E28.17286
G1 X60.196 Y67.35 E28.18025
G1 X60.192 Y67.215 E28.18698
G1 X60.183 Y66.998 E28.19782
G1 X60.236 Y66.723 E28.21179
G1 X60.277 Y66.512 E28.22252
G1 X60.353 Y66.315 E28.23305
G1 X60.445 Y66.075 E28.24587
G1 X60.721 Y65.614 E28.27268
G1 X61.022 Y65.271 E28.29545
G1 X61.428 Y64.96 E28.32096
G1 X61.749 Y64.799 E28.33888
G1 X61.907 Y64.72 E28.34679
G0 F3600 X61.861 Y64.526
G0 X61.963 Y64.703
G0 X60.775 Y66.313
G0 X60.507 Y67.205
G0 X61.397 Y67.748
G0 X62.31 Y67.287
G0 X62.935 Y66.334
G0 X63.084 Y65.43
G0 X62.823 Y65.087
G1 F1800 X62.493 Y65.004 E28.36376
G1 X62.066 Y65.143 E28.38617
G1 X61.58 Y65.476 E28.41556
G1 X61.154 Y65.879 E28.44481
G1 X60.796 Y66.324 E28.47331
G1 X60.711 Y66.493 E28.48275
G1 X60.616 Y66.682 E28.49302
G1 X60.564 Y66.785 E28.49788
G1 X60.545 Y67.026 E28.50825
G1 X60.531 Y67.202 E28.51585
G1 X60.593 Y67.322 E28.52209
G1 X60.686 Y67.502 E28.5322
G1 X60.975 Y67.685 E28.54926
G1 X61.395 Y67.724 E28.57031
G1 X61.855 Y67.58 E28.59436
G1 X62.2 Y67.334 E28.6155
G1 X62.293 Y67.268 E28.62099
G1 X62.348 Y67.201 E28.62501
G1 X62.652 Y66.833 E28.64566
G1 X62.88 Y66.387 E28.66491
G1 X62.912 Y66.325 E28.66738
G1 X63.005 Y65.963 E28.68242
G1 X63.044 Y65.813 E28.68945
G1 X63.039 Y65.726 E28.69361
G1 X63.017 Y65.374 E28.7112
G1 X62.823 Y65.087 E28.72849
G0 F3600 X62.629 Y65.039
G0 X62.751 Y64.554
G0 X63.516 Y63.981
G0 X64.487 Y63.981
G0 X66.101 Y64.741
G0 X67.168 Y66.23
G0 X67.499 Y67.156
G0 X66.665 Y67.753
G0 X65.745 Y67.333
G0 X65.086 Y66.39
G0 X64.916 Y65.426
G0 X65.177 Y65.087
G1 F1800 X64.983 Y65.374 E28.74577
G1 X64.958 Y65.781 E28.76611
G1 X64.956 Y65.815 E28.7676
G1 X65.074 Y66.255 E28.78708
G1 X65.108 Y66.379 E28.79166
G1 X65.294 Y66.723 E28.80641
G1 X65.382 Y66.885 E28.81356
G1 X65.545 Y67.07 E28.82367
G1 X65.76 Y67.314 E28.83882
G1 X65.808 Y67.345 E28.8416
G1 X66.21 Y67.611 E28.86565
G1 X66.668 Y67.729 E28.88924
G1 X67.073 Y67.668 E28.90968
G1 X67.349 Y67.461 E28.92689
G1 X67.404 Y67.327 E28.93412
G1 X67.475 Y67.155 E28.94281
G1 X67.423 Y66.739 E28.96086
G1 X67.28 Y66.481 E28.97448
G1 X67.148 Y66.243 E28.98806
G1 X66.787 Y65.817 E29.01592
G1 X66.349 Y65.419 E29.04544
G1 X65.89 Y65.122 E29.07272
G1 X65.505 Y65.005 E29.09279
G1 X65.177 Y65.087 E29.10966
G0 F3600 X65.065 Y65.252
G0 X64.916 Y65.426
G0 X65.086 Y66.39
G0 X65.745 Y67.333
G0 X66.665 Y67.753
G0 X67.499 Y67.156
G0 X67.168 Y66.23
G0 X66.101 Y64.741
G0 X65.202 Y64.631
G0 X65.447 Y63.481
G0 X65.525 Y63.512
G1 F1800 X65.819 Y63.512 E29.12433
G1 X65.82 Y63.512 E29.12438
G1 X69.4 Y63.512 E29.30299
G1 X69.4 Y58.562 E29.54994
G1 X64.45 Y58.562 E29.7969
G1 X64.45 Y63.512 E30.04386
G1 X65.036 Y63.512 E30.07309
G1 X65.37 Y61.51 E30.17435
G1 X65.433 Y61.128 E30.19367
G1 X65.707 Y61.402 E30.20439
G1 X65.867 Y61.562 E30.21568
G1 X66.009 Y61.562 E30.22277
G1 X66.01 Y61.562 E30.22282
G1 X66.304 Y61.562 E30.23749
G1 X66.195 Y61.836 E30.24611
G1 X65.634 Y63.238 E30.32144
G1 X65.525 Y63.512 E30.33006
G0 F3600 X65.725 Y63.512
G0 X65.475 Y63.413
G0 X65.062 Y64.302
;TYPE:SKIN
G1 F1800 X64.95 Y64.33 E30.33582
G1 X64.942 Y64.302 E30.33728
G1 X65.062 Y64.302 E30.34326
G0 F3600 X63.516 Y63.981
G0 X63.057 Y64.302
G1 F1800 X63.05 Y64.329 E30.34465
G1 X62.941 Y64.302 E30.35026
G1 X63.057 Y64.302 E30.35604
G0 F3600 X64.979 Y63.942
G0 X65.256 Y63.559
;TYPE:SKIN
G1 F1800 X65.317 Y63.337 E30.36468
G1 X65.74 Y61.78 E30.42518
G1 F1500 E27.42518
;MESH:gift_overlay.stl(14)
G0 F3600 X66.922 Y62.347
G0 X68.57 Y62.27
G0 X71.084 Y62.158
G0 X74.835 Y61.99
G0 X76.12 Y61.99
G0 X76.13 Y58.021
G0 X76.2 Y58.091
;TYPE:WALL-INNER
G1 F1500 E30.42518
G1 F1800 X76.2 Y63.841 E30.71205
G1 X80.15 Y63.841 E30.90911
G1 X81.54 Y63.841 E30.97846
G1 X81.95 Y63.841 E30.99892
G1 X81.95 Y58.091 E31.28579
G1 X76.2 Y58.091 E31.57265
G0 F3600 X76.2 Y57.991
G1 F1800 X81.95 Y57.991 E31.64437
G1 X81.95 Y52.241 E31.93124
G1 X76.2 Y52.241 E32.21811
G1 X76.2 Y57.991 E32.50498
G0 F3600 X76.13 Y58.061
G0 X76.572 Y63.469
G0 X80.806 Y63.665
G0 X80.216 Y61.797
G0 X80.286 Y61.891
G1 F1800 X80.299 Y61.891 E32.50563
G1 X80.31 Y61.95 E32.50862
G1 X80.286 Y61.891 E32.50875
G0 F3600 X80.216 Y61.797
G0 X80.806 Y63.665
G0 X80.15 Y63.941
G1 F1800 X76.2 Y63.941 E32.55801
G1 X76.1 Y63.941 E32.56126
G1 X76.1 Y63.841 E32.56451
G1 X76.1 Y58.091 E32.63622
G1 X76.1 Y57.991 E32.63947
G1 X76.1 Y52.241 E32.71119
G1 X76.1 Y52.141 E32.71443
G1 X76.2 Y52.141 E32.71768
G1 X81.95 Y52.141 E32.78939
G1 X82.05 Y52.141 E32.79264
G1 X87.8 Y52.141 E33.07951
G1 X87.9 Y52.141 E33.0845
G1 X87.9 Y52.241 E33.08774
G1 X87.9 Y57.991 E33.37461
G1 X87.9 Y58.091 E33.3796
