; generated by Slic3r 1.2.9 on 2018-07-05 at 12:26:42

; external perimeters extrusion width = 0.50mm
; perimeters extrusion width = 0.58mm
; infill extrusion width = 0.58mm
; solid infill extrusion width = 0.58mm
; top infill extrusion width = 0.58mm

M107
M190 S80 ; set bed temperature
M104 S225 ; set temperature
G28 ; home all axes
G1 Z5 F5000 ; lift nozzle

M109 S225 ; wait for temperature to be reached
G21 ; set units to millimeters
G90 ; use absolute coordinates
M82 ; use absolute distances for extrusion
G92 E0
G1 Z0.500 F7800.000
G1 E-2.00000 F2400.00000
G92 E0
G1 X83.658 Y81.484 F7800.000
G1 E2.00000 F2400.00000
G1 X84.454 Y80.674 E2.21086 F1800.000
G1 X85.435 Y79.757 E2.45997
G1 X86.462 Y78.892 E2.70908
G1 X87.532 Y78.083 E2.95819
G1 X88.644 Y77.330 E3.20730
G1 X89.793 Y76.637 E3.45641
G1 X90.978 Y76.005 E3.70552
G1 X92.193 Y75.435 E3.95463
G1 X93.437 Y74.930 E4.20374
G1 X94.706 Y74.491 E4.45285
G1 X95.995 Y74.119 E4.70196
G1 X97.303 Y73.815 E4.95108
G1 X98.624 Y73.579 E5.20018
G1 X99.957 Y73.413 E5.44930
G1 X101.296 Y73.317 E5.69841
G1 X102.277 Y73.292 E5.88057
G1 X102.889 Y73.298 E5.99416
G1 X104.003 Y73.337 E6.20101 F1800.000
G1 X105.364 Y73.454 E6.45449
G1 X106.717 Y73.641 E6.70797
G1 X107.705 Y73.824 E6.89451
G1 X109.036 Y74.134 E7.14799
G1 X109.625 Y74.299 E7.26158
G1 X110.691 Y74.624 E7.46843
G1 X111.976 Y75.089 E7.72191
G1 X113.234 Y75.621 E7.97539
G1 X114.141 Y76.054 E8.16193
G1 X115.659 Y76.877 E8.48235
G1 X116.818 Y77.599 E8.73583
G1 X117.939 Y78.381 E8.98931
G1 X118.736 Y78.993 E9.17585
G1 X119.781 Y79.873 E9.42934
G1 X121.034 Y81.061 E9.74975
G1 X121.967 Y82.058 E10.00323
G1 X122.620 Y82.823 E10.18977
G1 X123.459 Y83.901 E10.44325
G1 X123.813 Y84.400 E10.55684
G1 X124.437 Y85.324 E10.76369
G1 X125.142 Y86.493 E11.01717
G1 X125.622 Y87.377 E11.20371
G1 X126.219 Y88.605 E11.45719
G1 X126.750 Y89.864 E11.71067
G1 X127.215 Y91.148 E11.96415
G1 X127.705 Y92.804 E12.28457
G1 X127.940 Y93.781 E12.47111
G1 X128.198 Y95.122 E12.72459
G1 X128.424 Y96.834 E13.04501
G1 X128.515 Y98.031 E13.26772
G1 X128.566 Y99.036 E13.45442
G1 X128.572 Y99.562 E13.55215
G1 X128.525 Y100.992 E13.81764
G1 X128.441 Y102.059 E14.01619
G1 X128.207 Y103.835 E14.34861
G1 X128.012 Y104.887 E14.54715
G1 X127.687 Y106.280 E14.81264
G1 X127.290 Y107.655 E15.07813
G1 X126.822 Y109.006 E15.34361
G1 X126.136 Y110.661 E15.67605
G1 X125.675 Y111.627 E15.87459
G1 X125.001 Y112.889 E16.14007
G1 X124.065 Y114.416 E16.47250
G1 X123.459 Y115.298 E16.67104
G1 X122.596 Y116.439 E16.93653
G1 X121.674 Y117.533 E17.20202
G1 X121.248 Y117.995 E17.31860
G1 X120.441 Y118.832 E17.53446
G1 X119.396 Y119.810 E17.79994
G1 X118.583 Y120.505 E17.99849
G1 X117.454 Y121.383 E18.26399
G1 X115.977 Y122.398 E18.59641
G1 X115.065 Y122.957 E18.79495
G1 X113.812 Y123.648 E19.06043
G1 X112.195 Y124.419 E19.39286
G1 X110.870 Y124.958 E19.65834
G1 X109.518 Y125.427 E19.92384
G1 X108.493 Y125.730 E20.12238
G1 X107.104 Y126.074 E20.38787
G1 X105.342 Y126.400 E20.72029
G1 X103.923 Y126.577 E20.98578
G1 X102.496 Y126.680 E21.25125
G1 X101.065 Y126.708 E21.51676
G1 X99.611 Y126.661 E21.78679
G1 X98.520 Y126.575 E21.98988
G1 X97.076 Y126.394 E22.25991
G1 X95.291 Y126.063 E22.59687
G1 X94.226 Y125.808 E22.79997
G1 X92.829 Y125.404 E23.07000
G1 X91.117 Y124.797 E23.40697
G1 X90.106 Y124.379 E23.61007
G1 X88.788 Y123.761 E23.88011
G1 X87.192 Y122.894 E24.21707
G1 X85.957 Y122.126 E24.48710
G1 X84.763 Y121.294 E24.75715
G1 X83.614 Y120.401 E25.02717
G1 X82.514 Y119.448 E25.29721
G1 X81.720 Y118.695 E25.50030
G1 X80.711 Y117.646 E25.77033
G1 X79.532 Y116.265 E26.10731
G1 X78.866 Y115.397 E26.31039
G1 X78.034 Y114.203 E26.58043
G1 X77.085 Y112.655 E26.91740
G1 X73.110 Y105.147 E28.49379
G1 X72.315 Y101.932 E29.10843
G1 X72.315 Y95.932 E30.22186
G1 X72.712 Y93.626 E30.65603
G1 X74.270 Y91.123 E31.20324
G1 X83.605 Y81.538 E33.68617
G1 E31.68617 F2400.00000
G92 E0
G1 X105.785 Y101.532 F7800.000
G1 E2.00000 F2400.00000
G1 X105.542 Y101.962 E2.09172 F1800.000
G1 X105.260 Y102.361 E2.18232
G1 X104.926 Y102.741 E2.27624
G1 X104.560 Y103.079 E2.36863
G1 X104.162 Y103.375 E2.46071
G1 X103.731 Y103.630 E2.55374
G1 X103.523 Y103.732 E2.59668
G1 X102.994 Y103.935 E2.70179
G1 X102.436 Y104.085 E2.80893
G1 X102.461 Y103.465 E2.92411
G1 X105.460 Y101.245 E3.61656
G1 X105.729 Y101.482 E3.68306
G1 X105.343 Y101.753 F7800.000
G1 X105.937 Y100.999 F7800.000
G1 X106.268 Y100.564 E3.78446 F1800.000
G1 X106.385 Y100.354 E3.82905
G1 X106.423 Y100.082 E3.88014
G1 X106.417 Y99.869 E3.91955
G1 X106.350 Y99.011 E4.07931
G1 X106.004 Y98.580 F7800.000
G1 X105.448 Y96.868 E4.41337 F1800.000
G1 X105.905 Y96.678 E4.50525
G1 X106.121 Y97.101 E4.59324
G1 X106.289 Y97.541 E4.68070
G1 X106.411 Y97.996 E4.76815
G1 X106.486 Y98.464 E4.85614
G1 X106.077 Y98.562 E4.93410
G1 X106.121 Y98.094 F7800.000
G1 X105.474 Y96.316 F7800.000
G1 X105.024 Y95.582 E5.09386 F1800.000
G1 X104.888 Y95.384 E5.13832
G1 X104.717 Y95.202 E5.18469
G1 X104.483 Y95.090 E5.23290
G1 X104.263 Y95.025 E5.27545
G1 X103.396 Y94.817 E5.44100
G1 X102.881 Y95.016 F7800.000
G1 X101.130 Y95.016 E5.76585 F1800.000
G1 X101.097 Y94.516 E5.85880
G1 X101.531 Y94.458 E5.94010
G1 X102.007 Y94.433 E6.02860
G1 X102.483 Y94.458 E6.11701
G1 X102.915 Y94.517 E6.19788
G1 X102.886 Y94.941 E6.27683
G1 X102.454 Y94.756 F7800.000
G1 X100.616 Y94.818 F7800.000
G1 X99.752 Y95.025 E6.44178 F1800.000
G1 X99.541 Y95.087 E6.48248
G1 X99.299 Y95.204 E6.53242
G1 X99.133 Y95.383 E6.57773
G1 X98.994 Y95.585 E6.62324
G1 X98.576 Y96.268 E6.77171
G1 X98.593 Y96.816 F7800.000
G1 X98.001 Y98.637 E7.12710 F1800.000
G1 X97.520 Y98.522 E7.21898
G1 X97.603 Y97.996 E7.31776
G1 X97.725 Y97.541 E7.40522
G1 X97.894 Y97.101 E7.49267
G1 X98.136 Y96.627 E7.59145
G1 X98.524 Y96.787 E7.66941
G1 X98.213 Y97.141 F7800.000
G1 X97.665 Y99.071 F7800.000
G1 X97.597 Y100.080 E7.85715 F1800.000
G1 X97.634 Y100.353 E7.90826
G1 X97.753 Y100.568 E7.95382
G1 X97.900 Y100.761 E7.99882
G1 X98.426 Y101.384 E8.15014
G1 X98.955 Y101.536 F7800.000
G1 X100.398 Y102.608 E8.48369 F1800.000
G1 X100.139 Y103.026 E8.57511
G1 X99.756 Y102.831 E8.65478
G1 X99.361 Y102.575 E8.74224
G1 X98.995 Y102.278 E8.82969
G1 X98.630 Y101.913 E8.92547
G1 X98.906 Y101.593 E9.00390
G1 X99.142 Y102.000 F7800.000
G1 E7.00390 F2400.00000
G92 E0
G1 X80.207 Y101.097 F7800.000
G1 X80.207 Y101.097 F7800.000
G1 X101.926 Y104.338 F7800.000
G1 E2.00000 F2400.00000
G1 X101.163 Y104.263 E2.14230 F1800.000
G1 X100.610 Y104.145 E2.24714
G1 X100.325 Y104.060 E2.30244
G1 X99.797 Y103.859 E2.40733
G1 X99.307 Y103.609 E2.50933
G1 X98.846 Y103.310 E2.61133
G1 X98.394 Y102.946 E2.71913
G1 X97.991 Y102.543 E2.82476
G1 X97.815 Y102.332 E2.87576
G1 X97.632 Y102.092 E2.93179
G1 X97.332 Y101.636 E3.03307
G1 X97.074 Y101.129 E3.13870
G1 X96.870 Y100.597 E3.24433
G1 X96.732 Y100.069 E3.34560
G1 X96.676 Y99.774 E3.40135
G1 X96.631 Y99.428 E3.46606
G1 X96.607 Y98.933 E3.55814
G1 X96.641 Y98.313 E3.67333
G1 X96.739 Y97.717 E3.78547
G1 X96.807 Y97.434 E3.83939
G1 X96.995 Y96.839 E3.95512
G1 X97.253 Y96.263 E4.07238
G1 X97.551 Y95.746 E4.18309
G1 X97.902 Y95.263 E4.29381
G1 X98.335 Y94.788 E4.41316
G1 X98.546 Y94.588 E4.46708
G1 X99.022 Y94.197 E4.58140
G1 X99.268 Y94.028 E4.63678
G1 X99.724 Y93.764 E4.73454
G1 X100.076 Y93.594 E4.80717
G1 X100.650 Y93.369 E4.92149
G1 X101.241 Y93.210 E5.03512
G1 X101.861 Y93.113 E5.15165
G1 X102.442 Y93.087 E5.25946
G1 X102.803 Y93.092 E5.32642
G1 X103.443 Y93.160 E5.44588
G1 X104.092 Y93.298 E5.56898
G1 X104.658 Y93.484 E5.67957
G1 X105.020 Y93.627 E5.75177
G1 X105.611 Y93.928 E5.87487
G1 X106.145 Y94.280 E5.99360
G1 X106.422 Y94.486 E6.05766
G1 X106.908 Y94.929 E6.17975
G1 X107.540 Y95.667 E6.35998
G1 X107.920 Y96.246 E6.48856
G1 X108.214 Y96.823 E6.60875
G1 X108.333 Y97.122 E6.66847
G1 X108.538 Y97.753 E6.79150
G1 X108.617 Y98.081 E6.85410
G1 X108.680 Y98.399 E6.91429
G1 X108.745 Y99.060 E7.03762
G1 X108.757 Y99.382 E7.09727
G1 X108.721 Y100.072 E7.22557
G1 X108.667 Y100.451 E7.29670
G1 X108.551 Y101.031 E7.40632
G1 X108.299 Y101.813 E7.55878
G1 X108.170 Y102.126 E7.62165
G1 X107.851 Y102.760 E7.75345
G1 X107.456 Y103.358 E7.88645
G1 X107.250 Y103.628 E7.94932
G1 X106.780 Y104.155 E8.08040
G1 X106.252 Y104.630 E8.21223
G1 X105.694 Y105.031 E8.33971
G1 X105.380 Y105.224 E8.40811
G1 X104.753 Y105.548 E8.53917
G1 X104.411 Y105.684 E8.60740
G1 X103.823 Y105.882 E8.72257
G1 X103.081 Y106.045 E8.86348
G1 X102.376 Y106.118 E8.99506
G1 X102.008 Y106.132 E9.06339
G1 X101.255 Y106.092 E9.20334
G1 X100.510 Y105.975 E9.34319
G1 X99.779 Y105.778 E9.48377
G1 X99.434 Y105.657 E9.55153
G1 X98.736 Y105.344 E9.69355
G1 X98.411 Y105.169 E9.76203
G1 X97.775 Y104.757 E9.90261
G1 X97.187 Y104.280 E10.04319
G1 X96.671 Y103.758 E10.17940
G1 X96.416 Y103.460 E10.25217
G1 X95.969 Y102.853 E10.39197
G1 X95.589 Y102.194 E10.53327
G1 X95.395 Y101.775 E10.61883
G1 X95.161 Y101.153 E10.74221
G1 X95.053 Y100.797 E10.81123
G1 X94.949 Y100.338 E10.89853
G1 X94.847 Y99.681 E11.02192
G1 X94.818 Y99.313 E11.09049
G1 X94.818 Y98.528 E11.23617
G1 X94.849 Y98.140 E11.30833
G1 X94.975 Y97.342 E11.45837
G1 X95.182 Y96.568 E11.60696
G1 X95.469 Y95.821 E11.75555
G1 X95.653 Y95.449 E11.83251
G1 X95.984 Y94.863 E11.95743
G1 X96.514 Y94.115 E12.12754
G1 X97.041 Y93.538 E12.27259
G1 X97.342 Y93.251 E12.34973
G1 X97.964 Y92.747 E12.49822
G1 X98.636 Y92.305 E12.64749
G1 X99.334 Y91.955 E12.79244
G1 X99.718 Y91.795 E12.86958
G1 X100.481 Y91.542 E13.01885
G1 X101.246 Y91.384 E13.16380
G1 X101.658 Y91.324 E13.24097
G1 X102.461 Y91.282 E13.39028
G1 X103.288 Y91.331 E13.54398
G1 X103.724 Y91.387 E13.62548
G1 X104.554 Y91.558 E13.78276
G1 X105.364 Y91.822 E13.94082
G1 X105.748 Y91.981 E14.01805
G1 X106.493 Y92.360 E14.17320
G1 X106.863 Y92.591 E14.25404
G1 X107.555 Y93.087 E14.41206
G1 X108.185 Y93.658 E14.56981
G1 X108.480 Y93.970 E14.64949
G1 X108.758 Y94.300 E14.72957
G1 X109.006 Y94.624 E14.80524
G1 X109.472 Y95.332 E14.96263
G1 X109.859 Y96.091 E15.12069
G1 X110.013 Y96.478 E15.19789
G1 X110.160 Y96.896 E15.28013
G1 X110.371 Y97.684 E15.43164
G1 X110.512 Y98.532 E15.59105
G1 X110.552 Y99.382 E15.74905
G1 X110.539 Y99.837 E15.83349
G1 X110.510 Y100.280 E15.91583
G1 X110.371 Y101.144 E16.07827
G1 X110.136 Y102.032 E16.24866
G1 X109.991 Y102.442 E16.32954
G1 X109.624 Y103.267 E16.49707
G1 X109.239 Y103.930 E16.63926
G1 X108.924 Y104.408 E16.74541
G1 X108.361 Y105.103 E16.91148
G1 X108.054 Y105.418 E16.99309
G1 X107.483 Y105.946 E17.13739
G1 X107.042 Y106.293 E17.24156
G1 X106.570 Y106.609 E17.34700
G1 X105.886 Y107.002 E17.49332
G1 X105.083 Y107.353 E17.65586
G1 X104.649 Y107.513 E17.74176
G1 X103.781 Y107.746 E17.90856
G1 X103.349 Y107.826 E17.99017
G1 X102.470 Y107.919 E18.15406
G1 X101.532 Y107.919 E18.32811
G1 X100.584 Y107.816 E18.50508
G1 X99.675 Y107.624 E18.67761
G1 X98.782 Y107.334 E18.85180
G1 X98.347 Y107.154 E18.93923
G1 X97.521 Y106.734 E19.11114
G1 X97.112 Y106.484 E19.20003
G1 X96.343 Y105.926 E19.37629
G1 X95.638 Y105.290 E19.55256
G1 X95.309 Y104.942 E19.64146
G1 X94.726 Y104.222 E19.81336
G1 X94.206 Y103.418 E19.99108
G1 X93.786 Y102.594 E20.16269
G1 X93.567 Y102.048 E20.27186
G1 X93.318 Y101.257 E20.42581
G1 X93.230 Y100.909 E20.49234
G1 X93.118 Y100.340 E20.60001
G1 X93.057 Y99.873 E20.68744
G1 X93.007 Y98.932 E20.86226
G1 X93.020 Y98.445 E20.95261
G1 X93.059 Y97.944 E21.04588
G1 X93.124 Y97.454 E21.13768
G1 X93.214 Y96.969 E21.22920
G1 X93.364 Y96.370 E21.34383
G1 X93.636 Y95.542 E21.50547
G1 X93.824 Y95.088 E21.59665
G1 X94.208 Y94.327 E21.75487
G1 X94.532 Y93.785 E21.87200
G1 X94.811 Y93.379 E21.96352
G1 X95.192 Y92.893 E22.07815
G1 X95.778 Y92.248 E22.23978
G1 X96.128 Y91.915 E22.32951
G1 X96.510 Y91.588 E22.42277
G1 X96.897 Y91.292 E22.51313
G1 X97.734 Y90.750 E22.69811
G1 X98.167 Y90.512 E22.78991
G1 X98.614 Y90.299 E22.88172
G1 X99.071 Y90.110 E22.97353
G1 X99.539 Y89.950 E23.06532
G1 X100.012 Y89.807 E23.15709
G1 X100.500 Y89.687 E23.25034
G1 X101.100 Y89.583 E23.36323
G1 X101.966 Y89.495 E23.52486
G1 X102.457 Y89.482 E23.61604
G1 X102.975 Y89.496 E23.71222
G1 X103.492 Y89.536 E23.80841
G1 X104.005 Y89.610 E23.90457
G1 X104.515 Y89.701 E24.00071
G1 X105.027 Y89.822 E24.09833
G1 X105.517 Y89.967 E24.19306
G1 X106.019 Y90.145 E24.29194
G1 X106.823 Y90.500 E24.45511
G1 X107.407 Y90.809 E24.57770
G1 X107.849 Y91.079 E24.67388
G1 X108.283 Y91.378 E24.77152
G1 X108.694 Y91.693 E24.86770
G1 X109.082 Y92.025 E24.96242
G1 X109.452 Y92.376 E25.05714
G1 X109.814 Y92.758 E25.15478
G1 X110.151 Y93.152 E25.25096
G1 X110.467 Y93.563 E25.34714
G1 X110.760 Y93.990 E25.44333
G1 X111.035 Y94.439 E25.54096
G1 X111.278 Y94.888 E25.63569
G1 X111.498 Y95.348 E25.73041
G1 X111.700 Y95.834 E25.82805
G1 X111.875 Y96.330 E25.92569
G1 X112.020 Y96.820 E26.02041
G1 X112.139 Y97.316 E26.11513
G1 X112.235 Y97.833 E26.21277
G1 X112.304 Y98.355 E26.31041
G1 X112.344 Y98.864 E26.40513
G1 X112.357 Y99.382 E26.50131
G1 X112.343 Y99.932 E26.60332
G1 X112.301 Y100.464 E26.70242
G1 X112.231 Y100.993 E26.80151
G1 X112.131 Y101.534 E26.90352
G1 X112.002 Y102.068 E27.00553
G1 X111.803 Y102.710 E27.13017
G1 X111.460 Y103.591 E27.30561
G1 X111.225 Y104.088 E27.40761
G1 X110.971 Y104.557 E27.50671
G1 X110.688 Y105.019 E27.60726
G1 X110.376 Y105.472 E27.70927
G1 X110.051 Y105.896 E27.80836
G1 X109.704 Y106.302 E27.90746
G1 X109.326 Y106.701 E28.00947
G1 X108.927 Y107.079 E28.11148
G1 X108.521 Y107.426 E28.21057
G1 X108.097 Y107.751 E28.30967
G1 X107.644 Y108.062 E28.41168
G1 X107.175 Y108.349 E28.51369
G1 X106.706 Y108.604 E28.61278
G1 X106.224 Y108.834 E28.71188
G1 X105.716 Y109.045 E28.81389
G1 X105.198 Y109.228 E28.91590
G1 X104.686 Y109.379 E29.01499
G1 X104.167 Y109.504 E29.11409
G1 X103.626 Y109.605 E29.21610
G1 X103.081 Y109.676 E29.31811
G1 X102.549 Y109.718 E29.41721
G1 X102.015 Y109.732 E29.51630
G1 X101.442 Y109.717 E29.62268
G1 X100.871 Y109.672 E29.72906
G1 X100.318 Y109.599 E29.83253
G1 X99.770 Y109.498 E29.93600
G1 X99.212 Y109.364 E30.04238
G1 X98.663 Y109.201 E30.14876
G1 X98.137 Y109.015 E30.25223
G1 X97.622 Y108.801 E30.35570
G1 X97.104 Y108.555 E30.46208
G1 X96.601 Y108.281 E30.56846
G1 X96.125 Y107.990 E30.67193
G1 X95.666 Y107.674 E30.77539
G1 X95.217 Y107.330 E30.88032
G1 X94.781 Y106.958 E30.98670
G1 X94.365 Y106.563 E31.09308
G1 X93.981 Y106.159 E31.19655
G1 X93.619 Y105.735 E31.30002
G1 X93.270 Y105.280 E31.40640
G1 X92.946 Y104.808 E31.51278
G1 X92.654 Y104.332 E31.61625
G1 X92.388 Y103.842 E31.71971
G1 X92.141 Y103.325 E31.82609
G1 X91.930 Y102.800 E31.93100
G1 X91.739 Y102.268 E32.03588
G1 X91.574 Y101.720 E32.14224
G1 X91.419 Y101.036 E32.27234
G1 X91.269 Y100.061 E32.45543
G1 X91.222 Y99.490 E32.56179
G1 X91.207 Y98.932 E32.66526
G1 X91.223 Y98.351 E32.77310
G1 X91.269 Y97.756 E32.88385
G1 X91.346 Y97.172 E32.99315
G1 X91.455 Y96.585 E33.10390
G1 X91.755 Y95.466 E33.31893
G1 X91.955 Y94.901 E33.43026
G1 X92.179 Y94.358 E33.53927
G1 X92.440 Y93.819 E33.65028
G1 X92.719 Y93.300 E33.75958
G1 X93.022 Y92.805 E33.86742
G1 X93.351 Y92.326 E33.97526
G1 X93.714 Y91.852 E34.08601
G1 X94.097 Y91.404 E34.19531
G1 X94.502 Y90.977 E34.30461
G1 X94.930 Y90.572 E34.41391
G1 X95.384 Y90.184 E34.52466
G1 X95.845 Y89.831 E34.63250
G1 X96.337 Y89.493 E34.74325
G1 X96.839 Y89.186 E34.85255
G1 X97.872 Y88.659 E35.06757
G1 X98.426 Y88.429 E35.17891
G1 X98.981 Y88.233 E35.28820
G1 X99.546 Y88.066 E35.39750
G1 X100.118 Y87.928 E35.50680
G1 X100.696 Y87.821 E35.61580
G1 X101.289 Y87.746 E35.72682
G1 X101.869 Y87.698 E35.83466
G1 X102.457 Y87.682 E35.94396
G1 X103.070 Y87.698 E36.05763
G1 X103.679 Y87.746 E36.17100
G1 X104.295 Y87.831 E36.28639
