;FLAVOR:Marlin
;TIME:3191
;Filament used: 3.53785m
;Layer height: 0.2
;MINX:65.5
;MINY:52.136
;MINZ:0.4
;MAXX:134.5
;MAXY:162.535
;MAXZ:13.2
;Generated with Cura_SteamEngine 4.2.1
M140 S60
M105
M190 S60
M104 S210
M105
M109 S210
M82 ;absolute extrusion mode
G28 ;Home
G1 Z15.0 F6000 ;Move the platform down 15mm
;Prime the extruder
G92 E0
G1 F200 E3
G92 E0
;
M117 Printing...        ☺
M141 S28
G92 E0
G92 E0
G1 F1500 E-5
;LAYER_COUNT:65
;LAYER:0
M107
G0 F3600 X66.387 Y53.408 Z0.4
;TYPE:SKIRT
G1 F1500 E0
G1 F1800 X66.526 Y53.255 E0.01375
G1 X66.895 Y52.909 E0.0474
G1 X67.313 Y52.625 E0.08102
G1 X68.006 Y52.333 E0.13104
G1 X68.21 Y52.274 E0.14517
G1 X68.705 Y52.172 E0.17878
G1 X69.051 Y52.148 E0.20186
G1 X69.721 Y52.138 E0.24643
G1 X69.769 Y52.138 E0.24962
G1 X124.178 Y52.136 E3.86892
G1 X124.231 Y52.136 E3.87245
G1 X124.952 Y52.148 E3.92042
G1 X125.456 Y52.197 E3.9541
G1 X125.762 Y52.267 E3.97498
G1 X125.969 Y52.325 E3.98928
G1 X126.444 Y52.499 E4.02293
G1 X126.885 Y52.746 E4.05656
G1 X127.282 Y53.059 E4.09019
G1 X127.584 Y53.381 E4.11955
G1 X128.29 Y54.245 E4.19377
G1 X128.319 Y54.281 E4.19685
G1 X128.885 Y54.994 E4.2574
G1 X130.654 Y57.101 E4.44041
G1 X133.101 Y59.825 E4.68399
G1 X133.339 Y60.125 E4.70946
G1 X133.506 Y60.363 E4.7288
G1 X133.683 Y60.645 E4.75095
G1 X133.904 Y61.042 E4.78117
G1 X134.18 Y61.703 E4.82882
G1 X134.245 Y61.926 E4.84427
G1 X134.286 Y62.079 E4.85481
G1 X134.382 Y62.482 E4.88237
G1 X134.468 Y63.134 E4.92612
G1 X134.494 Y64.055 E4.98741
G1 X134.495 Y64.121 E4.9918
G1 X134.5 Y64.777 E5.03543
G1 X134.5 Y64.837 E5.03943
G1 X134.488 Y65.901 E5.11021
G1 X134.486 Y65.973 E5.115
G1 X134.474 Y66.33 E5.13876
G1 X134.47 Y66.413 E5.14429
G1 X134.451 Y66.731 E5.16548
G1 X134.445 Y66.82 E5.17141
G1 X134.392 Y67.424 E5.21175
G1 X134.381 Y67.53 E5.21883
G1 X134.351 Y67.777 E5.23539
G1 X134.339 Y67.864 E5.24123
G1 X134.265 Y68.359 E5.27452
G1 X134.249 Y68.456 E5.28106
G1 X134.196 Y68.749 E5.30087
G1 X134.179 Y68.835 E5.3067
G1 X134.074 Y69.336 E5.34075
G1 X134.049 Y69.446 E5.34825
G1 X133.993 Y69.673 E5.36381
G1 X133.972 Y69.754 E5.36937
G1 X133.815 Y70.326 E5.40883
G1 X133.789 Y70.416 E5.41506
G1 X133.71 Y70.674 E5.43301
G1 X133.693 Y70.727 E5.43671
G1 X132.836 Y73.362 E5.62103
G1 X132.054 Y76.017 E5.80514
G1 X131.366 Y78.627 E5.98469
G1 X130.73 Y81.34 E6.17005
G1 X130.187 Y84.01 E6.3513
G1 X129.716 Y86.703 E6.53316
G1 X129.323 Y89.395 E6.71413
G1 X129.007 Y92.096 E6.89502
G1 X128.762 Y94.874 E7.08054
G1 X128.599 Y97.584 E7.26113
G1 X128.513 Y100.288 E7.44109
G1 X128.498 Y102.042 E7.55777
G1 X128.498 Y157.277 E11.23202
G1 X128.488 Y157.974 E11.27839
G1 X128.45 Y158.417 E11.30797
G1 X128.411 Y158.669 E11.32493
G1 X128.392 Y158.78 E11.33242
G1 X128.355 Y158.974 E11.34556
G1 X128.222 Y159.461 E11.37914
G1 X128.017 Y159.915 E11.41228
G1 X127.772 Y160.361 E11.44613
G1 X127.494 Y160.783 E11.47974
G1 X127.066 Y161.236 E11.5212
G1 X126.761 Y161.501 E11.54807
G1 X126.354 Y161.801 E11.58171
G1 X125.887 Y162.041 E11.61664
G1 X125.361 Y162.259 E11.65451
G1 X124.88 Y162.415 E11.68815
G1 X124.249 Y162.501 E11.73051
G1 X123.71 Y162.52 E11.76639
G1 X123.642 Y162.522 E11.77091
G1 X123.29 Y162.527 E11.79433
G1 X123.272 Y162.527 E11.79553
G1 X122.326 Y162.535 E11.85846
G1 X122.299 Y162.535 E11.86025
G1 X70.806 Y162.534 E15.28558
G1 X70.76 Y162.534 E15.28864
G1 X70.067 Y162.524 E15.33475
G1 X69.619 Y162.486 E15.36465
G1 X69.331 Y162.441 E15.38404
G1 X69.227 Y162.423 E15.39106
G1 X69.064 Y162.392 E15.4021
G1 X68.576 Y162.258 E15.43577
G1 X68.121 Y162.052 E15.46899
G1 X67.677 Y161.808 E15.50269
G1 X67.254 Y161.531 E15.53633
G1 X66.803 Y161.104 E15.57764
G1 X66.523 Y160.782 E15.60602
G1 X66.223 Y160.375 E15.63966
G1 X65.973 Y159.886 E15.67619
G1 X65.768 Y159.381 E15.71245
G1 X65.615 Y158.899 E15.74609
G1 X65.537 Y158.338 E15.78376
G1 X65.526 Y158.12 E15.79828
G1 X65.523 Y158.021 E15.80487
G1 X65.507 Y157.192 E15.86003
G1 X65.506 Y157.157 E15.86236
G1 X65.5 Y156.441 E15.90999
G1 X65.5 Y156.414 E15.91178
G1 X65.501 Y100.333 E19.6423
G1 X65.502 Y56.425 E22.56308
G1 X65.502 Y56.378 E22.5662
G1 X65.512 Y55.698 E22.61144
G1 X65.599 Y55.005 E22.6579
G1 X65.643 Y54.82 E22.67055
G1 X65.798 Y54.339 E22.70417
G1 X66.028 Y53.888 E22.73784
G1 X66.387 Y53.408 E22.77772
G1 F1500 E17.77772
;MESH:Lid.stl
G0 F3600 X68.042 Y55.638
G0 X69.316 Y55.952
G0 X70.509 Y62.384
G0 X70.551 Y65.682
G0 X70.481 Y65.612
;TYPE:WALL-INNER
G1 F1500 E22.77772
G1 F1800 X70.481 Y62.412 E22.99058
G1 X69.302 Y62.412 E23.06901
G1 X69.302 Y55.938 E23.49966
G1 X124.681 Y55.937 E27.18349
G1 X124.7 Y56.889 E27.24683
G1 X124.7 Y59.287 E27.40634
G1 X129.708 Y61.898 E27.78203
G1 X130.002 Y62.094 E27.80554
G1 X130.313 Y62.399 E27.83452
G1 X130.562 Y62.832 E27.86774
G1 X130.686 Y63.331 E27.90194
G1 X130.7 Y64.633 E27.98856
G1 X130.701 Y65.439 E28.04217
G1 X130.686 Y66.064 E28.08376
G1 X130.662 Y66.606 E28.11985
G1 X130.581 Y67.375 E28.17129
G1 X130.457 Y68.126 E28.22192
G1 X130.289 Y68.868 E28.27253
G1 X130.074 Y69.602 E28.32341
G1 X129.815 Y70.325 E28.37449
G1 X124.698 Y83.198 E29.29598
G1 X124.699 Y139.261 E33.02531
G1 X124.698 Y157.886 E34.26425
G1 X124.642 Y158.208 E34.28599
G1 X124.506 Y158.443 E34.30405
G1 X124.296 Y158.62 E34.32232
G1 X124.034 Y158.715 E34.34086
G1 X122.745 Y158.735 E34.42661
G1 X70.15 Y158.734 E37.92524
G1 X69.828 Y158.678 E37.94699
G1 X69.595 Y158.543 E37.9649
G1 X69.416 Y158.329 E37.98346
G1 X69.321 Y158.07 E38.00181
G1 X69.3 Y156.788 E38.0871
G1 X69.301 Y100.332 E41.84257
G1 X69.302 Y65.612 E44.15215
G1 X70.481 Y65.612 E44.23058
G0 F3600 X70.551 Y65.682
G0 X124.637 Y68.519
G0 X124.707 Y68.449
G1 F1800 X127.907 Y68.449 E44.44344
G1 X127.907 Y64.249 E44.72283
G1 X124.707 Y64.249 E44.93569
G1 X124.707 Y68.449 E45.21508
G0 F3600 X124.637 Y68.519
G0 X115.068 Y150.109
G0 X115.026 Y154.407
G0 X115.096 Y154.337
G1 F1800 X119.296 Y154.337 E45.49446
G1 X119.296 Y150.137 E45.77385
G1 X115.096 Y150.137 E46.05323
G1 X115.096 Y154.337 E46.33262
G0 F3600 X115.026 Y154.407
G0 X71.956 Y154.483
G0 X72.026 Y154.413
G1 F1800 X76.226 Y154.413 E46.612
G1 X76.226 Y150.213 E46.89139
G1 X72.026 Y150.213 E47.17077
G1 X72.026 Y154.413 E47.45016
G0 F3600 X72.426 Y154.013
;TYPE:WALL-OUTER
G1 F1800 X75.826 Y154.013 E47.67633
G1 X75.826 Y150.613 E47.9025
G1 X72.426 Y150.613 E48.12867
G1 X72.426 Y154.013 E48.35483
G0 F3600 X72.626 Y154.013
G0 X72.626 Y154.513
G0 X114.996 Y153.937
G0 X115.496 Y153.937
G1 F1800 X118.896 Y153.937 E48.581
G1 X118.896 Y150.537 E48.80717
G1 X115.496 Y150.537 E49.03334
G1 X115.496 Y153.937 E49.25951
G0 F3600 X115.696 Y153.937
G0 X115.696 Y154.437
G0 X115.068 Y150.109
G0 X124.607 Y68.049
G0 X125.107 Y68.049
G1 F1800 X127.507 Y68.049 E49.41916
G1 X127.507 Y64.649 E49.64533
G1 X125.107 Y64.649 E49.80498
G1 X125.107 Y68.049 E50.03115
G0 F3600 X125.307 Y68.049
G0 X125.307 Y68.549
G0 X70.581 Y65.212
G0 X70.081 Y65.212
G1 F1800 X70.081 Y62.812 E50.19079
G1 X68.902 Y62.812 E50.26922
G1 X68.902 Y55.76 E50.73832
G1 X68.931 Y55.644 E50.74628
G1 X68.995 Y55.576 E50.75249
G1 X69.127 Y55.538 E50.76163
G1 X123.75 Y55.535 E54.39516
G1 X124.873 Y55.538 E54.46986
G1 X124.998 Y55.573 E54.4785
G1 X125.076 Y55.672 E54.48688
G1 X125.1 Y56.889 E54.56785
G1 X125.1 Y59.044 E54.71121
G1 X129.906 Y61.55 E55.07175
G1 X130.258 Y61.784 E55.09987
G1 X130.632 Y62.152 E55.13477
G1 X130.936 Y62.681 E55.17536
G1 X131.086 Y63.28 E55.21643
G1 X131.1 Y64.633 E55.30644
G1 X131.101 Y65.448 E55.36066
G1 X131.086 Y66.081 E55.40277
G1 X131.062 Y66.633 E55.43953
G1 X130.978 Y67.43 E55.49284
G1 X130.851 Y68.198 E55.54462
G1 X130.676 Y68.968 E55.59715
G1 X130.451 Y69.737 E55.65045
G1 X130.187 Y70.473 E55.70246
G1 X125.098 Y83.275 E56.61887
G1 X125.099 Y139.261 E60.34307
G1 X125.098 Y157.919 E61.58421
G1 X125.024 Y158.346 E61.61304
G1 X124.817 Y158.704 E61.64054
G1 X124.498 Y158.972 E61.66826
G1 X124.108 Y159.114 E61.69587
G1 X122.751 Y159.135 E61.78615
G1 X70.117 Y159.134 E65.28737
G1 X69.69 Y159.06 E65.3162
G1 X69.332 Y158.853 E65.34371
G1 X69.064 Y158.533 E65.37148
G1 X68.922 Y158.144 E65.39902
G1 X68.9 Y156.788 E65.48924
G1 X68.901 Y100.332 E69.2447
G1 X68.902 Y65.212 E71.5809
G1 X70.081 Y65.212 E71.65932
G0 F3600 X70.081 Y65.012
G0 X70.581 Y65.012
G0 X69.692 Y66.002
;TYPE:SKIN
G1 F1800 X70.871 Y66.002 E71.73775
G1 X70.871 Y62.022 E72.0025
G1 X69.692 Y62.022 E72.08093
G1 X69.692 Y56.328 E72.4597
G1 X124.299 Y56.327 E76.09217
G1 X124.31 Y56.889 E76.12956
G1 X124.31 Y59.523 E76.30477
G1 X129.508 Y62.232 E76.69469
G1 X129.752 Y62.394 E76.71417
G1 X130.002 Y62.64 E76.7375
G1 X130.198 Y62.981 E76.76366
G1 X130.296 Y63.379 E76.79093
G1 X130.31 Y64.633 E76.87435
G1 X130.311 Y65.429 E76.9273
G1 X130.296 Y66.047 E76.96842
G1 X130.274 Y66.565 E77.00291
G1 X130.193 Y67.334 E77.05435
G1 X130.077 Y68.04 E77.10194
G1 X129.913 Y68.767 E77.15152
G1 X129.703 Y69.482 E77.20109
G1 X129.452 Y70.181 E77.25049
G1 X124.308 Y83.124 E78.17697
G1 X124.309 Y139.261 E81.91122
G1 X124.308 Y157.853 E83.14796
G1 X124.27 Y158.074 E83.16288
G1 X124.204 Y158.188 E83.17164
G1 X124.098 Y158.277 E83.18085
G1 X123.963 Y158.326 E83.1904
G1 X122.739 Y158.345 E83.27183
G1 X70.183 Y158.344 E86.76787
G1 X69.962 Y158.306 E86.78279
G1 X69.851 Y158.241 E86.79135
G1 X69.759 Y158.131 E86.80088
G1 X69.709 Y157.997 E86.8104
G1 X69.69 Y156.788 E86.89083
G1 X69.691 Y100.332 E90.6463
G1 X69.692 Y66.002 E92.92994
G0 F3600 X124.317 Y63.859
G1 F1800 X124.317 Y68.839 E93.26121
G1 X128.297 Y68.839 E93.52596
G1 X128.297 Y63.859 E93.85723
G1 X124.317 Y63.859 E94.12198
G0 F3600 X114.706 Y149.747
G1 F1800 X114.706 Y154.727 E94.45326
G1 X119.686 Y154.727 E94.78453
G1 X119.686 Y149.747 E95.1158
G1 X114.706 Y149.747 E95.44707
G0 F3600 X71.636 Y149.823
G1 F1800 X71.636 Y154.803 E95.77834
G1 X76.616 Y154.803 E96.10961
G1 X76.616 Y149.823 E96.44088
G1 X71.636 Y149.823 E96.77215
G0 F3600 X70.482 Y158.163
G1 F1800 X69.881 Y157.562 E96.82869
G0 F3600 X69.872 Y156.988
G1 F1800 X71.047 Y158.163 E96.93923
G0 F3600 X71.613 Y158.163
G1 F1800 X69.869 Y156.419 E97.10329
G0 F3600 X69.869 Y155.854
G1 F1800 X72.179 Y158.163 E97.32056
G0 F3600 X72.745 Y158.163
G1 F1800 X69.869 Y155.288 E97.59106
G0 F3600 X69.869 Y154.722
G1 F1800 X73.31 Y158.163 E97.91477
G0 F3600 X73.876 Y158.163
G1 F1800 X69.869 Y154.157 E98.29168
G0 F3600 X69.869 Y153.591
G1 F1800 X74.442 Y158.163 E98.72183
G0 F3600 X75.007 Y158.163
G1 F1800 X71.826 Y154.982 E99.02108
G0 F3600 X71.455 Y154.611
G1 F1800 X69.869 Y153.025 E99.17028
G0 F3600 X69.869 Y152.46
G1 F1800 X71.455 Y154.046 E99.31948
G0 F3600 X71.455 Y153.48
G1 F1800 X69.869 Y151.894 E99.46869
G0 F3600 X69.869 Y151.328
G1 F1800 X71.455 Y152.914 E99.61789
G0 F3600 X71.455 Y152.348
G1 F1800 X69.869 Y150.762 E99.76709
G0 F3600 X69.869 Y150.197
G1 F1800 X71.455 Y151.783 E99.91629
G0 F3600 X71.455 Y151.217
G1 F1800 X69.869 Y149.631 E100.06549
G0 F3600 X69.869 Y149.065
G1 F1800 X71.455 Y150.651 E100.21469
G0 F3600 X71.455 Y150.086
G1 F1800 X69.869 Y148.5 E100.36389
G0 F3600 X69.869 Y147.934
G1 F1800 X71.577 Y149.642 E100.52457
G0 F3600 X72.143 Y149.642
G1 F1800 X69.869 Y147.368 E100.73849
G0 F3600 X69.869 Y146.803
G1 F1800 X72.708 Y149.642 E101.00557
G0 F3600 X73.274 Y149.642
G1 F1800 X69.869 Y146.237 E101.32589
G0 F3600 X69.869 Y145.671
G1 F1800 X73.84 Y149.642 E101.69946
G0 F3600 X74.406 Y149.642
G1 F1800 X69.869 Y145.106 E102.12622
G0 F3600 X69.869 Y144.54
G1 F1800 X74.971 Y149.642 E102.60619
G0 F3600 X75.537 Y149.642
G1 F1800 X69.869 Y143.974 E103.1394
G0 F3600 X69.869 Y143.409
G1 F1800 X76.103 Y149.642 E103.72581
G0 F3600 X76.668 Y149.642
G1 F1800 X69.869 Y142.843 E104.36542
G0 F3600 X69.869 Y142.277
G1 F1800 X85.755 Y158.163 E105.85988
G0 F3600 X85.19 Y158.163
G1 F1800 X76.796 Y149.769 E106.64953
G0 F3600 X76.796 Y150.335
G1 F1800 X84.624 Y158.163 E107.38594
G0 F3600 X84.058 Y158.163
G1 F1800 X76.796 Y150.9 E108.06915
G0 F3600 X76.796 Y151.466
G1 F1800 X83.493 Y158.163 E108.69917
G0 F3600 X82.927 Y158.163
G1 F1800 X76.796 Y152.032 E109.27593
G0 F3600 X76.796 Y152.597
G1 F1800 X82.361 Y158.163 E109.7995
G0 F3600 X81.795 Y158.163
G1 F1800 X76.796 Y153.163 E110.26982
G0 F3600 X76.796 Y153.729
G1 F1800 X81.23 Y158.163 E110.68695
G0 F3600 X80.664 Y158.163
G1 F1800 X76.796 Y154.294 E111.05087
G0 F3600 X76.796 Y154.86
G1 F1800 X80.098 Y158.163 E111.36155
G0 F3600 X79.533 Y158.163
G1 F1800 X76.351 Y154.982 E111.66085
G0 F3600 X75.786 Y154.982
G1 F1800 X78.967 Y158.163 E111.9601
G0 F3600 X78.401 Y158.163
G1 F1800 X75.22 Y154.982 E112.25934
G0 F3600 X74.654 Y154.982
G1 F1800 X77.836 Y158.163 E112.55864
G0 F3600 X77.27 Y158.163
G1 F1800 X74.089 Y154.982 E112.85789
G0 F3600 X73.523 Y154.982
G1 F1800 X76.704 Y158.163 E113.15714
G0 F3600 X76.139 Y158.163
G1 F1800 X72.957 Y154.982 E113.45643
G0 F3600 X72.392 Y154.982
G1 F1800 X75.573 Y158.163 E113.75568
G1 X75.643 Y158.233
G0 F3600 X86.321 Y158.163
G1 F1800 X69.869 Y141.711 E115.30339
G0 F3600 X69.869 Y141.146
G1 F1800 X86.887 Y158.163 E116.90429
G0 F3600 X87.452 Y158.163
G1 F1800 X69.869 Y140.58 E118.55839
G0 F3600 X69.869 Y140.014
G1 F1800 X88.018 Y158.163 E120.26574
G0 F3600 X88.584 Y158.163
G1 F1800 X69.869 Y139.449 E122.02628
G0 F3600 X69.869 Y138.883
G1 F1800 X89.149 Y158.163 E123.84003
G0 F3600 X89.715 Y158.163
G1 F1800 X69.869 Y138.317 E125.70702
G0 F3600 X69.869 Y137.752
G1 F1800 X90.281 Y158.163 E127.6272
G0 F3600 X90.846 Y158.163
G1 F1800 X69.869 Y137.186 E129.60059
G0 F3600 X69.869 Y136.62
G1 F1800 X91.412 Y158.163 E131.62723
G0 F3600 X91.978 Y158.163
G1 F1800 X69.869 Y136.055 E133.70706
G0 F3600 X69.869 Y135.489
G1 F1800 X92.544 Y158.163 E135.84014
G0 F3600 X93.109 Y158.163
G1 F1800 X69.869 Y134.923 E138.02641
G0 F3600 X69.869 Y134.358
G1 F1800 X93.675 Y158.163 E140.26589
G0 F3600 X94.241 Y158.163
G1 F1800 X69.869 Y133.792 E142.55861
G0 F3600 X69.869 Y133.226
G1 F1800 X94.806 Y158.163 E144.90453
G0 F3600 X95.372 Y158.163
G1 F1800 X69.869 Y132.661 E147.30365
G0 F3600 X69.869 Y132.095
G1 F1800 X95.938 Y158.163 E149.75601
G0 F3600 X96.504 Y158.164
G1 F1800 X69.869 Y131.529 E152.26167
G0 F3600 X69.869 Y130.963
G1 F1800 X97.07 Y158.164 E154.82057
G0 F3600 X97.635 Y158.164
G1 F1800 X69.869 Y130.398 E157.43263
G0 F3600 X69.869 Y129.832
G1 F1800 X98.201 Y158.164 E160.09793
G0 F3600 X98.767 Y158.164
G1 F1800 X69.869 Y129.266 E162.81648
G0 F3600 X69.869 Y128.701
G1 F1800 X99.332 Y158.164 E165.58817
G0 F3600 X99.898 Y158.164
G1 F1800 X69.869 Y128.135 E168.41312
G0 F3600 X69.869 Y127.569
G1 F1800 X100.464 Y158.164 E171.29131
G0 F3600 X101.03 Y158.164
G1 F1800 X69.869 Y127.004 E174.2227
G0 F3600 X69.869 Y126.438
G1 F1800 X101.595 Y158.164 E177.20728
G0 F3600 X102.161 Y158.164
G1 F1800 X69.869 Y125.872 E180.24512
G0 F3600 X69.869 Y125.307
G1 F1800 X102.727 Y158.164 E183.33615
G0 F3600 X103.292 Y158.164
G1 F1800 X69.869 Y124.741 E186.48038
G0 F3600 X69.869 Y124.175
G1 F1800 X103.858 Y158.164 E189.67786
G0 F3600 X104.424 Y158.164
G1 F1800 X69.869 Y123.61 E192.92853
G0 F3600 X69.869 Y123.044
G1 F1800 X104.989 Y158.164 E196.23241
G0 F3600 X105.555 Y158.164
G1 F1800 X69.869 Y122.478 E199.58953
G0 F3600 X69.869 Y121.912
G1 F1800 X106.121 Y158.164 E202.99989
G0 F3600 X106.686 Y158.164
G1 F1800 X69.869 Y121.347 E206.46341
G0 F3600 X69.869 Y120.781
G1 F1800 X107.252 Y158.164 E209.98017
G0 F3600 X107.818 Y158.164
G1 F1800 X69.869 Y120.215 E213.55018
G0 F3600 X69.869 Y119.65
G1 F1800 X108.383 Y158.164 E217.17334
G0 F3600 X108.949 Y158.164
G1 F1800 X69.869 Y119.084 E220.84975
G0 F3600 X69.869 Y118.518
G1 F1800 X109.515 Y158.164 E224.5794
G0 F3600 X110.08 Y158.164
G1 F1800 X69.869 Y117.953 E228.36221
G0 F3600 X69.869 Y117.387
G1 F1800 X110.646 Y158.164 E232.19826
G0 F3600 X111.212 Y158.164
G1 F1800 X69.869 Y116.821 E236.08755
G0 F3600 X69.869 Y116.256
G1 F1800 X111.778 Y158.164 E240.03005
G0 F3600 X112.343 Y158.164
G1 F1800 X69.869 Y115.69 E244.02574
G0 F3600 X69.869 Y115.124
G1 F1800 X112.909 Y158.164 E248.07468
G0 F3600 X113.475 Y158.164
G1 F1800 X69.869 Y114.559 E252.17682
G0 F3600 X69.869 Y113.993
G1 F1800 X114.04 Y158.164 E256.33216
G0 F3600 X114.606 Y158.164
G1 F1800 X69.869 Y113.427 E260.54074
G0 F3600 X69.869 Y112.862
G1 F1800 X115.172 Y158.164 E264.80252
G0 F3600 X115.737 Y158.164
