;FLAVOR:Marlin
;TIME:432
;Filament used: 0.46743m
;Layer height: 0.2
;MINX:70.24
;MINY:89.941
;MINZ:0.4
;MAXX:129.775
;MAXY:110.075
;MAXZ:5.4
;Generated with Cura_SteamEngine 4.2.1
M140 S60
M105
M190 S60
M104 S200
M105
M109 S200
M82 ;absolute extrusion mode
G28 ;Home
G1 Z15.0 F6000 ;Move the platform down 15mm
;Prime the extruder
G92 E0
G1 F200 E3
G92 E0
;
M117 Printing...        ☺
M141 S28
G92 E0
G92 E0
G1 F1500 E-3
;LAYER_COUNT:26
;LAYER:0
M107
G0 F3600 X74.149 Y92.025 Z0.4
;TYPE:SKIRT
G1 F1500 E0
G1 F1800 X74.4 Y91.838 E0.02082
G1 X74.778 Y91.582 E0.05119
G1 X74.866 Y91.525 E0.05816
G1 X75.102 Y91.375 E0.07677
G1 X75.369 Y91.221 E0.09727
G1 X75.818 Y90.987 E0.13095
G1 X75.92 Y90.935 E0.13857
G1 X76.136 Y90.831 E0.15451
G1 X76.42 Y90.71 E0.17505
G1 X76.865 Y90.541 E0.20671
G1 X76.97 Y90.503 E0.21414
G1 X77.234 Y90.412 E0.23271
G1 X77.521 Y90.326 E0.25264
G1 X77.978 Y90.21 E0.28401
G1 X78.08 Y90.185 E0.29099
G1 X78.367 Y90.121 E0.31055
G1 X78.69 Y90.065 E0.33236
G1 X79.093 Y90.013 E0.35939
G1 X79.183 Y90.002 E0.36542
G1 X79.521 Y89.967 E0.38803
G1 X79.83 Y89.949 E0.40862
G1 X80.234 Y89.942 E0.43549
G1 X80.342 Y89.941 E0.44268
G1 X80.658 Y89.945 E0.4637
G1 X80.974 Y89.963 E0.48476
G1 X81.459 Y90.012 E0.51718
G1 X81.562 Y90.024 E0.52408
G1 X81.823 Y90.058 E0.54159
G1 X82.124 Y90.11 E0.56191
G1 X82.574 Y90.208 E0.59254
G1 X82.695 Y90.237 E0.60082
G1 X82.994 Y90.313 E0.62134
G1 X83.169 Y90.362 E0.63343
G1 X83.551 Y90.48 E0.66003
G1 X86.216 Y91.27 E0.84493
G1 X88.865 Y91.976 E1.02729
G1 X91.541 Y92.61 E1.21023
G1 X94.155 Y93.147 E1.38774
G1 X96.868 Y93.627 E1.57101
G1 X99.538 Y94.022 E1.75056
G1 X102.282 Y94.349 E1.93438
G1 X104.973 Y94.594 E2.11413
G1 X107.698 Y94.764 E2.29575
G1 X110.427 Y94.856 E2.47738
G1 X112.363 Y94.875 E2.60617
G1 X125.525 Y94.875 E3.48171
G1 X126.223 Y94.886 E3.52815
G1 X126.757 Y94.935 E3.56382
G1 X127.278 Y95.062 E3.59949
G1 X127.774 Y95.265 E3.63514
G1 X128.235 Y95.54 E3.67085
G1 X128.649 Y95.88 E3.70649
G1 X129.009 Y96.278 E3.74219
G1 X129.306 Y96.724 E3.77783
G1 X129.532 Y97.21 E3.81348
G1 X129.685 Y97.725 E3.84922
G1 X129.765 Y98.384 E3.89338
G1 X129.774 Y98.703 E3.91461
G1 X129.775 Y98.805 E3.92139
G1 X129.775 Y102.569 E4.17178
G1 X129.765 Y103.274 E4.21868
G1 X129.755 Y103.494 E4.23333
G1 X129.717 Y103.997 E4.26688
G1 X129.628 Y104.566 E4.30519
G1 X129.51 Y105.058 E4.33885
G1 X129.336 Y105.593 E4.37627
G1 X129.141 Y106.065 E4.41024
G1 X128.886 Y106.567 E4.4477
G1 X128.627 Y106.991 E4.48075
G1 X128.309 Y107.433 E4.51697
G1 X127.973 Y107.832 E4.55167
G1 X127.56 Y108.248 E4.59066
G1 X127.192 Y108.563 E4.62288
G1 X126.755 Y108.883 E4.65891
G1 X126.304 Y109.164 E4.69426
G1 X125.793 Y109.429 E4.73255
G1 X125.352 Y109.614 E4.76436
G1 X124.967 Y109.75 E4.79153
G1 X124.775 Y109.806 E4.80483
G1 X124.558 Y109.862 E4.81974
G1 X124.225 Y109.937 E4.84244
G1 X123.709 Y110.014 E4.87715
G1 X123.174 Y110.055 E4.91284
G1 X122.962 Y110.065 E4.92696
G1 X122.449 Y110.074 E4.96109
G1 X122.386 Y110.075 E4.96528
G1 X81.341 Y110.074 E7.6956
G1 X81.29 Y110.074 E7.699
G1 X80.583 Y110.064 E7.74603
G1 X80.451 Y110.059 E7.75482
G1 X80.176 Y110.045 E7.77314
G1 X80.029 Y110.035 E7.78294
G1 X79.333 Y109.971 E7.82943
G1 X79.161 Y109.951 E7.84095
G1 X78.6 Y109.872 E7.87863
G1 X78.293 Y109.815 E7.89941
G1 X77.916 Y109.728 E7.92514
G1 X77.809 Y109.702 E7.93247
G1 X77.501 Y109.621 E7.95365
G1 X77.212 Y109.531 E7.97379
G1 X76.722 Y109.357 E8.00838
G1 X76.603 Y109.313 E8.01682
G1 X76.34 Y109.209 E8.03563
G1 X76.075 Y109.091 E8.05493
G1 X75.766 Y108.939 E8.07783
G1 X75.665 Y108.887 E8.08539
G1 X75.351 Y108.72 E8.10905
G1 X75.086 Y108.565 E8.12947
G1 X74.667 Y108.294 E8.16266
G1 X74.571 Y108.23 E8.17034
G1 X74.343 Y108.072 E8.18879
G1 X74.095 Y107.884 E8.20949
G1 X73.784 Y107.626 E8.23637
G1 X73.712 Y107.564 E8.24269
G1 X73.464 Y107.347 E8.26461
G1 X73.231 Y107.124 E8.28607
G1 X72.935 Y106.814 E8.31458
G1 X72.873 Y106.747 E8.32065
G1 X72.658 Y106.51 E8.34194
G1 X72.45 Y106.259 E8.36362
G1 X72.18 Y105.901 E8.39345
G1 X72.117 Y105.815 E8.40054
G1 X71.937 Y105.561 E8.42125
G1 X71.772 Y105.306 E8.44145
G1 X71.567 Y104.958 E8.46832
G1 X71.518 Y104.871 E8.47496
G1 X71.37 Y104.603 E8.49533
G1 X71.225 Y104.31 E8.51707
G1 X71.023 Y103.85 E8.55049
G1 X70.988 Y103.769 E8.55636
G1 X70.883 Y103.513 E8.57477
G1 X70.774 Y103.208 E8.59631
G1 X70.65 Y102.806 E8.6243
G1 X70.619 Y102.7 E8.63165
G1 X70.537 Y102.402 E8.65221
G1 X70.469 Y102.106 E8.67241
G1 X70.39 Y101.682 E8.7011
G1 X70.371 Y101.572 E8.70852
G1 X70.319 Y101.235 E8.73121
G1 X70.285 Y100.927 E8.75182
G1 X70.258 Y100.524 E8.77869
G1 X70.253 Y100.426 E8.78521
G1 X70.24 Y100.099 E8.80698
G1 X70.241 Y99.787 E8.82774
G1 X70.262 Y99.34 E8.85751
G1 X70.269 Y99.229 E8.8649
G1 X70.291 Y98.947 E8.88372
G1 X70.327 Y98.645 E8.90395
G1 X70.406 Y98.163 E8.93644
G1 X70.425 Y98.058 E8.94354
G1 X70.473 Y97.811 E8.96028
G1 X70.549 Y97.498 E8.9817
G1 X70.693 Y97 E9.01619
G1 X70.722 Y96.903 E9.02292
G1 X70.794 Y96.678 E9.03864
G1 X70.902 Y96.385 E9.05941
G1 X71.082 Y95.955 E9.09042
G1 X71.123 Y95.862 E9.09718
G1 X71.241 Y95.601 E9.11623
G1 X71.383 Y95.32 E9.13718
G1 X71.596 Y94.941 E9.1661
G1 X71.651 Y94.846 E9.1734
G1 X71.818 Y94.569 E9.19491
G1 X71.99 Y94.311 E9.21554
G1 X72.246 Y93.959 E9.24449
G1 X72.309 Y93.874 E9.25153
G1 X72.486 Y93.645 E9.27078
G1 X72.686 Y93.408 E9.29141
G1 X73 Y93.067 E9.32225
G1 X73.072 Y92.991 E9.32921
G1 X73.278 Y92.78 E9.34883
G1 X73.503 Y92.568 E9.36939
G1 X73.844 Y92.274 E9.39934
G1 X73.925 Y92.207 E9.40633
G1 X74.149 Y92.025 E9.42553
G0 F3600 X74.401 Y92.335
G1 F1800 X74.625 Y92.169 E9.44408
G1 X75.003 Y91.913 E9.47445
G1 X75.08 Y91.862 E9.48059
G1 X75.316 Y91.712 E9.49919
G1 X75.554 Y91.575 E9.51746
G1 X76.003 Y91.341 E9.55114
G1 X76.094 Y91.296 E9.55789
G1 X76.31 Y91.192 E9.57384
G1 X76.562 Y91.083 E9.59211
G1 X77.007 Y90.914 E9.62377
G1 X77.1 Y90.881 E9.63033
G1 X77.364 Y90.79 E9.64891
G1 X77.62 Y90.713 E9.66669
G1 X78.077 Y90.597 E9.69806
G1 X78.168 Y90.576 E9.70427
G1 X78.455 Y90.512 E9.72383
G1 X78.741 Y90.461 E9.74315
G1 X79.144 Y90.409 E9.77018
G1 X79.224 Y90.4 E9.77554
G1 X79.562 Y90.365 E9.79814
G1 X79.837 Y90.348 E9.81647
G1 X80.241 Y90.341 E9.84335
G1 X80.337 Y90.341 E9.84973
G1 X80.653 Y90.345 E9.87076
G1 X80.934 Y90.361 E9.88948
G1 X81.419 Y90.41 E9.92191
G1 X81.51 Y90.421 E9.928
G1 X81.771 Y90.455 E9.94551
G1 X82.039 Y90.501 E9.9636
G1 X82.489 Y90.599 E9.99424
G1 X82.596 Y90.625 E10.00156
G1 X82.895 Y90.701 E10.02208
G1 X83.051 Y90.744 E10.03285
G1 X83.472 Y90.874 E10.06216
G1 X86.114 Y91.657 E10.24546
G1 X88.742 Y92.357 E10.42637
G1 X91.434 Y92.995 E10.6104
G1 X94.113 Y93.545 E10.79233
G1 X96.777 Y94.017 E10.9723
G1 X99.539 Y94.426 E11.15803
G1 X102.2 Y94.743 E11.33629
G1 X104.948 Y94.993 E11.51984
G1 X107.694 Y95.164 E11.70286
G1 X110.411 Y95.256 E11.8837
G1 X112.359 Y95.275 E12.01329
G1 X125.518 Y95.275 E12.88863
G1 X126.216 Y95.286 E12.93507
G1 X126.72 Y95.334 E12.96874
G1 X127.209 Y95.461 E13.00235
G1 X127.673 Y95.663 E13.03602
G1 X128.098 Y95.935 E13.06958
G1 X128.476 Y96.272 E13.10327
G1 X128.796 Y96.663 E13.13688
G1 X129.05 Y97.1 E13.1705
G1 X129.233 Y97.572 E13.20417
G1 X129.338 Y98.066 E13.23777
G1 X129.365 Y98.396 E13.25979
G1 X129.374 Y98.715 E13.28102
G1 X129.375 Y98.805 E13.28701
G1 X129.375 Y102.563 E13.53699
G1 X129.365 Y103.268 E13.5839
G1 X129.356 Y103.464 E13.59695
G1 X129.318 Y103.967 E13.6305
G1 X129.239 Y104.472 E13.6645
G1 X129.121 Y104.964 E13.69816
G1 X128.967 Y105.44 E13.73144
G1 X128.772 Y105.912 E13.76541
G1 X128.545 Y106.358 E13.7987
G1 X128.286 Y106.782 E13.83175
G1 X128.003 Y107.175 E13.86397
G1 X127.667 Y107.574 E13.89866
G1 X127.3 Y107.944 E13.93333
G1 X126.932 Y108.259 E13.96555
G1 X126.543 Y108.544 E13.99763
G1 X126.092 Y108.825 E14.03298
G1 X125.638 Y109.06 E14.06699
G1 X125.197 Y109.245 E14.0988
G1 X124.855 Y109.366 E14.12293
G1 X124.663 Y109.422 E14.13623
G1 X124.47 Y109.472 E14.1495
G1 X124.137 Y109.547 E14.1722
G1 X123.679 Y109.616 E14.20301
G1 X123.144 Y109.657 E14.2387
G1 X122.955 Y109.666 E14.25129
G1 X122.442 Y109.675 E14.28542
G1 X122.386 Y109.675 E14.28915
G1 X81.341 Y109.674 E17.01947
G1 X81.296 Y109.674 E17.02246
G1 X80.589 Y109.664 E17.0695
G1 X80.471 Y109.66 E17.07735
G1 X80.196 Y109.646 E17.09567
G1 X80.066 Y109.637 E17.10434
G1 X79.37 Y109.573 E17.15083
G1 X79.217 Y109.555 E17.16108
G1 X78.656 Y109.476 E17.19877
G1 X78.382 Y109.425 E17.2173
G1 X78.005 Y109.338 E17.24304
G1 X77.911 Y109.315 E17.24948
G1 X77.603 Y109.234 E17.27066
G1 X77.346 Y109.155 E17.28855
G1 X76.856 Y108.981 E17.32314
G1 X76.75 Y108.941 E17.33067
G1 X76.487 Y108.837 E17.34949
G1 X76.252 Y108.732 E17.36661
G1 X75.943 Y108.58 E17.38952
G1 X75.852 Y108.534 E17.3963
G1 X75.538 Y108.367 E17.41996
G1 X75.303 Y108.229 E17.43809
G1 X74.884 Y107.958 E17.47128
G1 X74.799 Y107.901 E17.47809
G1 X74.571 Y107.743 E17.49654
G1 X74.351 Y107.576 E17.51491
G1 X74.04 Y107.318 E17.54179
G1 X73.976 Y107.263 E17.54741
G1 X73.728 Y107.046 E17.56933
G1 X73.521 Y106.848 E17.58838
G1 X73.225 Y106.538 E17.61689
G1 X73.169 Y106.478 E17.62235
G1 X72.954 Y106.241 E17.64364
G1 X72.769 Y106.018 E17.66291
G1 X72.499 Y105.66 E17.69274
G1 X72.443 Y105.583 E17.69907
G1 X72.263 Y105.329 E17.71978
G1 X72.117 Y105.103 E17.73768
G1 X71.912 Y104.755 E17.76455
G1 X71.868 Y104.678 E17.77045
G1 X71.72 Y104.41 E17.79081
G1 X71.591 Y104.15 E17.81012
G1 X71.389 Y103.69 E17.84354
G1 X71.358 Y103.617 E17.84881
G1 X71.253 Y103.361 E17.86722
G1 X71.156 Y103.09 E17.88637
G1 X71.032 Y102.688 E17.91435
G1 X71.005 Y102.594 E17.92086
G1 X70.923 Y102.296 E17.94142
G1 X70.862 Y102.033 E17.95938
G1 X70.783 Y101.609 E17.98807
G1 X70.766 Y101.511 E17.99468
G1 X70.714 Y101.174 E18.01737
G1 X70.684 Y100.9 E18.0357
G1 X70.657 Y100.497 E18.06257
G1 X70.653 Y100.41 E18.06836
G1 X70.64 Y100.083 E18.09013
G1 X70.641 Y99.806 E18.10856
G1 X70.662 Y99.359 E18.13833
G1 X70.668 Y99.26 E18.14492
G1 X70.69 Y98.978 E18.16374
G1 X70.722 Y98.709 E18.18176
G1 X70.801 Y98.227 E18.21425
G1 X70.818 Y98.135 E18.22047
G1 X70.866 Y97.888 E18.23721
G1 X70.933 Y97.609 E18.2563
G1 X71.077 Y97.111 E18.29078
G1 X71.103 Y97.025 E18.29676
G1 X71.175 Y96.8 E18.31247
G1 X71.271 Y96.539 E18.33097
G1 X71.451 Y96.109 E18.36198
G1 X71.487 Y96.027 E18.36794
G1 X71.605 Y95.766 E18.38699
G1 X71.731 Y95.516 E18.40561
G1 X71.944 Y95.137 E18.43453
G1 X71.994 Y95.053 E18.44104
G1 X72.161 Y94.776 E18.46255
G1 X72.313 Y94.546 E18.48089
G1 X72.569 Y94.194 E18.50984
G1 X72.625 Y94.119 E18.51607
G1 X72.802 Y93.89 E18.53532
G1 X72.98 Y93.679 E18.55369
G1 X73.294 Y93.338 E18.58452
G1 X73.358 Y93.271 E18.59069
G1 X73.564 Y93.06 E18.6103
G1 X73.764 Y92.871 E18.62861
G1 X74.105 Y92.577 E18.65856
G1 X74.177 Y92.517 E18.66479
G1 X74.401 Y92.335 E18.68399
G1 F1500 E15.68399
;MESH:Lever.stl
G0 F3600 X75.981 Y94.308
G0 X76.804 Y95.293
G0 X81.002 Y95.847
G0 X82.227 Y96.266
G0 X83.267 Y97.041
G0 X84.02 Y98.095
G0 X84.351 Y99.059
G0 X84.515 Y100.29
G0 X84.416 Y100.285
;TYPE:WALL-INNER
G1 F1500 E18.68399
G1 F1800 X84.379 Y99.344 E18.74663
G1 X84.228 Y98.707 E18.79018
G1 X83.985 Y98.112 E18.83293
G1 X83.652 Y97.561 E18.87576
G1 X83.239 Y97.068 E18.91854
G1 X82.755 Y96.644 E18.96134
G1 X82.209 Y96.301 E19.00424
G1 X81.619 Y96.046 E19.04699
G1 X80.996 Y95.886 E19.08978
G1 X80.356 Y95.824 E19.13255
G1 X79.713 Y95.861 E19.17539
G1 X79.085 Y95.998 E19.21815
G1 X78.484 Y96.229 E19.26098
G1 X77.926 Y96.551 E19.30384
G1 X77.426 Y96.955 E19.3466
G1 X76.993 Y97.431 E19.3894
G1 X76.64 Y97.969 E19.43221
G1 X76.374 Y98.555 E19.47501
G1 X76.2 Y99.175 E19.51785
G1 X76.127 Y99.814 E19.56063
G1 X76.151 Y100.456 E19.60337
G1 X76.275 Y101.088 E19.64621
G1 X76.495 Y101.693 E19.68903
G1 X76.806 Y102.256 E19.73182
G1 X77.2 Y102.766 E19.77469
G1 X77.668 Y103.206 E19.81742
G1 X78.199 Y103.57 E19.86024
G1 X78.779 Y103.848 E19.90303
G1 X79.396 Y104.033 E19.94588
G1 X80.033 Y104.12 E19.98864
G1 X80.677 Y104.107 E20.03149
G1 X81.31 Y103.996 E20.07424
G1 X81.919 Y103.787 E20.11707
G1 X82.489 Y103.487 E20.15992
G1 X83.005 Y103.103 E20.20271
G1 X83.455 Y102.644 E20.24546
G1 X83.829 Y102.12 E20.28829
G1 X84.118 Y101.546 E20.33104
G1 X84.314 Y100.933 E20.37385
G1 X84.416 Y100.285 E20.41748
G0 F3600 X84.515 Y100.29
G0 X86.035 Y99.132
G0 X86.095 Y99.053
G1 F1800 X87.323 Y99.075 E20.49918
G1 X88.075 Y99.075 E20.54921
G1 X99.475 Y99.075 E21.30754
G1 X125.575 Y99.075 E23.04372
G1 X125.575 Y103.206 E23.31851
G1 X125.54 Y103.641 E23.34754
G1 X125.447 Y104.033 E23.37434
G1 X125.282 Y104.432 E23.40306
G1 X125.069 Y104.78 E23.4302
G1 X124.797 Y105.097 E23.45799
G1 X124.48 Y105.369 E23.48578
G1 X124.132 Y105.582 E23.51292
G1 X123.736 Y105.746 E23.54143
G1 X123.341 Y105.84 E23.56844
G1 X122.903 Y105.875 E23.59767
G1 X99.475 Y105.875 E25.1561
G1 X88.075 Y105.875 E25.91443
G1 X87.975 Y105.875 E25.92109
G1 X80.656 Y105.874 E26.40795
G1 X79.903 Y105.815 E26.45819
G1 X79.201 Y105.725 E26.50527
G1 X78.543 Y105.563 E26.55035
G1 X77.913 Y105.326 E26.59512
G1 X77.305 Y105.015 E26.64055
G1 X76.746 Y104.639 E26.68537
G1 X76.228 Y104.198 E26.73062
G1 X75.764 Y103.698 E26.77599
G1 X75.367 Y103.153 E26.82085
G1 X75.03 Y102.563 E26.86604
G1 X74.768 Y101.944 E26.91076
G1 X74.576 Y101.284 E26.95648
G1 X74.464 Y100.626 E27.00088
G1 X74.427 Y99.941 E27.04651
G1 X74.468 Y99.271 E27.09117
G1 X74.591 Y98.595 E27.13687
G1 X74.786 Y97.954 E27.18144
G1 X75.056 Y97.334 E27.22642
G1 X75.402 Y96.741 E27.27209
G1 X75.802 Y96.206 E27.31653
G1 X76.276 Y95.709 E27.36222
G1 X76.793 Y95.277 E27.40703
G1 X77.358 Y94.906 E27.45199
G1 X77.968 Y94.601 E27.49736
G1 X78.603 Y94.371 E27.54229
G1 X79.261 Y94.217 E27.58724
G1 X79.939 Y94.137 E27.63265
G1 X80.615 Y94.136 E27.67762
G1 X81.287 Y94.214 E27.72262
G1 X81.948 Y94.37 E27.7678
G1 X82.588 Y94.602 E27.81309
G1 X83.19 Y94.903 E27.85786
G1 X83.758 Y95.276 E27.90306
G1 X84.278 Y95.711 E27.94816
G1 X84.744 Y96.203 E27.99323
G1 X85.151 Y96.746 E28.03838
G1 X85.491 Y97.331 E28.08338
G1 X85.763 Y97.955 E28.12867
G1 X86.095 Y99.053 E28.20497
G0 F3600 X86.035 Y99.132
G0 X88.005 Y105.745
G0 X88.075 Y105.675
G1 F1800 X99.475 Y105.675 E28.58414
G1 X99.475 Y99.275 E29.00987
G1 X88.075 Y99.275 E29.38903
G1 X88.075 Y105.575 E29.80811
G1 X88.075 Y105.675 E29.81359
G0 F3600 X88.475 Y105.275
;TYPE:WALL-OUTER
G1 F1800 X99.075 Y105.275 E30.5187
G1 X99.075 Y99.675 E30.89122
G1 X88.475 Y99.675 E31.59633
G1 X88.475 Y105.275 E31.96885
G0 F3600 X88.675 Y105.275
G0 X88.675 Y105.775
G0 X84.508 Y100.338
G0 X84.015 Y100.262
G1 F1800 X83.981 Y99.399 E32.0263
G1 X83.846 Y98.83 E32.0652
G1 X83.626 Y98.292 E32.10386
G1 X83.326 Y97.794 E32.14254
G1 X82.952 Y97.349 E32.1812
G1 X82.515 Y96.966 E32.21986
G1 X82.022 Y96.656 E32.2586
G1 X81.489 Y96.426 E32.29721
G1 X80.926 Y96.281 E32.33589
G1 X80.348 Y96.225 E32.37451
G1 X79.767 Y96.259 E32.41323
G1 X79.2 Y96.382 E32.45182
G1 X78.657 Y96.591 E32.49053
G1 X78.153 Y96.882 E32.52924
G1 X77.701 Y97.247 E32.56789
G1 X77.31 Y97.677 E32.60655
G1 X76.991 Y98.163 E32.64522
G1 X76.751 Y98.692 E32.68386
G1 X76.594 Y99.252 E32.72255
G1 X76.528 Y99.829 E32.76118
G1 X76.55 Y100.41 E32.79986
G1 X76.662 Y100.981 E32.83856
G1 X76.86 Y101.527 E32.8772
G1 X77.141 Y102.036 E32.91587
G1 X77.497 Y102.496 E32.95457
G1 X77.92 Y102.894 E32.9932
G1 X78.4 Y103.223 E33.03191
G1 X78.924 Y103.474 E33.07056
G1 X79.481 Y103.641 E33.10924
G1 X80.056 Y103.719 E33.14784
G1 X80.638 Y103.708 E33.18656
G1 X81.21 Y103.607 E33.2252
G1 X81.76 Y103.419 E33.26386
G1 X82.275 Y103.148 E33.30258
G1 X82.741 Y102.801 E33.34122
G1 X83.148 Y102.386 E33.37989
G1 X83.486 Y101.913 E33.41856
G1 X83.747 Y101.394 E33.45721
G1 X83.924 Y100.84 E33.49589
G1 X84.015 Y100.262 E33.53482
G0 F3600 X84.008 Y100.062
G0 X84.507 Y100.043
G0 X86.385 Y99.158
G0 X86.394 Y98.658
G1 F1800 X87.327 Y98.675 E33.59689
G1 X125.975 Y98.675 E36.16777
G1 X125.975 Y103.225 E36.47043
G1 X125.937 Y103.702 E36.50226
G1 X125.827 Y104.162 E36.53373
G1 X125.641 Y104.612 E36.56612
G1 X125.393 Y105.016 E36.59765
G1 X125.081 Y105.381 E36.62959
G1 X124.716 Y105.693 E36.66153
G1 X124.312 Y105.941 E36.69307
G1 X123.862 Y106.127 E36.72546
G1 X123.402 Y106.237 E36.75692
G1 X122.922 Y106.275 E36.78895
G1 X80.638 Y106.274 E39.60169
