;FLAVOR:Marlin
;TIME:1048
;Filament used: 1.2768m
;Layer height: 0.2
;MINX:43.183
;MINY:64.318
;MINZ:0.4
;MAXX:155.629
;MAXY:139.833
;MAXZ:2.8
;Generated with Cura_SteamEngine 4.2.1
M140 S60
M105
M190 S60
M104 S210
M105
M109 S210
M82 ;absolute extrusion mode
G28 ;Home
G1 Z15.0 F6000 ;Move the platform down 15mm
;Prime the extruder
G92 E0
G1 F200 E3
G92 E0
;
M117 Printing...        ☺
M141 S28
G92 E0
G92 E0
G1 F1500 E-5
;LAYER_COUNT:13
;LAYER:0
M107
G0 F3600 X46.949 Y66.251 Z0.4
;TYPE:SKIRT
G1 F1500 E0
G1 F1800 X47.83 Y65.635 E0.07151
G1 X48.098 Y65.474 E0.09231
G1 X48.795 Y65.102 E0.14486
G1 X49.526 Y64.802 E0.19742
G1 X50.283 Y64.578 E0.24994
G1 X50.765 Y64.478 E0.28268
G1 X51.004 Y64.436 E0.29882
G1 X51.788 Y64.339 E0.35137
G1 X52.355 Y64.318 E0.38912
G1 X107.668 Y64.328 E4.06855
G1 X140.842 Y64.328 E6.2753
G1 X146.24 Y64.319 E6.63437
G1 X147.029 Y64.358 E6.68692
G1 X147.81 Y64.476 E6.73946
G1 X148.484 Y64.645 E6.78569
G1 X148.685 Y64.705 E6.79964
G1 X149.429 Y64.969 E6.85215
G1 X150.143 Y65.307 E6.9047
G1 X150.819 Y65.715 E6.95723
G1 X151.45 Y66.189 E7.00972
G1 X151.829 Y66.527 E7.0435
G1 X151.992 Y66.682 E7.05847
G1 X152.536 Y67.254 E7.11098
G1 X153.019 Y67.879 E7.16352
G1 X153.437 Y68.549 E7.21605
G1 X153.763 Y69.207 E7.2649
G1 X153.914 Y69.552 E7.28995
G1 X154.193 Y70.29 E7.34243
G1 X154.397 Y71.053 E7.39497
G1 X154.522 Y71.833 E7.44752
G1 X154.567 Y72.57 E7.49664
G1 X154.585 Y73.862 E7.58259
G1 X154.586 Y73.971 E7.58984
G1 X154.586 Y90.026 E8.65782
G1 X154.529 Y90.97 E8.72073
G1 X154.469 Y91.462 E8.7537
G1 X154.333 Y92.24 E8.80624
G1 X154.156 Y92.893 E8.85124
G1 X153.985 Y93.428 E8.88861
G1 X153.707 Y94.167 E8.94113
G1 X153.355 Y94.874 E8.99366
G1 X153.127 Y95.254 E9.02314
G1 X152.769 Y95.814 E9.06736
G1 X152.31 Y96.457 E9.11991
G1 X151.789 Y97.051 E9.17247
G1 X151.465 Y97.365 E9.20248
G1 X150.989 Y97.801 E9.24542
G1 X150.196 Y98.437 E9.31304
G1 X149.024 Y99.258 E9.40823
G1 X150.195 Y100.078 E9.50332
G1 X150.951 Y100.68 E9.56761
G1 X151.378 Y101.066 E9.6059
G1 X151.936 Y101.624 E9.65839
G1 X152.469 Y102.283 E9.71477
G1 X152.8 Y102.741 E9.75236
G1 X153.229 Y103.404 E9.80489
G1 X153.59 Y104.106 E9.8574
G1 X153.757 Y104.506 E9.88623
G1 X153.997 Y105.129 E9.93065
G1 X154.243 Y105.879 E9.98315
G1 X154.458 Y106.969 E10.05705
G1 X154.527 Y107.523 E10.09419
G1 X154.587 Y108.488 E10.15851
G1 X154.585 Y122.536 E11.09298
G1 X154.84 Y122.995 E11.12791
G1 X155.152 Y123.72 E11.18042
G1 X155.389 Y124.473 E11.23293
G1 X155.548 Y125.247 E11.28549
G1 X155.629 Y126.032 E11.33799
G1 X155.629 Y126.822 E11.39054
G1 X155.55 Y127.608 E11.44309
G1 X155.392 Y128.381 E11.49557
G1 X155.156 Y129.135 E11.54812
G1 X154.755 Y130.04 E11.61397
G1 X152.08 Y135.171 E11.99888
G1 X151.68 Y135.852 E12.05142
G1 X151.435 Y136.203 E12.0799
G1 X151.256 Y136.445 E12.09992
G1 X150.755 Y137.056 E12.15248
G1 X150.195 Y137.612 E12.20497
G1 X149.339 Y138.279 E12.27716
G1 X149.122 Y138.425 E12.29456
G1 X148.445 Y138.832 E12.3471
G1 X147.731 Y139.168 E12.39959
G1 X147.053 Y139.411 E12.4475
G1 X146.805 Y139.487 E12.46476
G1 X146.04 Y139.68 E12.51724
G1 X145.258 Y139.794 E12.56981
G1 X144.534 Y139.829 E12.61803
G1 X142.261 Y139.833 E12.76923
G1 X141.878 Y139.824 E12.79471
G1 X141.182 Y139.791 E12.84106
G1 X140.858 Y139.769 E12.86266
G1 X140.152 Y139.706 E12.90981
G1 X139.693 Y139.651 E12.94057
G1 X138.99 Y139.546 E12.98785
G1 X138.517 Y139.461 E13.01982
G1 X137.822 Y139.313 E13.06708
G1 X137.387 Y139.207 E13.09687
G1 X136.704 Y139.02 E13.14397
G1 X136.335 Y138.909 E13.16961
G1 X135.557 Y138.654 E13.22407
G1 X135.117 Y138.495 E13.25519
G1 X132.933 Y137.631 E13.41142
G1 X132.911 Y137.622 E13.41301
G1 X127.967 Y135.649 E13.7671
G1 X123.979 Y134.064 E14.05257
G1 X123.384 Y133.833 E14.09503
G1 X122.681 Y133.834 E14.14179
G1 X122.669 Y133.834 E14.14259
G1 X68.894 Y133.827 E17.71972
G1 X58.412 Y133.826 E18.41698
G1 X56.24 Y133.831 E18.56146
G1 X52.353 Y133.831 E18.82003
G1 X51.564 Y133.791 E18.87258
G1 X50.796 Y133.674 E18.92426
G1 X50.526 Y133.619 E18.94259
G1 X49.761 Y133.422 E18.99514
G1 X49.02 Y133.15 E19.04764
G1 X48.311 Y132.803 E19.10015
G1 X47.64 Y132.387 E19.15267
G1 X47.254 Y132.102 E19.18459
G1 X46.98 Y131.886 E19.20779
G1 X46.386 Y131.366 E19.26031
G1 X45.846 Y130.789 E19.31288
G1 X45.369 Y130.16 E19.36539
G1 X44.994 Y129.555 E19.41274
G1 X44.847 Y129.291 E19.43284
G1 X44.498 Y128.582 E19.48541
G1 X44.223 Y127.842 E19.53792
G1 X43.996 Y126.938 E19.59992
G1 X43.939 Y126.635 E19.62043
G1 X43.811 Y125.498 E19.69654
G1 X43.608 Y120.308 E20.04205
G1 X43.606 Y120.267 E20.04478
G1 X43.435 Y115.223 E20.3805
G1 X43.434 Y115.17 E20.38402
G1 X43.361 Y112.47 E20.56369
G1 X43.36 Y112.437 E20.56589
G1 X43.286 Y109.197 E20.78147
G1 X43.285 Y109.159 E20.784
G1 X43.254 Y107.431 E20.89897
G1 X43.254 Y107.408 E20.9005
G1 X43.22 Y105.14 E21.05138
G1 X43.219 Y105.099 E21.05411
G1 X43.197 Y102.832 E21.20492
G1 X43.197 Y102.78 E21.20838
G1 X43.183 Y98.242 E21.51025
G1 X43.183 Y98.187 E21.51391
G1 X43.192 Y95.918 E21.66484
G1 X43.192 Y95.879 E21.66744
G1 X43.21 Y93.866 E21.80135
G1 X43.211 Y93.826 E21.80401
G1 X43.258 Y90.503 E22.02508
G1 X43.258 Y90.472 E22.02714
G1 X43.295 Y88.425 E22.16333
G1 X43.297 Y88.356 E22.16792
G1 X43.471 Y81.886 E22.59846
G1 X43.472 Y81.834 E22.60192
G1 X43.588 Y78.387 E22.83135
G1 X43.59 Y78.339 E22.83454
G1 X43.808 Y72.855 E23.19963
G1 X43.849 Y72.31 E23.23598
G1 X43.912 Y71.739 E23.2742
G1 X44.038 Y70.959 E23.32676
G1 X44.243 Y70.196 E23.37931
G1 X44.523 Y69.458 E23.43182
G1 X44.877 Y68.752 E23.48435
G1 X45.175 Y68.267 E23.52222
G1 X45.357 Y67.994 E23.54405
G1 X45.828 Y67.36 E23.59658
G1 X46.36 Y66.777 E23.64909
G1 X46.949 Y66.251 E23.70161
G0 F3600 X47.247 Y66.525
G1 F1800 X48.036 Y65.978 E23.76548
G1 X48.304 Y65.817 E23.78628
G1 X48.983 Y65.455 E23.83746
G1 X49.696 Y65.166 E23.88864
G1 X50.435 Y64.953 E23.9398
G1 X50.834 Y64.872 E23.96688
G1 X51.073 Y64.83 E23.98302
G1 X51.837 Y64.736 E24.03423
G1 X52.355 Y64.718 E24.06871
G1 X107.668 Y64.728 E27.74814
G1 X140.843 Y64.728 E29.95495
G1 X146.241 Y64.719 E30.31403
G1 X147.009 Y64.758 E30.36518
G1 X147.769 Y64.876 E30.41634
G1 X148.37 Y65.028 E30.45758
G1 X148.571 Y65.088 E30.47153
G1 X149.295 Y65.346 E30.52266
G1 X149.989 Y65.678 E30.57384
G1 X150.645 Y66.08 E30.62502
G1 X151.255 Y66.548 E30.67616
G1 X151.553 Y66.816 E30.70282
G1 X151.716 Y66.971 E30.71778
G1 X152.245 Y67.53 E30.76898
G1 X152.714 Y68.14 E30.82016
G1 X153.116 Y68.795 E30.87129
G1 X153.396 Y69.367 E30.91365
G1 X153.547 Y69.712 E30.9387
G1 X153.818 Y70.432 E30.98988
G1 X154.014 Y71.176 E31.04105
G1 X154.131 Y71.936 E31.09221
G1 X154.167 Y72.576 E31.13485
G1 X154.185 Y73.868 E31.2208
G1 X154.186 Y73.971 E31.22765
G1 X154.186 Y90.026 E32.29563
G1 X154.132 Y90.922 E32.35534
G1 X154.072 Y91.414 E32.38831
G1 X153.939 Y92.171 E32.43944
G1 X153.775 Y92.771 E32.48082
G1 X153.604 Y93.306 E32.51818
G1 X153.332 Y94.025 E32.56932
G1 X152.79 Y95.039 E32.6458
G1 X152.432 Y95.599 E32.69001
G1 X151.984 Y96.224 E32.74116
G1 X151.474 Y96.8 E32.79234
G1 X151.195 Y97.07 E32.81817
G1 X150.719 Y97.506 E32.86111
G1 X149.967 Y98.11 E32.92527
G1 X148.328 Y99.258 E33.05838
G1 X149.966 Y100.405 E33.1914
G1 X150.682 Y100.977 E33.25236
G1 X151.109 Y101.363 E33.29065
G1 X151.652 Y101.907 E33.34178
G1 X152.145 Y102.517 E33.39395
G1 X152.476 Y102.975 E33.43154
G1 X152.893 Y103.621 E33.48269
G1 X153.383 Y104.65 E33.5585
G1 X153.623 Y105.273 E33.60291
G1 X153.862 Y106.004 E33.65407
G1 X154.061 Y107.018 E33.72281
G1 X154.13 Y107.572 E33.75994
G1 X154.187 Y108.488 E33.821
G1 X154.185 Y122.633 E34.76192
G1 X154.22 Y122.687 E34.76621
G1 X154.575 Y123.37 E34.81741
G1 X154.856 Y124.085 E34.86851
G1 X155.062 Y124.827 E34.91974
G1 X155.19 Y125.585 E34.97087
G1 X155.239 Y126.353 E35.02206
G1 X155.207 Y127.121 E35.0732
G1 X155.096 Y127.882 E35.12435
G1 X154.906 Y128.628 E35.17556
G1 X154.64 Y129.349 E35.22668
G1 X154.401 Y129.855 E35.26391
G1 X151.726 Y134.986 E35.64882
G1 X151.335 Y135.649 E35.70002
G1 X151.113 Y135.966 E35.72577
G1 X150.934 Y136.208 E35.74579
G1 X150.445 Y136.801 E35.79692
G1 X149.898 Y137.341 E35.84805
G1 X149.116 Y137.947 E35.91386
G1 X148.899 Y138.093 E35.93126
G1 X148.239 Y138.488 E35.98242
G1 X147.542 Y138.813 E36.03358
G1 X146.936 Y139.028 E36.07635
G1 X146.688 Y139.104 E36.09361
G1 X145.942 Y139.291 E36.14477
G1 X145.181 Y139.399 E36.1959
G1 X144.533 Y139.429 E36.23905
G1 X142.26 Y139.433 E36.39025
G1 X141.897 Y139.425 E36.4144
G1 X141.201 Y139.392 E36.46075
G1 X140.893 Y139.371 E36.48129
G1 X140.187 Y139.308 E36.52844
G1 X139.752 Y139.256 E36.55758
G1 X139.049 Y139.151 E36.60486
G1 X138.601 Y139.07 E36.63515
G1 X137.906 Y138.922 E36.68242
G1 X137.493 Y138.821 E36.7107
G1 X136.81 Y138.634 E36.7578
G1 X136.459 Y138.529 E36.78217
G1 X135.681 Y138.274 E36.83664
G1 X135.264 Y138.123 E36.86614
G1 X133.08 Y137.259 E37.02237
G1 X133.059 Y137.251 E37.02387
G1 X128.115 Y135.278 E37.37796
G1 X124.096 Y133.68 E37.66567
G1 X123.458 Y133.433 E37.71118
G1 X122.68 Y133.434 E37.76293
G1 X122.669 Y133.434 E37.76366
G1 X68.894 Y133.427 E41.34079
G1 X58.411 Y133.426 E42.03812
G1 X56.239 Y133.431 E42.1826
G1 X52.353 Y133.431 E42.4411
G1 X51.585 Y133.391 E42.49226
G1 X50.876 Y133.282 E42.53998
G1 X50.606 Y133.227 E42.5583
G1 X49.861 Y133.035 E42.60948
G1 X49.141 Y132.766 E42.66061
G1 X48.452 Y132.424 E42.71178
G1 X47.502 Y131.787 E42.78786
G1 X47.228 Y131.571 E42.81107
G1 X46.649 Y131.064 E42.86227
G1 X46.127 Y130.5 E42.91339
G1 X45.665 Y129.885 E42.96455
G1 X45.344 Y129.36 E43.00549
G1 X45.197 Y129.096 E43.02559
G1 X44.858 Y128.405 E43.07679
G1 X44.593 Y127.683 E43.12795
G1 X44.39 Y126.864 E43.18408
G1 X44.333 Y126.561 E43.20459
G1 X44.211 Y125.482 E43.27682
G1 X44.008 Y120.292 E43.62232
G1 X44.006 Y120.254 E43.62485
G1 X43.835 Y115.21 E43.96057
G1 X43.834 Y115.159 E43.96397
G1 X43.761 Y112.459 E44.14364
G1 X43.76 Y112.428 E44.1457
G1 X43.686 Y109.188 E44.36128
G1 X43.685 Y109.152 E44.36368
G1 X43.654 Y107.424 E44.47864
G1 X43.654 Y107.402 E44.48011
G1 X43.62 Y105.134 E44.63099
G1 X43.619 Y105.095 E44.63359
G1 X43.597 Y102.828 E44.7844
G1 X43.597 Y102.779 E44.78766
G1 X43.583 Y98.241 E45.08953
G1 X43.583 Y98.189 E45.09299
G1 X43.592 Y95.92 E45.24392
G1 X43.592 Y95.883 E45.24638
G1 X43.61 Y93.87 E45.38029
G1 X43.611 Y93.831 E45.38289
G1 X43.658 Y90.508 E45.60396
G1 X43.658 Y90.479 E45.60589
G1 X43.695 Y88.432 E45.74208
G1 X43.697 Y88.367 E45.7464
G1 X43.871 Y81.897 E46.17694
G1 X43.872 Y81.847 E46.18027
G1 X43.988 Y78.4 E46.4097
G1 X43.99 Y78.355 E46.41269
G1 X44.208 Y72.871 E46.77778
G1 X44.247 Y72.353 E46.81233
G1 X44.31 Y71.782 E46.85055
G1 X44.434 Y71.023 E46.9017
G1 X44.636 Y70.281 E46.95286
G1 X44.914 Y69.564 E47.00401
G1 X45.265 Y68.88 E47.05515
G1 X45.508 Y68.489 E47.08578
G1 X45.69 Y68.216 E47.1076
G1 X46.149 Y67.599 E47.15876
G1 X46.67 Y67.033 E47.20993
G1 X47.247 Y66.525 E47.26107
G0 F3600 X47.544 Y66.8
G1 F1800 X48.242 Y66.321 E47.31738
G1 X48.51 Y66.16 E47.33818
G1 X49.171 Y65.809 E47.38796
G1 X49.866 Y65.531 E47.43776
G1 X50.903 Y65.266 E47.50895
G1 X51.142 Y65.224 E47.5251
G1 X51.885 Y65.134 E47.57488
G1 X52.355 Y65.118 E47.60616
G1 X107.668 Y65.128 E51.2856
G1 X140.843 Y65.128 E53.49241
G1 X146.241 Y65.119 E53.85149
G1 X146.988 Y65.158 E53.90124
G1 X147.727 Y65.276 E53.95103
G1 X148.255 Y65.411 E53.98728
G1 X148.456 Y65.471 E54.00123
G1 X149.161 Y65.723 E54.05103
G1 X149.834 Y66.049 E54.10078
G1 X150.469 Y66.445 E54.15056
G1 X151.278 Y67.106 E54.22005
G1 X151.441 Y67.261 E54.23502
G1 X151.954 Y67.805 E54.28476
G1 X152.407 Y68.4 E54.3345
G1 X152.794 Y69.041 E54.38431
G1 X153.03 Y69.527 E54.42025
G1 X153.181 Y69.872 E54.4453
G1 X153.444 Y70.573 E54.4951
G1 X153.63 Y71.297 E54.54483
G1 X153.739 Y72.037 E54.59458
G1 X153.767 Y72.581 E54.63082
G1 X153.785 Y73.873 E54.71677
G1 X153.786 Y73.971 E54.72329
G1 X153.786 Y90.026 E55.79127
G1 X153.735 Y90.873 E55.84772
G1 X153.675 Y91.365 E55.88069
G1 X153.544 Y92.102 E55.93048
G1 X153.394 Y92.649 E55.96821
G1 X153.223 Y93.184 E56.00558
G1 X152.957 Y93.884 E56.05539
G1 X152.453 Y94.823 E56.12628
G1 X152.095 Y95.383 E56.17049
G1 X151.659 Y95.991 E56.22026
G1 X150.925 Y96.775 E56.2917
G1 X150.449 Y97.211 E56.33464
G1 X149.737 Y97.782 E56.39535
G1 X147.63 Y99.258 E56.56648
G1 X149.736 Y100.733 E56.73751
G1 X150.414 Y101.273 E56.79517
G1 X150.841 Y101.659 E56.83346
G1 X151.368 Y102.19 E56.88323
G1 X151.82 Y102.752 E56.9312
G1 X152.151 Y103.21 E56.96879
G1 X152.557 Y103.839 E57.01859
G1 X153.01 Y104.794 E57.0889
G1 X153.25 Y105.417 E57.13331
G1 X153.481 Y106.128 E57.18304
G1 X153.664 Y107.068 E57.24675
G1 X153.733 Y107.622 E57.28388
G1 X153.787 Y108.488 E57.3416
G1 X153.785 Y122.758 E58.29085
G1 X153.977 Y123.068 E58.3151
G1 X154.301 Y123.742 E58.36485
G1 X154.551 Y124.447 E58.41461
G1 X154.725 Y125.175 E58.4644
G1 X154.82 Y125.917 E58.51416
G1 X154.835 Y126.665 E58.56392
G1 X154.771 Y127.41 E58.61366
G1 X154.627 Y128.144 E58.66342
G1 X154.406 Y128.859 E58.7132
G1 X154.046 Y129.67 E58.77223
G1 X151.371 Y134.801 E59.15714
G1 X150.792 Y135.728 E59.22985
G1 X150.613 Y135.97 E59.24987
G1 X150.136 Y136.546 E59.29962
G1 X149.601 Y137.069 E59.34939
G1 X148.893 Y137.615 E59.40886
G1 X148.676 Y137.761 E59.42626
G1 X148.033 Y138.145 E59.47608
G1 X147.354 Y138.458 E59.52581
G1 X146.819 Y138.646 E59.56354
G1 X146.571 Y138.722 E59.58079
G1 X145.845 Y138.902 E59.63055
G1 X145.104 Y139.005 E59.68031
G1 X144.532 Y139.029 E59.71839
G1 X142.259 Y139.033 E59.86959
G1 X141.915 Y139.025 E59.89248
G1 X141.219 Y138.992 E59.93883
G1 X140.929 Y138.972 E59.95817
G1 X140.223 Y138.909 E60.00532
G1 X139.811 Y138.86 E60.03292
G1 X139.108 Y138.755 E60.0802
G1 X138.684 Y138.678 E60.10887
G1 X137.989 Y138.53 E60.15614
G1 X137.598 Y138.436 E60.18289
G1 X136.915 Y138.249 E60.22999
G1 X136.584 Y138.149 E60.25299
G1 X135.806 Y137.894 E60.30746
G1 X135.411 Y137.751 E60.3354
G1 X133.227 Y136.887 E60.49164
G1 X133.207 Y136.879 E60.49307
G1 X128.272 Y134.91 E60.84651
G1 X124.214 Y133.297 E61.13699
G1 X123.533 Y133.033 E61.18558
G1 X122.68 Y133.034 E61.24232
G1 X122.669 Y133.034 E61.24305
G1 X68.894 Y133.027 E64.82018
G1 X58.41 Y133.026 E65.51758
G1 X56.238 Y133.031 E65.66206
G1 X52.353 Y133.031 E65.92049
G1 X51.606 Y132.991 E65.97025
G1 X50.956 Y132.89 E66.01401
G1 X50.686 Y132.835 E66.03234
G1 X49.962 Y132.647 E66.0821
G1 X49.262 Y132.382 E66.13189
G1 X48.594 Y132.045 E66.18166
G1 X47.749 Y131.473 E66.24953
G1 X47.475 Y131.257 E66.27274
G1 X46.914 Y130.763 E66.32247
G1 X46.408 Y130.212 E66.37223
G1 X45.963 Y129.611 E66.42197
G1 X45.693 Y129.165 E66.45666
G1 X45.546 Y128.901 E66.47676
G1 X45.218 Y128.229 E66.5265
G1 X44.963 Y127.526 E66.57624
G1 X44.783 Y126.79 E66.62665
G1 X44.726 Y126.487 E66.64715
G1 X44.61 Y125.467 E66.71544
G1 X44.407 Y120.277 E67.06095
G1 X44.406 Y120.24 E67.06341
G1 X44.235 Y115.196 E67.39913
G1 X44.234 Y115.148 E67.40232
G1 X44.161 Y112.448 E67.58199
G1 X44.16 Y112.419 E67.58392
G1 X44.086 Y109.179 E67.79951
G1 X44.085 Y109.145 E67.80177
G1 X44.054 Y107.417 E67.91673
G1 X44.054 Y107.396 E67.91813
G1 X44.02 Y105.128 E68.06902
G1 X44.019 Y105.091 E68.07148
G1 X43.997 Y102.824 E68.22229
G1 X43.997 Y102.778 E68.22535
G1 X43.983 Y98.24 E68.52722
G1 X43.983 Y98.19 E68.53054
G1 X43.992 Y95.921 E68.68148
G1 X43.992 Y95.886 E68.68381
G1 X44.01 Y93.873 E68.81772
G1 X44.011 Y93.837 E68.82011
G1 X44.058 Y90.514 E69.04118
G1 X44.058 Y90.486 E69.04304
G1 X44.095 Y88.439 E69.17923
G1 X44.097 Y88.378 E69.18329
G1 X44.271 Y81.908 E69.61384
G1 X44.272 Y81.861 E69.61696
G1 X44.388 Y78.414 E69.84639
G1 X44.39 Y78.371 E69.84925
G1 X44.608 Y72.887 E70.21434
G1 X44.644 Y72.397 E70.24702
G1 X44.707 Y71.826 E70.28523
G1 X44.829 Y71.088 E70.33499
G1 X45.029 Y70.367 E70.38476
G1 X45.304 Y69.672 E70.43448
G1 X45.841 Y68.711 E70.50771
G1 X46.023 Y68.438 E70.52954
G1 X46.47 Y67.839 E70.57925
G1 X46.979 Y67.291 E70.62901
G1 X47.544 Y66.8 E70.6788
G0 F3600 X47.84 Y67.077
G1 F1800 X48.448 Y66.663 E70.72773
G1 X48.716 Y66.502 E70.74853
G1 X49.359 Y66.163 E70.79688
G1 X50.034 Y65.897 E70.84514
G1 X50.973 Y65.66 E70.90956
G1 X51.212 Y65.618 E70.92571
G1 X51.933 Y65.531 E70.97401
G1 X52.355 Y65.518 E71.0021
G1 X107.668 Y65.528 E74.68153
