;FLAVOR:Marlin
;TIME:817
;Filament used: 0.848973m
;Layer height: 0.2
;MINX:67.029
;MINY:48.784
;MINZ:0.4
;MAXX:132.967
;MAXY:150.026
;MAXZ:3
;Generated with Cura_SteamEngine 4.2.1
M140 S60
M105
M190 S60
M104 S200
M105
M109 S200
M82 ;absolute extrusion mode
G28 ;Home
G1 Z15.0 F6000 ;Move the platform down 15mm
;Prime the extruder
G92 E0
G1 F200 E3
G92 E0
;
M117 Printing...        ☺
M141 S28
G92 E0
G92 E0
G1 F1500 E-3
;LAYER_COUNT:14
;LAYER:0
M107
G0 F3600 X67.733 Y51.191 Z0.4
;TYPE:SKIRT
G1 F1500 E0
G1 F1800 X67.958 Y50.892 E0.02489
G1 X68.293 Y50.513 E0.05854
G1 X68.683 Y50.192 E0.09214
G1 X68.92 Y50.042 E0.1108
G1 X69.113 Y49.931 E0.12561
G1 X69.569 Y49.714 E0.1592
G1 X69.966 Y49.592 E0.18683
G1 X70.335 Y49.504 E0.21206
G1 X70.897 Y49.422 E0.24984
G1 X71.679 Y49.378 E0.30194
G1 X71.732 Y49.376 E0.30547
G1 X75.229 Y49.237 E0.53828
G1 X75.24 Y49.236 E0.53901
G1 X77.386 Y49.158 E0.68186
G1 X77.395 Y49.158 E0.68246
G1 X81.098 Y49.034 E0.92892
G1 X81.117 Y49.033 E0.93019
G1 X84.287 Y48.946 E1.14113
G1 X84.306 Y48.946 E1.1424
G1 X88.039 Y48.866 E1.39078
G1 X88.061 Y48.865 E1.39224
G1 X91.583 Y48.813 E1.62655
G1 X91.612 Y48.813 E1.62848
G1 X96.777 Y48.784 E1.97206
G1 X96.803 Y48.784 E1.97379
G1 X99.106 Y48.79 E2.12699
G1 X99.119 Y48.79 E2.12785
G1 X101.532 Y48.806 E2.28837
G1 X101.555 Y48.806 E2.2899
G1 X106.14 Y48.869 E2.59492
G1 X106.162 Y48.87 E2.59639
G1 X108.841 Y48.925 E2.77463
G1 X108.859 Y48.925 E2.77583
G1 X112.351 Y49.017 E3.0082
G1 X112.374 Y49.018 E3.00973
G1 X117.166 Y49.178 E3.32868
G1 X117.178 Y49.178 E3.32947
G1 X120.009 Y49.283 E3.51792
G1 X120.021 Y49.284 E3.51872
G1 X122.346 Y49.379 E3.67351
G1 X122.389 Y49.381 E3.67638
G1 X123.105 Y49.42 E3.72407
G1 X123.575 Y49.48 E3.75559
G1 X123.867 Y49.54 E3.77542
G1 X124.353 Y49.681 E3.80908
G1 X124.616 Y49.794 E3.82813
G1 X124.829 Y49.897 E3.84386
G1 X125.265 Y50.153 E3.8775
G1 X125.822 Y50.646 E3.92698
G1 X126.057 Y50.909 E3.95044
G1 X126.363 Y51.311 E3.98405
G1 X126.602 Y51.757 E4.0177
G1 X126.763 Y52.218 E4.05019
G1 X126.841 Y52.511 E4.07036
G1 X126.932 Y53.008 E4.10397
G1 X126.948 Y53.273 E4.12163
G1 X126.966 Y54.211 E4.18403
G1 X126.967 Y54.272 E4.18809
G1 X126.962 Y105.087 E7.56832
G1 X127.002 Y107.887 E7.7546
G1 X127.116 Y110.602 E7.93536
G1 X127.311 Y113.349 E8.11855
G1 X127.579 Y116.052 E8.29923
G1 X127.928 Y118.783 E8.48238
G1 X128.35 Y121.472 E8.66344
G1 X128.854 Y124.186 E8.84706
G1 X129.421 Y126.819 E9.02623
G1 X130.078 Y129.505 E9.21017
G1 X130.809 Y132.16 E9.39335
G1 X131.722 Y135.124 E9.59966
G1 X132.302 Y136.905 E9.72425
G1 X132.35 Y137.067 E9.73549
G1 X132.508 Y137.656 E9.77606
G1 X132.536 Y137.768 E9.78374
G1 X132.593 Y138.016 E9.80067
G1 X132.612 Y138.108 E9.80692
G1 X132.707 Y138.585 E9.83927
G1 X132.728 Y138.701 E9.84711
G1 X132.761 Y138.906 E9.86092
G1 X132.773 Y138.984 E9.86617
G1 X132.838 Y139.462 E9.89826
G1 X132.849 Y139.559 E9.90476
G1 X132.878 Y139.835 E9.92322
G1 X132.886 Y139.922 E9.92903
G1 X132.923 Y140.4 E9.96092
G1 X132.929 Y140.49 E9.96692
G1 X132.943 Y140.775 E9.9859
G1 X132.946 Y140.872 E9.99236
G1 X132.965 Y141.886 E10.05982
G1 X132.966 Y141.942 E10.06355
G1 X132.967 Y142.686 E10.11304
G1 X132.967 Y142.732 E10.1161
G1 X132.958 Y143.419 E10.1618
G1 X132.932 Y143.784 E10.18614
G1 X132.897 Y144.057 E10.20445
G1 X132.793 Y144.552 E10.2381
G1 X132.502 Y145.237 E10.2876
G1 X132.317 Y145.561 E10.31242
G1 X132.032 Y145.979 E10.34608
G1 X131.685 Y146.346 E10.37967
G1 X131.47 Y146.525 E10.39828
G1 X131.268 Y146.678 E10.41514
G1 X130.872 Y146.934 E10.44651
G1 X130.086 Y147.364 E10.5061
G1 X130.032 Y147.393 E10.51018
G1 X129.307 Y147.772 E10.5646
G1 X129.301 Y147.775 E10.56505
G1 X126.284 Y149.344 E10.79126
G1 X126.248 Y149.363 E10.79396
G1 X125.611 Y149.684 E10.84141
G1 X125.143 Y149.875 E10.87504
G1 X124.651 Y149.99 E10.90865
G1 X124.146 Y150.026 E10.94233
G1 X123.77 Y150.001 E10.96739
G1 X122.637 Y149.858 E11.04336
G1 X122.591 Y149.852 E11.04644
G1 X121.935 Y149.759 E11.09052
G1 X119.222 Y149.453 E11.27213
G1 X116.482 Y149.223 E11.45504
G1 X113.758 Y149.071 E11.63652
G1 X109.706 Y148.986 E11.90612
G1 X106.895 Y148.986 E12.09311
G1 X106.18 Y148.976 E12.14068
G1 X106 Y148.968 E12.15266
G1 X105.332 Y148.921 E12.19721
G1 X105.286 Y148.917 E12.20028
G1 X103.799 Y148.79 E12.29955
G1 X101.056 Y148.637 E12.4823
G1 X98.303 Y148.56 E12.6655
G1 X95.584 Y148.562 E12.84637
G1 X92.831 Y148.641 E13.02958
G1 X90.08 Y148.798 E13.21287
G1 X88.041 Y148.965 E13.34896
G1 X87.834 Y148.976 E13.36275
G1 X87.192 Y148.987 E13.40546
G1 X87.137 Y148.987 E13.40912
G1 X71.829 Y148.986 E14.42741
G1 X71.783 Y148.986 E14.43047
G1 X71.083 Y148.976 E14.47704
G1 X70.703 Y148.948 E14.50239
G1 X70.144 Y148.873 E14.53991
G1 X69.65 Y148.766 E14.57353
G1 X69.179 Y148.583 E14.60714
G1 X68.876 Y148.416 E14.63016
G1 X68.61 Y148.25 E14.65102
G1 X68.203 Y147.949 E14.68469
G1 X67.849 Y147.588 E14.71832
G1 X67.557 Y147.176 E14.75191
G1 X67.338 Y146.735 E14.78467
G1 X67.285 Y146.604 E14.79407
G1 X67.133 Y146.122 E14.82769
G1 X67.052 Y145.469 E14.87146
G1 X67.032 Y144.487 E14.93679
G1 X67.031 Y144.428 E14.94072
G1 X67.029 Y143.281 E15.01702
G1 X67.029 Y143.275 E15.01742
G1 X67.036 Y88.521 E18.65967
G1 X67.033 Y54.062 E20.95189
G1 X67.033 Y54.016 E20.95495
G1 X67.043 Y53.315 E21.00159
G1 X67.1 Y52.76 E21.0387
G1 X67.147 Y52.514 E21.05536
G1 X67.281 Y52.027 E21.08896
G1 X67.49 Y51.567 E21.12257
G1 X67.733 Y51.191 E21.15235
G1 F1500 E18.15235
;MESH:outsideCard.stl
G0 F3600 X69.571 Y88.521
G0 X70.855 Y88.521
G0 X71.005 Y134.887
G0 X71.093 Y134.842
;TYPE:WALL-INNER
G1 F1500 E21.15235
G1 F1800 X71.2 Y134.918 E21.16108
G1 X78.703 Y140.28 E21.77453
G1 X84.632 Y140.28 E22.16893
G1 X96.992 Y136.325 E23.03219
G1 X109.353 Y140.279 E23.89549
G1 X115.279 Y140.279 E24.28969
G1 X122.891 Y134.842 E24.91194
G1 X122.891 Y124.306 E25.6128
G1 X122.891 Y123.977 E25.63468
G1 X122.891 Y121.531 E25.79739
G1 X122.891 Y117.597 E26.05908
G1 X122.892 Y111.884 E26.43911
G1 X122.765 Y111.39 E26.47304
G1 X119.922 Y100.38 E27.22945
G1 X122.767 Y89.358 E27.98667
G1 X122.891 Y88.874 E28.0199
G1 X122.891 Y65.917 E29.54701
G1 X122.793 Y65.847 E29.55502
G1 X115.28 Y60.48 E30.16921
G1 X105.846 Y60.48 E30.79676
G1 X96.993 Y63.431 E31.41752
G1 X88.137 Y60.481 E32.03845
G1 X78.704 Y60.481 E32.66593
G1 X71.204 Y65.838 E33.27903
G1 X71.093 Y65.917 E33.28809
G1 X71.093 Y88.52 E34.79165
G1 X71.092 Y88.875 E34.81527
G1 X71.232 Y89.419 E34.85263
G1 X74.062 Y100.38 E35.60567
G1 X71.229 Y111.356 E36.35972
G1 X71.093 Y111.885 E36.39606
G1 X71.093 Y134.842 E37.92316
G0 F3600 X71.005 Y134.887
G0 X78.691 Y140.318
G0 X84.638 Y140.319
G0 X93.61 Y138.151
G0 X100.373 Y138.152
G0 X124.839 Y145.114
G0 X124.769 Y145.184
G1 F1800 X124.569 Y145.184 E37.93647
G1 X106.26 Y145.186 E39.15439
G1 X105.761 Y145.117 E39.1879
G1 X105.299 Y144.926 E39.22115
G1 X104.895 Y144.617 E39.25499
G1 X104.684 Y144.364 E39.2769
G1 X100.355 Y138.187 E39.77866
G1 X93.628 Y138.186 E40.22614
G1 X89.307 Y144.349 E40.72683
G1 X89.017 Y144.677 E40.75595
G1 X88.686 Y144.926 E40.7835
G1 X88.226 Y145.117 E40.81664
G1 X87.721 Y145.187 E40.85055
G1 X71.161 Y145.186 E41.95213
G1 X70.833 Y145.141 E41.97415
G1 X70.829 Y143.099 E42.10998
G1 X70.829 Y134.974 E42.65046
G1 X70.829 Y134.842 E42.65792
G1 X70.832 Y111.885 E43.66009
G1 X70.832 Y111.338 E43.69021
G1 X70.835 Y89.437 E45.14707
G1 X70.835 Y88.875 E45.17783
G1 X70.836 Y88.52 E45.19303
G1 X70.835 Y65.918 E46.16089
G1 X70.835 Y65.781 E46.16857
G1 X70.833 Y53.412 E46.99136
G1 X70.847 Y53.342 E46.99611
G1 X70.898 Y53.276 E47.00166
G1 X70.976 Y53.233 E47.00758
G1 X71.136 Y53.203 E47.01841
G1 X75.2 Y53.041 E47.28897
G1 X77.525 Y52.956 E47.44373
G1 X81.007 Y52.838 E47.67549
G1 X84.463 Y52.743 E47.90547
G1 X87.922 Y52.668 E48.13561
G1 X91.382 Y52.615 E48.3658
G1 X96.572 Y52.583 E48.71105
G1 X99.094 Y52.59 E48.87881
G1 X101.327 Y52.604 E49.02736
G1 X105.823 Y52.664 E49.32646
G1 X108.68 Y52.722 E49.51654
G1 X112.157 Y52.813 E49.74792
G1 X117.139 Y52.979 E50.0795
G1 X119.62 Y53.071 E50.24465
G1 X122.859 Y53.203 E50.46029
G1 X123.053 Y53.244 E50.47348
G1 X123.071 Y53.253 E50.47482
G1 X123.147 Y53.338 E50.4824
G1 X123.167 Y53.421 E50.48808
G1 X123.166 Y65.796 E51.31127
G1 X123.166 Y65.917 E51.31821
G1 X123.164 Y88.874 E52.36428
G1 X123.164 Y89.374 E52.3923
G1 X123.162 Y106.458 E53.52874
G1 X123.162 Y111.373 E53.85568
G1 X123.162 Y111.884 E53.88421
G1 X123.161 Y117.597 E54.14075
G1 X123.17 Y121.531 E54.32033
G1 X123.165 Y123.977 E54.43281
G1 X123.286 Y124.282 E54.45125
G1 X123.615 Y125.111 E54.51058
G1 X124.099 Y126.349 E54.599
G1 X126.232 Y131.719 E54.98337
G1 X127.578 Y135.083 E55.22439
G1 X128.364 Y137.069 E55.36647
G1 X128.557 Y137.628 E55.40581
G1 X128.752 Y138.263 E55.44999
G1 X128.909 Y138.909 E55.49422
G1 X129.03 Y139.579 E55.53951
G1 X129.109 Y140.234 E55.58339
G1 X129.165 Y141.114 E55.64205
G1 X129.168 Y143.357 E55.79125
G1 X129.155 Y143.456 E55.7979
G1 X129.085 Y143.578 E55.80725
G1 X128.976 Y143.657 E55.81621
G1 X127.363 Y144.501 E55.93731
G1 X125.06 Y145.699 E56.10999
G1 X124.769 Y145.85 E56.1318
G1 X124.769 Y145.523 E56.14425
G1 X124.769 Y145.521 E56.14439
G1 X124.769 Y145.384 E56.1535
G1 X124.769 Y145.184 E56.16211
G0 F3600 X124.369 Y145.584
;TYPE:WALL-OUTER
G1 F1800 X124.169 Y145.584 E56.17542
G1 X106.234 Y145.586 E57.36846
G1 X105.653 Y145.506 E57.40747
G1 X105.098 Y145.276 E57.44744
G1 X104.616 Y144.907 E57.48782
G1 X104.364 Y144.606 E57.51393
G1 X100.147 Y138.587 E58.0028
G1 X93.836 Y138.586 E58.42261
G1 X89.624 Y144.595 E58.91075
G1 X89.291 Y144.972 E58.94421
G1 X88.887 Y145.275 E58.9778
G1 X88.33 Y145.506 E59.01792
G1 X87.747 Y145.587 E59.05707
G1 X71.137 Y145.586 E60.16197
G1 X70.62 Y145.516 E60.19668
G1 X70.458 Y145.41 E60.20955
G1 X70.433 Y145.347 E60.21406
G1 X70.429 Y143.1 E60.36353
G1 X70.436 Y88.521 E63.99414
G1 X70.433 Y53.371 E66.33233
G1 X70.474 Y53.169 E66.34604
G1 X70.633 Y52.966 E66.36319
G1 X70.838 Y52.852 E66.3788
G1 X71.094 Y52.804 E66.39612
G1 X75.184 Y52.641 E66.66841
G1 X77.51 Y52.556 E66.82324
G1 X80.993 Y52.438 E67.05506
G1 X84.452 Y52.343 E67.28524
G1 X87.913 Y52.268 E67.51552
G1 X91.376 Y52.215 E67.74591
G1 X96.571 Y52.183 E68.09149
G1 X99.097 Y52.19 E68.25952
G1 X101.332 Y52.204 E68.40819
G1 X105.831 Y52.264 E68.7075
G1 X108.69 Y52.322 E68.89772
G1 X112.17 Y52.413 E69.12929
G1 X117.154 Y52.579 E69.46101
G1 X119.636 Y52.671 E69.62622
G1 X122.904 Y52.804 E69.84379
G1 X123.189 Y52.864 E69.86317
G1 X123.321 Y52.933 E69.87307
G1 X123.513 Y53.148 E69.89225
G1 X123.567 Y53.374 E69.9077
G1 X123.562 Y106.458 E73.43887
G1 X123.561 Y117.597 E74.17984
G1 X123.57 Y121.531 E74.44153
G1 X123.565 Y123.901 E74.59918
G1 X123.987 Y124.965 E74.67532
G1 X124.471 Y126.202 E74.76368
G1 X125.038 Y127.633 E74.86607
G1 X126.604 Y131.571 E75.14798
G1 X127.949 Y134.936 E75.38904
G1 X128.742 Y136.938 E75.53228
G1 X128.935 Y137.497 E75.57162
G1 X129.141 Y138.169 E75.61837
G1 X129.301 Y138.829 E75.66355
G1 X129.424 Y139.508 E75.70945
G1 X129.507 Y140.195 E75.75548
G1 X129.565 Y141.104 E75.81607
G1 X129.568 Y143.381 E75.96754
G1 X129.54 Y143.588 E75.98144
G1 X129.389 Y143.852 E76.00167
G1 X129.192 Y143.995 E76.01786
G1 X127.548 Y144.855 E76.14128
G1 X124.66 Y146.357 E76.35782
G1 X124.369 Y146.508 E76.37963
G1 X124.369 Y146.181 E76.39208
G1 X124.369 Y146.179 E76.39221
G1 X124.369 Y145.784 E76.41849
G1 X124.369 Y145.584 E76.4271
G0 F3600 X124.169 Y145.584
G0 X124.169 Y145.084
G0 X96.992 Y136.365
G0 X84.638 Y140.319
G0 X78.691 Y140.318
G0 X71.058 Y134.86
G0 X71.058 Y65.899
G0 X71.493 Y66.123
G1 F1800 X71.492 Y88.824 E77.93718
G1 X74.475 Y100.38 E78.73109
G1 X71.493 Y111.936 E79.52498
G1 X71.493 Y134.636 E81.03499
G1 X78.831 Y139.88 E81.63495
G1 X84.57 Y139.88 E82.01671
G1 X96.992 Y135.905 E82.8843
G1 X109.415 Y139.879 E83.75193
G1 X115.151 Y139.879 E84.13349
G1 X122.491 Y134.636 E84.73352
G1 X122.492 Y111.935 E86.24359
G1 X119.509 Y100.38 E87.03744
G1 X122.491 Y88.823 E87.83139
G1 X122.491 Y66.123 E89.3414
G1 X115.152 Y60.88 E89.94137
G1 X105.911 Y60.88 E90.55609
G1 X96.992 Y63.852 E91.18145
G1 X88.072 Y60.881 E91.80686
G1 X78.832 Y60.881 E92.42151
G1 X71.493 Y66.123 E93.02145
G0 F3600 X71.493 Y66.323
G0 X70.993 Y66.322
G0 X71.224 Y65.344
;TYPE:SKIN
G1 F1800 X71.223 Y53.59 E93.80333
G1 X75.216 Y53.431 E94.06915
G1 X77.541 Y53.346 E94.22391
G1 X81.02 Y53.228 E94.45547
G1 X84.473 Y53.133 E94.68525
G1 X87.93 Y53.058 E94.91527
G1 X91.388 Y53.005 E95.14532
G1 X96.572 Y52.973 E95.49017
G1 X99.092 Y52.98 E95.6578
G1 X101.321 Y52.994 E95.80608
G1 X105.815 Y53.054 E96.10505
G1 X108.67 Y53.112 E96.295
G1 X112.144 Y53.203 E96.52617
G1 X117.126 Y53.369 E96.85776
G1 X119.604 Y53.461 E97.02271
G1 X122.777 Y53.59 E97.23395
G1 X122.776 Y65.356 E98.01663
G1 X115.405 Y60.09 E98.61923
G1 X105.783 Y60.09 E99.25928
G1 X96.993 Y63.02 E99.87563
G1 X88.2 Y60.091 E100.49214
G1 X78.579 Y60.091 E101.13213
G1 X71.224 Y65.344 E101.73336
G0 F3600 X71.624 Y64.836
G1 F1800 X71.402 Y64.614 E101.75424
G0 F3600 X71.953 Y64.599
G1 F1800 X71.402 Y64.048 E101.80607
G0 F3600 X71.402 Y63.482
G1 F1800 X72.283 Y64.364 E101.889
G0 F3600 X72.614 Y64.128
G1 F1800 X71.402 Y62.916 E102.00302
G0 F3600 X71.402 Y62.351
G1 F1800 X72.943 Y63.892 E102.14799
G0 F3600 X73.273 Y63.657
G1 F1800 X71.402 Y61.785 E102.32404
G0 F3600 X71.402 Y61.219
G1 F1800 X73.604 Y63.421 E102.5312
G0 F3600 X73.934 Y63.186
G1 F1800 X71.402 Y60.654 E102.76939
G0 F3600 X71.402 Y60.088
G1 F1800 X74.263 Y62.95 E103.03858
G0 F3600 X74.594 Y62.714
G1 F1800 X71.402 Y59.522 E103.33887
G0 F3600 X71.402 Y58.957
G1 F1800 X74.924 Y62.479 E103.6702
G0 F3600 X75.253 Y62.243
G1 F1800 X71.402 Y58.391 E104.03252
G0 F3600 X71.402 Y57.825
G1 F1800 X75.584 Y62.007 E104.42594
G0 F3600 X75.914 Y61.772
G1 F1800 X71.402 Y57.26 E104.8504
G0 F3600 X71.402 Y56.694
G1 F1800 X76.243 Y61.535 E105.30581
G0 F3600 X76.574 Y61.3
G1 F1800 X71.402 Y56.128 E105.79236
G0 F3600 X71.402 Y55.563
G1 F1800 X76.904 Y61.065 E106.30995
G0 F3600 X77.234 Y60.829
G1 F1800 X71.402 Y54.997 E106.85859
G0 F3600 X71.402 Y54.431
G1 F1800 X77.563 Y60.593 E107.43823
G0 F3600 X77.894 Y60.357
G1 F1800 X71.402 Y53.865 E108.04896
G0 F3600 X71.847 Y53.745
G1 F1800 X78.224 Y60.122 E108.64887
G0 F3600 X78.578 Y59.911
G1 F1800 X72.391 Y53.723 E109.23095
G0 F3600 X72.935 Y53.702
G1 F1800 X79.144 Y59.911 E109.81505
G0 F3600 X79.71 Y59.911
G1 F1800 X73.479 Y53.68 E110.40123
G0 F3600 X74.024 Y53.659
G1 F1800 X80.275 Y59.911 E110.98933
G0 F3600 X80.841 Y59.911
G1 F1800 X74.567 Y53.637 E111.57955
G0 F3600 X75.112 Y53.616
G1 F1800 X81.407 Y59.911 E112.17174
G0 F3600 X81.972 Y59.911
G1 F1800 X75.657 Y53.595 E112.76587
G0 F3600 X76.202 Y53.575
G1 F1800 X82.538 Y59.911 E113.36192
G0 F3600 X83.104 Y59.911
G1 F1800 X76.748 Y53.555 E113.95985
G0 F3600 X77.294 Y53.535
G1 F1800 X83.669 Y59.911 E114.55962
G0 F3600 X84.235 Y59.911
G1 F1800 X77.841 Y53.516 E115.16118
G0 F3600 X78.387 Y53.497
G1 F1800 X84.801 Y59.911 E115.76457
G0 F3600 X85.366 Y59.911
G1 F1800 X78.935 Y53.479 E116.3696
G0 F3600 X79.482 Y53.46
G1 F1800 X85.932 Y59.911 E116.97643
G0 F3600 X86.498 Y59.911
G1 F1800 X80.029 Y53.442 E117.58499
G0 F3600 X80.576 Y53.424
G1 F1800 X87.063 Y59.911 E118.19525
G0 F3600 X87.629 Y59.911
G1 F1800 X81.124 Y53.406 E118.8072
G0 F3600 X81.675 Y53.39
G1 F1800 X88.195 Y59.911 E119.42061
G1 X88.265 Y59.981
G0 F3600 X89.026 Y60.176
G1 F1800 X82.225 Y53.375 E120.0604
G0 F3600 X82.776 Y53.36
G1 F1800 X89.875 Y60.459 E120.72823
G1 X89.945 Y60.529
G0 F3600 X90.723 Y60.741
G1 F1800 X83.326 Y53.344 E121.4241
G0 F3600 X83.877 Y53.329
G1 F1800 X91.571 Y61.024 E122.14795
G1 X91.641 Y61.094
G0 F3600 X92.419 Y61.306
G1 F1800 X84.427 Y53.314 E122.89979
G0 F3600 X84.98 Y53.302
G1 F1800 X93.268 Y61.589 E123.67942
G1 X93.338 Y61.659
G0 F3600 X94.115 Y61.871
G1 F1800 X85.534 Y53.29 E124.48667
G0 F3600 X86.088 Y53.278
G1 F1800 X94.964 Y62.154 E125.32167
G1 X95.034 Y62.224
G0 F3600 X95.812 Y62.436
G1 F1800 X86.641 Y53.265 E126.18442
G0 F3600 X87.194 Y53.253
G1 F1800 X96.66 Y62.719 E127.07493
G0 F3600 X97.25 Y62.743
G1 F1800 X87.748 Y53.241 E127.96882
G0 F3600 X88.304 Y53.231
G1 F1800 X97.674 Y62.602 E128.85034
G0 F3600 X98.099 Y62.46
G1 F1800 X88.861 Y53.223 E129.71934
