;FLAVOR:Marlin
;TIME:3242
;Filament used: 3.5662m
;Layer height: 0.2
;MINX:65.4
;MINY:44.7
;MINZ:0.4
;MAXX:134.599
;MAXY:155.273
;MAXZ:5.2
;Generated with Cura_SteamEngine 4.2.1
M140 S60
M105
M190 S60
M104 S210
M105
M109 S210
M82 ;absolute extrusion mode
G28 ;Home
G1 Z15.0 F6000 ;Move the platform down 15mm
;Prime the extruder
G92 E0
G1 F200 E3
G92 E0
;
M117 Printing...        ☺
M141 S28
G92 E0
G92 E0
G1 F1500 E-5
;LAYER_COUNT:25
;LAYER:0
M107
G0 F3600 X66.376 Y46.566 Z0.4
;TYPE:SKIRT
G1 F1500 E0
G1 F1800 X66.732 Y46.175 E0.03518
G1 X67.15 Y45.786 E0.07316
G1 X67.546 Y45.472 E0.10678
G1 X67.908 Y45.262 E0.13462
G1 X68.168 Y45.133 E0.15392
G1 X68.637 Y44.945 E0.18753
G1 X69.034 Y44.849 E0.2147
G1 X69.51 Y44.765 E0.24686
G1 X70.013 Y44.716 E0.28047
G1 X70.853 Y44.702 E0.33636
G1 X70.906 Y44.702 E0.33988
G1 X123.191 Y44.7 E3.8179
G1 X123.236 Y44.7 E3.82089
G1 X123.942 Y44.71 E3.86786
G1 X124.381 Y44.747 E3.89716
G1 X124.603 Y44.781 E3.9121
G1 X124.712 Y44.799 E3.91945
G1 X124.972 Y44.848 E3.93705
G1 X125.46 Y44.981 E3.9707
G1 X125.908 Y45.182 E4.00336
G1 X126.305 Y45.398 E4.03343
G1 X126.729 Y45.674 E4.06708
G1 X127.108 Y46.018 E4.10113
G1 X127.495 Y46.43 E4.13873
G1 X127.811 Y46.825 E4.17238
G1 X128.01 Y47.159 E4.19824
G1 X128.144 Y47.42 E4.21776
G1 X128.338 Y47.887 E4.25139
G1 X128.446 Y48.312 E4.28056
G1 X128.533 Y48.793 E4.31308
G1 X128.584 Y49.308 E4.34751
G1 X128.598 Y50.121 E4.40159
G1 X128.598 Y50.176 E4.40525
G1 X128.6 Y105.251 E8.06886
G1 X128.64 Y108.048 E8.25493
G1 X128.755 Y110.765 E8.43583
G1 X128.949 Y113.508 E8.61875
G1 X129.219 Y116.218 E8.79991
G1 X129.568 Y118.946 E8.98286
G1 X129.99 Y121.635 E9.16392
G1 X130.491 Y124.334 E9.34653
G1 X131.065 Y126.995 E9.52761
G1 X131.719 Y129.667 E9.7106
G1 X132.447 Y132.31 E9.89296
G1 X133.243 Y134.911 E10.0739
G1 X133.558 Y135.852 E10.13991
G1 X133.57 Y135.89 E10.14256
G1 X133.806 Y136.625 E10.19391
G1 X133.831 Y136.707 E10.19961
G1 X133.981 Y137.221 E10.23523
G1 X134 Y137.289 E10.23993
G1 X134.06 Y137.513 E10.25535
G1 X134.085 Y137.612 E10.26215
G1 X134.21 Y138.146 E10.29863
G1 X134.239 Y138.284 E10.30801
G1 X134.351 Y138.88 E10.34835
G1 X134.37 Y138.996 E10.35617
G1 X134.431 Y139.402 E10.38348
G1 X134.444 Y139.495 E10.38972
G1 X134.506 Y140.01 E10.42423
G1 X134.521 Y140.168 E10.43479
G1 X134.563 Y140.766 E10.47466
G1 X134.568 Y140.859 E10.48086
G1 X134.58 Y141.151 E10.5003
G1 X134.583 Y141.233 E10.50576
G1 X134.599 Y142.28 E10.57541
G1 X134.599 Y143.118 E10.63116
G1 X134.591 Y143.784 E10.67546
G1 X134.586 Y143.928 E10.68505
G1 X134.562 Y144.349 E10.7131
G1 X134.453 Y145.014 E10.75792
G1 X134.29 Y145.608 E10.7989
G1 X134.118 Y146.083 E10.8325
G1 X133.981 Y146.351 E10.85252
G1 X133.657 Y146.917 E10.89591
G1 X133.408 Y147.289 E10.92568
G1 X132.902 Y147.941 E10.98058
G1 X132.857 Y147.997 E10.98536
G1 X128.248 Y153.668 E11.47148
G1 X128.214 Y153.709 E11.47502
G1 X127.85 Y154.142 E11.51265
G1 X127.496 Y154.502 E11.54623
G1 X127.088 Y154.802 E11.57992
G1 X126.639 Y155.034 E11.61354
G1 X126.159 Y155.192 E11.64715
G1 X125.66 Y155.273 E11.68078
G1 X125.154 Y155.273 E11.71444
G1 X124.81 Y155.228 E11.73752
G1 X124.267 Y155.126 E11.77427
G1 X124.14 Y155.099 E11.78291
G1 X121.441 Y154.477 E11.96715
G1 X118.71 Y153.927 E12.15247
G1 X116.054 Y153.474 E12.3317
G1 X113.32 Y153.084 E12.5154
G1 X110.618 Y152.777 E12.6963
G1 X107.901 Y152.544 E12.8777
G1 X105.16 Y152.389 E13.06032
G1 X102.393 Y152.31 E13.24446
G1 X101.005 Y152.3 E13.33679
G1 X69.261 Y152.3 E15.44841
G1 X68.563 Y152.29 E15.49485
G1 X68.06 Y152.243 E15.52845
G1 X67.57 Y152.117 E15.56211
G1 X67.106 Y151.915 E15.59577
G1 X66.68 Y151.643 E15.62939
G1 X66.302 Y151.308 E15.66299
G1 X65.982 Y150.917 E15.6966
G1 X65.727 Y150.48 E15.73026
G1 X65.544 Y150.009 E15.76387
G1 X65.437 Y149.515 E15.79749
G1 X65.41 Y149.177 E15.82005
G1 X65.401 Y148.845 E15.84214
G1 X65.4 Y148.758 E15.84793
G1 X65.4 Y50.061 E22.41328
G1 X65.41 Y49.364 E22.45965
G1 X65.446 Y48.928 E22.48875
G1 X65.483 Y48.685 E22.5051
G1 X65.502 Y48.579 E22.51226
G1 X65.548 Y48.333 E22.52891
G1 X65.679 Y47.845 E22.56252
G1 X65.881 Y47.393 E22.59546
G1 X66.1 Y46.99 E22.62597
G1 X66.376 Y46.566 E22.65962
G1 F1500 E17.65962
;MESH:Change compartment.stl
G0 F3600 X69.923 Y47.257
G0 X70.143 Y48.521
G0 X88.179 Y51.064
G0 X88.273 Y51.094
;TYPE:WALL-INNER
G1 F1500 E22.65962
G1 F1800 X88.194 Y51.647 E22.69678
G1 X88.305 Y52.193 E22.73384
G1 X88.6 Y52.669 E22.77109
G1 X89.036 Y53.014 E22.80808
G1 X89.302 Y53.103 E22.82674
G1 X89.567 Y53.191 E22.84531
G1 X90.125 Y53.174 E22.88245
G1 X90.304 Y53.103 E22.89526
G1 X90.644 Y52.968 E22.91959
G1 X91.06 Y52.597 E22.95667
G1 X91.327 Y52.106 E22.99385
G1 X91.406 Y51.553 E23.03101
G1 X91.295 Y51.007 E23.06807
G1 X91 Y50.531 E23.10532
G1 X90.564 Y50.186 E23.1423
G1 X90.033 Y50.009 E23.17954
G1 X89.475 Y50.026 E23.21667
G1 X88.956 Y50.232 E23.25382
G1 X88.54 Y50.603 E23.2909
G1 X88.273 Y51.094 E23.32807
G0 F3600 X88.179 Y51.064
G0 X75.172 Y53.472
G0 X75.13 Y74.77
G0 X75.2 Y74.7
G1 F1800 X86.296 Y74.7 E24.06618
G1 X87.176 Y74.205 E24.13335
G1 X88.055 Y73.662 E24.20207
G1 X88.91 Y73.075 E24.27106
G1 X89.736 Y72.449 E24.34001
G1 X90.53 Y71.784 E24.4089
G1 X91.292 Y71.082 E24.47782
G1 X92.02 Y70.342 E24.54687
G1 X92.71 Y69.568 E24.61585
G1 X93.363 Y68.762 E24.68485
G1 X93.976 Y67.927 E24.75376
G1 X94.548 Y67.063 E24.82268
G1 X95.079 Y66.171 E24.89174
G1 X95.566 Y65.256 E24.96069
G1 X96.008 Y64.318 E25.02966
G1 X96.404 Y63.361 E25.09856
G1 X96.755 Y62.385 E25.16755
G1 X97.106 Y61.229 E25.24792
G1 X97.353 Y60.22 E25.31702
G1 X97.55 Y59.201 E25.38606
G1 X97.7 Y58.175 E25.45503
G1 X97.8 Y57.129 E25.52493
G1 X97.8 Y53.5 E25.76633
G1 X90.318 Y53.5 E26.26404
G1 X90.125 Y53.5 E26.27571
G1 X89.567 Y53.5 E26.30518
G1 X89.287 Y53.5 E26.32171
G1 X75.2 Y53.5 E27.25878
G1 X75.2 Y74.7 E28.66901
G0 F3600 X75.13 Y74.77
G0 X86.306 Y74.738
G0 X88.073 Y73.697
G0 X119.349 Y51.064
G0 X119.443 Y51.094
G1 F1800 X119.364 Y51.647 E28.70617
G1 X119.475 Y52.193 E28.74324
G1 X119.77 Y52.669 E28.78049
G1 X120.206 Y53.014 E28.81747
G1 X120.737 Y53.191 E28.8547
G1 X121.294 Y53.174 E28.89177
G1 X121.813 Y52.968 E28.92892
G1 X122.23 Y52.597 E28.96605
G1 X122.496 Y52.106 E29.00319
G1 X122.576 Y51.553 E29.04036
G1 X122.464 Y51.007 E29.07744
G1 X122.17 Y50.531 E29.11465
G1 X121.733 Y50.186 E29.15169
G1 X121.202 Y50.009 E29.18892
G1 X120.645 Y50.026 E29.22599
G1 X120.126 Y50.232 E29.26314
G1 X119.71 Y50.603 E29.30021
G1 X119.443 Y51.094 E29.33739
G0 F3600 X119.349 Y51.064
G0 X124.761 Y124.124
G0 X128.84 Y136.515
G0 X128.856 Y137.643
G0 X128.227 Y138.441
G0 X127.601 Y138.681
G1 F1800 X128.123 Y138.48 E29.3746
G1 X128.545 Y138.117 E29.41163
G1 X128.818 Y137.63 E29.44877
G1 X128.908 Y137.079 E29.48591
G1 X128.804 Y136.53 E29.52308
G1 X128.519 Y136.051 E29.56015
G1 X128.085 Y135.697 E29.59741
G1 X127.56 Y135.513 E29.63441
G1 X126.999 Y135.519 E29.67173
G1 X126.477 Y135.72 E29.70894
G1 X126.055 Y136.083 E29.74597
G1 X125.782 Y136.57 E29.78311
G1 X125.692 Y137.121 E29.82025
G1 X125.796 Y137.67 E29.85742
G1 X126.081 Y138.149 E29.89449
G1 X126.515 Y138.503 E29.93175
G1 X127.04 Y138.687 E29.96875
G1 X127.601 Y138.681 E30.00607
G0 F3600 X127.618 Y138.779
G0 X125.969 Y148.43
G0 X125.899 Y148.5
G1 F1800 X69.2 Y148.5 E33.77771
G1 X69.2 Y49.449 E40.36661
G1 X69.259 Y49.103 E40.38995
G1 X69.413 Y48.834 E40.41057
G1 X69.67 Y48.615 E40.43303
G1 X69.77 Y48.568 E40.44038
G1 X70.142 Y48.502 E40.46552
G1 X123.851 Y48.5 E44.03825
G1 X124.197 Y48.559 E44.0616
G1 X124.466 Y48.713 E44.08222
G1 X124.685 Y48.97 E44.10468
G1 X124.732 Y49.07 E44.11203
G1 X124.798 Y49.442 E44.13716
G1 X124.8 Y121.133 E48.90607
G1 X124.8 Y124.118 E49.10463
G1 X129.882 Y136.904 E50.01988
G1 X130.122 Y137.562 E50.06647
G1 X130.319 Y138.199 E50.11082
G1 X130.491 Y138.887 E50.158
G1 X130.632 Y139.609 E50.20693
G1 X130.718 Y140.249 E50.24989
G1 X130.778 Y140.965 E50.29768
G1 X130.798 Y141.655 E50.3436
G1 X130.8 Y143.736 E50.48203
G1 X130.781 Y144.073 E50.50448
G1 X130.642 Y144.574 E50.53907
G1 X130.353 Y145.056 E50.57645
G1 X126.254 Y150.1 E51.0088
G1 X125.9 Y150.536 E51.04616
G1 X125.9 Y149.975 E51.0659
G1 X125.9 Y149.974 E51.06597
G1 X125.899 Y148.5 E51.16402
G0 F3600 X125.499 Y148.9
;TYPE:WALL-OUTER
G1 F1800 X68.8 Y148.9 E54.93565
G1 X68.8 Y49.416 E61.55336
G1 X68.877 Y48.967 E61.58366
G1 X69.102 Y48.573 E61.61384
G1 X69.45 Y48.277 E61.64423
G1 X69.647 Y48.183 E61.65875
G1 X70.107 Y48.102 E61.68982
G1 X123.884 Y48.1 E65.26708
G1 X124.333 Y48.177 E65.29739
G1 X124.727 Y48.402 E65.32757
G1 X125.023 Y48.75 E65.35796
G1 X125.117 Y48.947 E65.37248
G1 X125.198 Y49.407 E65.40355
G1 X125.2 Y121.133 E70.17478
G1 X125.2 Y124.041 E70.36822
G1 X130.258 Y136.767 E71.27917
G1 X130.498 Y137.425 E71.32576
G1 X130.707 Y138.102 E71.37289
G1 X130.884 Y138.81 E71.42144
G1 X131.025 Y139.532 E71.47037
G1 X131.117 Y140.216 E71.51628
G1 X131.177 Y140.932 E71.56408
G1 X131.198 Y141.655 E71.61219
G1 X131.2 Y143.736 E71.75062
G1 X131.178 Y144.138 E71.7774
G1 X131.012 Y144.733 E71.81849
G1 X130.682 Y145.285 E71.86128
G1 X125.854 Y151.225 E72.37046
G1 X125.5 Y151.661 E72.40782
G1 X125.5 Y151.1 E72.42756
G1 X125.5 Y151.099 E72.42763
G1 X125.499 Y148.9 E72.57391
G0 F3600 X125.299 Y148.9
G0 X125.299 Y148.4
G0 X127.704 Y138.748
G0 X127.525 Y138.282
G1 F1800 X127.915 Y138.132 E72.6017
G1 X128.231 Y137.86 E72.62944
G1 X128.435 Y137.496 E72.65719
G1 X128.502 Y137.084 E72.68496
G1 X128.424 Y136.674 E72.71272
G1 X128.211 Y136.316 E72.74043
G1 X127.887 Y136.051 E72.76828
G1 X127.494 Y135.914 E72.79596
G1 X127.075 Y135.918 E72.82383
G1 X126.685 Y136.068 E72.85163
G1 X126.369 Y136.34 E72.87937
G1 X126.165 Y136.704 E72.90712
G1 X126.098 Y137.116 E72.93489
G1 X126.176 Y137.526 E72.96265
G1 X126.389 Y137.884 E72.99036
G1 X126.713 Y138.149 E73.01821
G1 X127.106 Y138.286 E73.04589
G1 X127.525 Y138.282 E73.07376
G0 F3600 X127.712 Y138.211
G0 X127.89 Y138.676
G0 X127.035 Y138.726
G0 X126.051 Y138.176
G0 X75.172 Y74.728
G0 X75.6 Y74.3
G1 F1800 X86.191 Y74.3 E73.77828
G1 X86.973 Y73.86 E73.83797
G1 X87.837 Y73.327 E73.9055
G1 X88.676 Y72.751 E73.97319
G1 X89.487 Y72.136 E74.0409
G1 X90.266 Y71.483 E74.10852
G1 X91.014 Y70.794 E74.17617
G1 X91.728 Y70.068 E74.2439
G1 X92.405 Y69.309 E74.31156
G1 X93.046 Y68.518 E74.37928
G1 X93.648 Y67.698 E74.44695
G1 X94.209 Y66.85 E74.51459
G1 X94.73 Y65.975 E74.58233
G1 X95.208 Y65.077 E74.65
G1 X95.642 Y64.156 E74.71773
G1 X96.031 Y63.217 E74.78534
G1 X96.375 Y62.259 E74.85305
G1 X96.72 Y61.123 E74.93202
G1 X96.962 Y60.134 E74.99975
G1 X97.156 Y59.134 E75.06751
G1 X97.303 Y58.127 E75.13521
G1 X97.4 Y57.11 E75.20316
G1 X97.4 Y53.9 E75.41669
G1 X75.6 Y53.9 E76.86684
G1 X75.6 Y74.3 E78.22385
G0 F3600 X75.8 Y74.3
G0 X75.8 Y74.8
G0 X75.172 Y53.472
G0 X88.164 Y51.151
G0 X88.659 Y51.222
G1 F1800 X88.6 Y51.635 E78.2516
G1 X88.683 Y52.043 E78.2793
G1 X88.903 Y52.399 E78.30714
G1 X89.229 Y52.657 E78.33479
G1 X89.626 Y52.789 E78.36262
G1 X90.043 Y52.776 E78.39037
G1 X90.431 Y52.622 E78.41814
G1 X90.742 Y52.345 E78.44585
G1 X90.941 Y51.978 E78.47362
G1 X91 Y51.565 E78.50137
G1 X90.917 Y51.157 E78.52907
G1 X90.697 Y50.801 E78.5569
G1 X90.371 Y50.543 E78.58456
G1 X89.974 Y50.411 E78.61239
G1 X89.557 Y50.424 E78.64014
G1 X89.169 Y50.578 E78.66791
G1 X88.858 Y50.855 E78.69561
G1 X88.659 Y51.222 E78.72338
G0 F3600 X88.631 Y51.42
G0 X88.136 Y51.349
G0 X88.511 Y50.577
G0 X89.467 Y49.987
G0 X119.334 Y51.151
G0 X119.829 Y51.222
G1 F1800 X119.77 Y51.635 E78.75114
G1 X119.853 Y52.043 E78.77883
G1 X120.073 Y52.399 E78.80667
G1 X120.399 Y52.657 E78.83433
G1 X120.796 Y52.789 E78.86216
G1 X121.212 Y52.776 E78.88984
G1 X121.6 Y52.622 E78.91761
G1 X121.912 Y52.345 E78.94536
G1 X122.11 Y51.978 E78.9731
G1 X122.17 Y51.565 E79.00086
G1 X122.086 Y51.157 E79.02857
G1 X121.867 Y50.801 E79.05638
G1 X121.54 Y50.543 E79.08408
G1 X121.143 Y50.411 E79.11191
G1 X120.727 Y50.424 E79.1396
G1 X120.339 Y50.578 E79.16737
G1 X120.028 Y50.855 E79.19507
G1 X119.829 Y51.222 E79.22284
G0 F3600 X119.801 Y51.42
G0 X119.067 Y50.969
;TYPE:SKIN
G1 F1800 X118.968 Y51.659 E79.26921
G1 X119.107 Y52.339 E79.31538
G1 X119.474 Y52.932 E79.36177
G1 X120.017 Y53.363 E79.40789
G1 X120.68 Y53.583 E79.45436
G1 X121.374 Y53.562 E79.50054
G1 X122.021 Y53.305 E79.54685
G1 X122.54 Y52.843 E79.59307
G1 X122.872 Y52.231 E79.63939
G1 X122.972 Y51.541 E79.68577
G1 X122.832 Y50.861 E79.73195
G1 X122.466 Y50.268 E79.7783
G1 X121.921 Y49.837 E79.82452
G1 X121.259 Y49.617 E79.87093
G1 X120.565 Y49.638 E79.91711
G1 X119.918 Y49.895 E79.96342
G1 X119.4 Y50.357 E80.0096
G1 X119.067 Y50.969 E80.05594
G0 F3600 X120.104 Y50.198
G0 X123.821 Y48.89
G1 F1800 X124.061 Y48.931 E80.07214
G1 X124.214 Y49.019 E80.08388
G1 X124.356 Y49.185 E80.09841
G1 X124.408 Y49.476 E80.11807
G1 X124.41 Y121.133 E84.88472
G1 X124.41 Y124.192 E85.0882
G1 X129.517 Y137.043 E86.00808
G1 X129.753 Y137.687 E86.05371
G1 X129.943 Y138.304 E86.09665
G1 X130.113 Y138.982 E86.14315
G1 X130.246 Y139.661 E86.18918
G1 X130.33 Y140.282 E86.23086
G1 X130.388 Y140.977 E86.27725
G1 X130.408 Y141.655 E86.32237
G1 X130.41 Y143.714 E86.45934
G1 X130.393 Y144.012 E86.47919
G1 X130.281 Y144.417 E86.50715
G1 X130.028 Y144.838 E86.53982
G1 X126.29 Y149.439 E86.93416
G1 X126.289 Y148.11 E87.02256
G1 X69.59 Y148.11 E90.79419
G1 X69.59 Y49.479 E97.35515
G1 X69.631 Y49.239 E97.37135
G1 X69.719 Y49.086 E97.38309
G1 X69.885 Y48.944 E97.39762
G1 X70.176 Y48.892 E97.41729
G1 X123.821 Y48.89 E100.98577
G0 F3600 X98.19 Y53.11
G1 F1800 X91.071 Y53.11 E101.45932
G1 X91.37 Y52.843 E101.48599
G1 X91.703 Y52.231 E101.53234
G1 X91.802 Y51.541 E101.57871
G1 X91.663 Y50.861 E101.62487
G1 X91.296 Y50.268 E101.67126
G1 X90.753 Y49.837 E101.71738
G1 X90.09 Y49.617 E101.76385
G1 X89.395 Y49.638 E101.8101
G1 X88.748 Y49.895 E101.85641
G1 X88.23 Y50.357 E101.90258
G1 X87.897 Y50.969 E101.94893
G1 X87.798 Y51.659 E101.9953
G1 X87.937 Y52.339 E102.04147
G1 X88.304 Y52.932 E102.08786
G1 X88.528 Y53.11 E102.10689
G1 X74.81 Y53.11 E103.01941
G1 X74.81 Y75.09 E104.48153
G1 X86.398 Y75.09 E105.25237
G1 X87.375 Y74.541 E105.32691
G1 X88.268 Y73.989 E105.39675
G1 X89.138 Y73.391 E105.46698
G1 X89.979 Y72.754 E105.53715
G1 X90.787 Y72.077 E105.60728
G1 X91.563 Y71.363 E105.67742
G1 X92.305 Y70.609 E105.74779
G1 X93.007 Y69.821 E105.81799
G1 X93.671 Y69 E105.88823
G1 X94.296 Y68.15 E105.95841
G1 X94.878 Y67.27 E106.0286
G1 X95.419 Y66.362 E106.0989
G1 X95.915 Y65.431 E106.16908
G1 X96.365 Y64.476 E106.2393
G1 X96.768 Y63.502 E106.30942
G1 X97.125 Y62.508 E106.37968
G1 X97.482 Y61.332 E106.46143
G1 X97.734 Y60.304 E106.53184
G1 X97.934 Y59.266 E106.60215
G1 X98.088 Y58.222 E106.67235
G1 X98.19 Y57.148 E106.74412
G1 X98.19 Y53.11 E107.01273
G0 F3600 X126.925 Y135.129
G1 F1800 X126.274 Y135.381 E107.05916
G1 X125.749 Y135.832 E107.1052
G1 X125.408 Y136.439 E107.15152
G1 X125.296 Y137.126 E107.19782
G1 X125.426 Y137.81 E107.24413
G1 X125.781 Y138.408 E107.29039
G1 X126.322 Y138.848 E107.33678
G1 X126.976 Y139.077 E107.38287
G1 X127.675 Y139.071 E107.42937
G1 X128.326 Y138.819 E107.47581
G1 X128.851 Y138.368 E107.52185
G1 X129.192 Y137.761 E107.56816
G1 X129.304 Y137.074 E107.61447
G1 X129.174 Y136.39 E107.66078
G1 X128.819 Y135.792 E107.70704
G1 X128.278 Y135.352 E107.75343
G1 X127.624 Y135.123 E107.79952
G1 X126.925 Y135.129 E107.84602
G0 F3600 X69.864 Y147.929
G1 F1800 X69.769 Y147.834 E107.85496
G0 F3600 X69.769 Y147.268
G1 F1800 X70.43 Y147.929 E107.91714
G0 F3600 X70.996 Y147.929
G1 F1800 X69.769 Y146.702 E108.03257
G0 F3600 X69.769 Y146.137
G1 F1800 X71.562 Y147.929 E108.2012
G0 F3600 X72.127 Y147.929
G1 F1800 X69.769 Y145.571 E108.42302
G0 F3600 X69.769 Y145.005
G1 F1800 X72.693 Y147.929 E108.69809
G0 F3600 X73.259 Y147.929
G1 F1800 X69.769 Y144.439 E109.02641
G0 F3600 X69.769 Y143.874
G1 F1800 X73.824 Y147.929 E109.40788
G0 F3600 X74.39 Y147.929
G1 F1800 X69.769 Y143.308 E109.8426
G0 F3600 X69.769 Y142.742
G1 F1800 X74.956 Y147.929 E110.33056
G0 F3600 X75.521 Y147.929
G1 F1800 X69.769 Y142.177 E110.87167
G0 F3600 X69.769 Y141.611
G1 F1800 X76.087 Y147.929 E111.46603
G0 F3600 X76.653 Y147.929
G1 F1800 X69.769 Y141.045 E112.11363
G0 F3600 X69.769 Y140.48
