;FLAVOR:Marlin
;TIME:1150
;Filament used: 1.21788m
;Layer height: 0.2
;MINX:43.226
;MINY:64.413
;MINZ:0.3
;MAXX:155.509
;MAXY:139.715
;MAXZ:2.7
;Generated with Cura_SteamEngine 4.2.1
M140 S60
M105
M190 S60
M104 S210
M105
M109 S210
M82 ;absolute extrusion mode
G28 ;Home
G1 Z15.0 F6000 ;Move the platform down 15mm
;Prime the extruder
G92 E0
G1 F200 E3
G92 E0
;
M117 Printing...        ☺
M141 S28
G92 E0
G92 E0
G1 F1500 E-5
;LAYER_COUNT:13
;LAYER:0
M107
G0 F3600 X47.322 Y66.095 Z0.3
;TYPE:SKIRT
G1 F1500 E0
G1 F1800 X47.971 Y65.645 E0.0394
G1 X48.662 Y65.263 E0.07879
G1 X49.388 Y64.952 E0.1182
G1 X50.442 Y64.646 E0.17295
G1 X50.711 Y64.588 E0.18668
G1 X51.49 Y64.461 E0.22606
G1 X52.355 Y64.413 E0.26928
G1 X107.283 Y64.414 E3.00965
G1 X146.285 Y64.413 E4.95547
G1 X147.074 Y64.453 E4.99488
G1 X147.854 Y64.573 E5.03425
G1 X148.619 Y64.77 E5.07366
G1 X149.114 Y64.944 E5.09984
G1 X149.317 Y65.023 E5.11071
G1 X150.037 Y65.346 E5.15008
G1 X150.721 Y65.741 E5.18948
G1 X151.362 Y66.202 E5.22888
G1 X151.953 Y66.726 E5.26828
G1 X152.545 Y67.378 E5.31222
G1 X152.717 Y67.59 E5.32584
G1 X153.183 Y68.227 E5.36521
G1 X153.582 Y68.909 E5.40463
G1 X153.91 Y69.627 E5.44402
G1 X154.164 Y70.375 E5.48343
G1 X154.277 Y70.825 E5.50657
G1 X154.357 Y71.188 E5.52512
G1 X154.488 Y71.967 E5.56453
G1 X154.54 Y72.847 E5.60851
G1 X154.544 Y74.417 E5.68684
G1 X154.544 Y74.436 E5.68778
G1 X154.545 Y90.024 E6.46547
G1 X154.467 Y91.128 E6.52069
G1 X154.387 Y91.688 E6.54891
G1 X154.235 Y92.463 E6.58831
G1 X154.065 Y93.052 E6.6189
G1 X153.914 Y93.505 E6.64272
G1 X153.626 Y94.24 E6.6821
G1 X153.158 Y95.124 E6.73201
G1 X152.896 Y95.55 E6.75696
G1 X152.449 Y96.201 E6.79636
G1 X152.093 Y96.634 E6.82432
G1 X151.777 Y96.991 E6.84811
G1 X151.224 Y97.555 E6.88751
G1 X150.482 Y98.16 E6.93528
G1 X148.976 Y99.24 E7.02774
G1 X148.951 Y99.258 E7.02927
G1 X150.173 Y100.114 E7.10371
G1 X150.753 Y100.562 E7.14027
G1 X151.11 Y100.866 E7.16367
G1 X151.685 Y101.408 E7.20309
G1 X152.252 Y102.07 E7.24657
G1 X152.556 Y102.468 E7.27156
G1 X153.003 Y103.119 E7.31096
G1 X153.278 Y103.605 E7.33882
G1 X153.5 Y104.032 E7.36283
G1 X153.828 Y104.75 E7.40221
G1 X154.135 Y105.694 E7.45173
G1 X154.259 Y106.178 E7.47666
G1 X154.456 Y107.262 E7.53163
G1 X154.497 Y107.635 E7.55035
G1 X154.544 Y108.488 E7.59297
G1 X154.542 Y122.674 E8.30071
G1 X154.72 Y122.995 E8.31902
G1 X155.032 Y123.72 E8.3584
G1 X155.269 Y124.473 E8.39778
G1 X155.428 Y125.247 E8.43721
G1 X155.509 Y126.032 E8.47658
G1 X155.509 Y126.822 E8.51599
G1 X155.43 Y127.608 E8.5554
G1 X155.272 Y128.381 E8.59476
G1 X155.036 Y129.135 E8.63418
G1 X154.629 Y130.053 E8.68428
G1 X151.969 Y135.132 E8.97032
G1 X151.567 Y135.812 E9.00973
G1 X150.944 Y136.632 E9.06111
G1 X150.73 Y136.878 E9.07738
G1 X150.182 Y137.447 E9.11679
G1 X149.58 Y137.958 E9.15618
G1 X148.929 Y138.405 E9.19558
G1 X148.477 Y138.662 E9.22152
G1 X148.247 Y138.783 E9.23449
G1 X147.53 Y139.115 E9.27391
G1 X146.784 Y139.372 E9.31327
G1 X145.824 Y139.586 E9.36234
G1 X145.601 Y139.621 E9.3736
G1 X144.816 Y139.703 E9.41298
G1 X144.392 Y139.715 E9.43414
G1 X142.247 Y139.715 E9.54116
G1 X141.959 Y139.71 E9.55553
G1 X140.905 Y139.671 E9.60815
G1 X140.262 Y139.62 E9.64033
G1 X139.563 Y139.536 E9.67545
G1 X139.099 Y139.466 E9.69886
G1 X138.406 Y139.34 E9.734
G1 X137.948 Y139.243 E9.75736
G1 X137.265 Y139.076 E9.79244
G1 X136.822 Y138.953 E9.81538
G1 X136.15 Y138.746 E9.85046
G1 X135.654 Y138.575 E9.87663
G1 X135.114 Y138.368 E9.90548
G1 X135.04 Y138.34 E9.90943
G1 X132.554 Y137.358 E10.04278
G1 X132.521 Y137.344 E10.04457
G1 X129.495 Y136.133 E10.20718
G1 X123.962 Y133.935 E10.50421
G1 X123.403 Y133.717 E10.53414
G1 X122.238 Y133.72 E10.59226
G1 X122.199 Y133.72 E10.59421
G1 X118.947 Y133.712 E10.75645
G1 X58.409 Y133.712 E13.77671
G1 X52.84 Y133.722 E14.05455
G1 X52.594 Y133.719 E14.06682
G1 X51.988 Y133.701 E14.09707
G1 X51.201 Y133.637 E14.13646
G1 X50.425 Y133.495 E14.17582
G1 X49.679 Y133.278 E14.21458
G1 X49.531 Y133.227 E14.22239
G1 X48.798 Y132.933 E14.26179
G1 X48.099 Y132.565 E14.3012
G1 X47.441 Y132.129 E14.34058
G1 X46.912 Y131.703 E14.37447
G1 X46.717 Y131.531 E14.38744
G1 X46.152 Y130.979 E14.42685
G1 X45.646 Y130.373 E14.46623
G1 X45.204 Y129.719 E14.50561
G1 X44.846 Y129.058 E14.54312
G1 X44.688 Y128.729 E14.56133
G1 X44.382 Y128 E14.60077
G1 X44.152 Y127.245 E14.64015
G1 X44 Y126.47 E14.67955
G1 X43.935 Y125.855 E14.7104
G1 X43.89 Y125.159 E14.7452
G1 X43.881 Y124.989 E14.75369
G1 X43.785 Y122.74 E14.866
G1 X43.784 Y122.706 E14.86769
G1 X43.607 Y118.088 E15.09825
G1 X43.606 Y118.064 E15.09945
G1 X43.506 Y115.233 E15.24078
G1 X43.504 Y115.189 E15.24298
G1 X43.424 Y112.49 E15.37769
G1 X43.424 Y112.464 E15.37899
G1 X43.353 Y109.763 E15.51379
G1 X43.351 Y109.699 E15.51698
G1 X43.269 Y105.165 E15.74322
G1 X43.268 Y105.108 E15.74607
G1 X43.248 Y103.245 E15.83902
G1 X43.248 Y103.216 E15.84046
G1 X43.229 Y100.543 E15.97382
G1 X43.229 Y100.498 E15.97607
G1 X43.226 Y98.228 E16.08932
G1 X43.226 Y98.182 E16.09161
G1 X43.236 Y96.025 E16.19923
G1 X43.236 Y95.986 E16.20117
G1 X43.259 Y93.609 E16.31977
G1 X43.26 Y93.541 E16.32316
G1 X43.361 Y88.016 E16.59885
G1 X43.363 Y87.927 E16.60329
G1 X43.547 Y81.756 E16.9113
G1 X43.549 Y81.697 E16.91425
G1 X43.695 Y77.782 E17.1097
G1 X43.697 Y77.751 E17.11125
G1 X43.905 Y72.718 E17.36256
G1 X43.981 Y71.908 E17.40315
G1 X44.042 Y71.492 E17.42413
G1 X44.196 Y70.718 E17.4635
G1 X44.427 Y69.963 E17.50289
G1 X44.734 Y69.235 E17.54231
G1 X44.996 Y68.738 E17.57034
G1 X45.1 Y68.557 E17.58075
G1 X45.527 Y67.893 E17.62014
G1 X46.02 Y67.276 E17.65954
G1 X46.572 Y66.712 E17.69891
G1 X47.099 Y66.267 E17.73333
G1 X47.322 Y66.095 E17.74738
G0 F3600 X47.567 Y66.411
G1 F1800 X48.199 Y65.974 E17.78571
G1 X48.874 Y65.605 E17.82409
G1 X49.583 Y65.307 E17.86246
G1 X50.526 Y65.037 E17.9114
G1 X50.795 Y64.979 E17.92512
G1 X51.555 Y64.856 E17.96353
G1 X52.355 Y64.813 E18.0035
G1 X107.283 Y64.814 E20.74387
G1 X146.285 Y64.813 E22.68969
G1 X147.053 Y64.853 E22.72806
G1 X147.813 Y64.972 E22.76644
G1 X148.556 Y65.17 E22.8048
G1 X148.969 Y65.317 E22.82667
G1 X149.172 Y65.396 E22.83754
G1 X149.873 Y65.712 E22.8759
G1 X150.538 Y66.099 E22.91429
G1 X151.159 Y66.552 E22.95263
G1 X151.729 Y67.068 E22.99099
G1 X152.235 Y67.63 E23.02872
G1 X152.407 Y67.842 E23.04234
G1 X152.859 Y68.463 E23.08066
G1 X153.245 Y69.129 E23.11907
G1 X153.56 Y69.83 E23.15741
G1 X153.887 Y70.911 E23.21375
G1 X153.967 Y71.274 E23.2323
G1 X154.093 Y72.033 E23.27068
G1 X154.14 Y72.848 E23.31141
G1 X154.144 Y74.418 E23.38974
G1 X154.144 Y74.437 E23.39069
G1 X154.145 Y90.025 E24.16837
G1 X154.071 Y91.072 E24.22074
G1 X153.991 Y91.632 E24.24896
G1 X153.842 Y92.386 E24.28731
G1 X153.685 Y92.925 E24.31531
G1 X153.534 Y93.378 E24.33914
G1 X153.253 Y94.094 E24.37751
G1 X152.817 Y94.915 E24.42389
G1 X152.555 Y95.341 E24.44884
G1 X152.119 Y95.974 E24.48719
G1 X151.793 Y96.369 E24.51274
G1 X151.477 Y96.726 E24.53652
G1 X150.938 Y97.274 E24.57487
G1 X150.248 Y97.835 E24.61924
G1 X148.742 Y98.915 E24.7117
G1 X148.677 Y98.961 E24.71567
G1 X148.254 Y99.257 E24.74143
G1 X149.943 Y100.441 E24.84433
G1 X150.494 Y100.867 E24.87908
G1 X150.851 Y101.171 E24.90247
G1 X151.41 Y101.699 E24.94084
G1 X151.934 Y102.313 E24.98111
G1 X152.238 Y102.711 E25.00609
G1 X152.672 Y103.346 E25.04447
G1 X152.923 Y103.789 E25.06987
G1 X153.145 Y104.216 E25.09388
G1 X153.464 Y104.916 E25.13226
G1 X153.747 Y105.793 E25.17823
G1 X153.871 Y106.277 E25.20316
G1 X154.059 Y107.305 E25.2553
G1 X154.1 Y107.678 E25.27402
G1 X154.144 Y108.488 E25.31449
G1 X154.142 Y122.767 E26.02687
G1 X154.455 Y123.37 E26.06077
G1 X154.736 Y124.085 E26.09909
G1 X154.942 Y124.827 E26.13751
G1 X155.07 Y125.585 E26.17586
G1 X155.119 Y126.353 E26.21426
G1 X155.087 Y127.121 E26.25261
G1 X154.976 Y127.882 E26.29098
G1 X154.786 Y128.628 E26.32938
G1 X154.52 Y129.349 E26.36772
G1 X154.274 Y129.867 E26.39633
G1 X151.614 Y134.946 E26.68237
G1 X151.223 Y135.608 E26.72073
G1 X150.642 Y136.37 E26.76854
G1 X150.428 Y136.616 E26.7848
G1 X149.894 Y137.169 E26.82316
G1 X149.305 Y137.664 E26.86154
G1 X148.668 Y138.095 E26.89991
G1 X148.29 Y138.308 E26.92156
G1 X148.06 Y138.429 E26.93452
G1 X147.362 Y138.751 E26.97287
G1 X146.634 Y138.999 E27.01124
G1 X145.762 Y139.191 E27.05579
G1 X145.539 Y139.226 E27.06705
G1 X144.392 Y139.315 E27.12445
G1 X142.247 Y139.315 E27.23146
G1 X141.973 Y139.31 E27.24513
G1 X140.919 Y139.271 E27.29775
G1 X140.31 Y139.223 E27.32823
G1 X139.611 Y139.139 E27.36336
G1 X139.17 Y139.073 E27.3856
G1 X138.477 Y138.947 E27.42074
G1 X138.043 Y138.854 E27.44289
G1 X137.36 Y138.687 E27.47797
G1 X136.94 Y138.571 E27.4997
G1 X136.268 Y138.364 E27.53479
G1 X135.797 Y138.202 E27.55963
G1 X135.257 Y137.995 E27.58849
G1 X135.187 Y137.968 E27.59223
G1 X132.701 Y136.986 E27.72558
G1 X132.67 Y136.973 E27.72726
G1 X129.625 Y135.754 E27.8909
G1 X124.153 Y133.58 E28.18465
G1 X123.478 Y133.317 E28.22079
G1 X122.237 Y133.32 E28.28271
G1 X122.2 Y133.32 E28.28455
G1 X118.948 Y133.312 E28.4468
G1 X58.408 Y133.312 E31.46715
G1 X52.839 Y133.322 E31.74499
G1 X52.606 Y133.319 E31.75661
G1 X52 Y133.301 E31.78686
G1 X51.234 Y133.238 E31.82521
G1 X50.478 Y133.096 E31.86358
G1 X49.809 Y132.9 E31.89836
G1 X49.661 Y132.849 E31.90617
G1 X48.948 Y132.561 E31.94454
G1 X48.269 Y132.201 E31.98288
G1 X47.63 Y131.772 E32.02128
G1 X47.177 Y131.403 E32.05043
G1 X46.982 Y131.231 E32.0634
G1 X46.432 Y130.693 E32.10178
G1 X45.942 Y130.1 E32.14016
G1 X45.515 Y129.46 E32.17854
G1 X45.206 Y128.885 E32.21111
G1 X45.048 Y128.556 E32.22932
G1 X44.752 Y127.846 E32.2677
G1 X44.531 Y127.109 E32.30608
G1 X44.387 Y126.354 E32.34443
G1 X44.334 Y125.829 E32.37076
G1 X44.289 Y125.133 E32.40555
G1 X44.281 Y124.972 E32.41359
G1 X44.185 Y122.723 E32.5259
G1 X44.183 Y122.69 E32.52755
G1 X44.006 Y118.072 E32.75811
G1 X44.006 Y118.05 E32.75921
G1 X43.906 Y115.219 E32.90054
G1 X43.904 Y115.177 E32.90263
G1 X43.824 Y112.478 E33.03735
G1 X43.824 Y112.453 E33.03859
G1 X43.753 Y109.752 E33.17339
G1 X43.751 Y109.692 E33.17639
G1 X43.669 Y105.158 E33.40263
G1 X43.668 Y105.103 E33.40537
G1 X43.648 Y103.24 E33.49832
G1 X43.648 Y103.214 E33.49962
G1 X43.629 Y100.541 E33.63298
G1 X43.629 Y100.498 E33.63512
G1 X43.626 Y98.228 E33.74838
G1 X43.626 Y98.184 E33.75057
G1 X43.636 Y96.027 E33.85819
G1 X43.636 Y95.989 E33.86008
G1 X43.659 Y93.612 E33.97868
G1 X43.66 Y93.549 E33.98182
G1 X43.761 Y88.024 E34.25751
G1 X43.763 Y87.938 E34.2618
G1 X43.947 Y81.767 E34.56981
G1 X43.949 Y81.712 E34.57256
G1 X44.095 Y77.797 E34.76801
G1 X44.096 Y77.767 E34.76951
G1 X44.304 Y72.734 E35.02082
G1 X44.376 Y71.966 E35.0593
G1 X44.437 Y71.55 E35.08028
G1 X44.588 Y70.796 E35.11864
G1 X44.817 Y70.062 E35.157
G1 X45.12 Y69.355 E35.19538
G1 X45.343 Y68.937 E35.21902
G1 X45.447 Y68.756 E35.22943
G1 X45.864 Y68.11 E35.26779
G1 X46.346 Y67.511 E35.30615
G1 X46.888 Y66.965 E35.34453
G1 X47.344 Y66.583 E35.37421
G1 X47.567 Y66.411 E35.38826
G0 F3600 X47.811 Y66.728
G1 F1800 X48.427 Y66.304 E35.42557
G1 X49.084 Y65.947 E35.46287
G1 X49.776 Y65.663 E35.50019
G1 X50.611 Y65.428 E35.54347
G1 X50.88 Y65.37 E35.5572
G1 X51.618 Y65.252 E35.59448
G1 X52.355 Y65.213 E35.6313
G1 X107.283 Y65.214 E38.37167
G1 X146.285 Y65.213 E40.31749
G1 X147.032 Y65.253 E40.35481
G1 X147.771 Y65.372 E40.39216
G1 X148.824 Y65.69 E40.44703
G1 X149.027 Y65.769 E40.4579
G1 X149.708 Y66.077 E40.49519
G1 X150.353 Y66.456 E40.53251
G1 X150.954 Y66.902 E40.56985
G1 X151.504 Y67.409 E40.60717
G1 X151.924 Y67.882 E40.63873
G1 X152.096 Y68.094 E40.65235
G1 X152.536 Y68.699 E40.68967
G1 X152.908 Y69.348 E40.72699
G1 X153.209 Y70.032 E40.76427
G1 X153.496 Y70.997 E40.8145
G1 X153.576 Y71.36 E40.83305
G1 X153.698 Y72.099 E40.87042
G1 X153.74 Y72.849 E40.90789
G1 X153.744 Y74.419 E40.98622
G1 X153.744 Y74.437 E40.98712
G1 X153.745 Y90.025 E41.76481
G1 X153.675 Y91.015 E41.81432
G1 X153.595 Y91.575 E41.84254
G1 X153.449 Y92.309 E41.87988
G1 X153.306 Y92.799 E41.90535
G1 X153.155 Y93.252 E41.92917
G1 X152.881 Y93.948 E41.96649
G1 X152.477 Y94.705 E42.00929
G1 X152.215 Y95.131 E42.03425
G1 X151.789 Y95.746 E42.07157
G1 X151.494 Y96.104 E42.09471
G1 X151.178 Y96.461 E42.1185
G1 X150.653 Y96.993 E42.15579
G1 X150.015 Y97.509 E42.19673
G1 X148.509 Y98.589 E42.28918
G1 X148.447 Y98.634 E42.29301
G1 X147.557 Y99.257 E42.34721
G1 X149.714 Y100.769 E42.47862
G1 X150.234 Y101.171 E42.51142
G1 X150.591 Y101.475 E42.53481
G1 X151.134 Y101.99 E42.57215
G1 X151.616 Y102.556 E42.60924
G1 X151.92 Y102.954 E42.63422
G1 X152.342 Y103.572 E42.67156
G1 X152.568 Y103.974 E42.69456
G1 X152.79 Y104.401 E42.71857
G1 X153.099 Y105.082 E42.75588
G1 X153.36 Y105.893 E42.79839
G1 X153.484 Y106.377 E42.82331
G1 X153.661 Y107.349 E42.87261
G1 X153.702 Y107.722 E42.89133
G1 X153.744 Y108.488 E42.9296
G1 X153.742 Y122.882 E43.64772
G1 X153.857 Y123.068 E43.65863
G1 X154.181 Y123.742 E43.69594
G1 X154.431 Y124.447 E43.73326
G1 X154.605 Y125.175 E43.7706
G1 X154.7 Y125.917 E43.80792
G1 X154.715 Y126.665 E43.84525
G1 X154.651 Y127.41 E43.88255
G1 X154.507 Y128.144 E43.91987
G1 X154.286 Y128.859 E43.95721
G1 X153.92 Y129.682 E44.00214
G1 X151.26 Y134.761 E44.28818
G1 X150.878 Y135.404 E44.3255
G1 X150.34 Y136.107 E44.36966
G1 X150.126 Y136.353 E44.38593
G1 X149.606 Y136.891 E44.42326
G1 X149.031 Y137.369 E44.46056
G1 X148.104 Y137.954 E44.51525
G1 X147.874 Y138.075 E44.52822
G1 X147.194 Y138.387 E44.56554
G1 X146.485 Y138.626 E44.60287
G1 X145.7 Y138.795 E44.64293
G1 X145.477 Y138.83 E44.65419
G1 X144.392 Y138.915 E44.70849
G1 X142.247 Y138.915 E44.8155
G1 X141.988 Y138.91 E44.82843
G1 X140.934 Y138.871 E44.88105
G1 X140.358 Y138.826 E44.90987
G1 X139.659 Y138.742 E44.945
G1 X139.242 Y138.679 E44.96604
G1 X138.549 Y138.553 E45.00118
G1 X138.138 Y138.466 E45.02214
G1 X137.455 Y138.299 E45.05721
G1 X137.057 Y138.189 E45.07782
G1 X136.385 Y137.982 E45.1129
G1 X135.94 Y137.828 E45.13639
G1 X135.4 Y137.621 E45.16524
G1 X135.334 Y137.595 E45.16878
G1 X132.848 Y136.613 E45.30213
G1 X132.818 Y136.602 E45.30373
G1 X129.773 Y135.383 E45.46736
G1 X129.773 Y135.382 E45.46741
G1 X124.298 Y133.207 E45.76133
G1 X123.553 Y132.917 E45.80121
G1 X122.236 Y132.92 E45.86692
G1 X122.201 Y132.92 E45.86866
G1 X118.949 Y132.912 E46.03091
G1 X58.408 Y132.912 E49.05131
G1 X52.839 Y132.922 E49.32915
G1 X52.618 Y132.919 E49.34018
G1 X52.012 Y132.901 E49.37042
G1 X51.267 Y132.839 E49.40772
G1 X50.532 Y132.697 E49.44507
G1 X49.939 Y132.522 E49.47591
G1 X49.791 Y132.471 E49.48372
G1 X49.098 Y132.19 E49.52103
G1 X48.439 Y131.836 E49.55835
G1 X47.821 Y131.415 E49.59566
G1 X47.442 Y131.103 E49.62015
G1 X47.247 Y130.931 E49.63312
G1 X46.713 Y130.407 E49.67045
G1 X46.238 Y129.828 E49.70781
G1 X45.828 Y129.203 E49.7451
G1 X45.567 Y128.711 E49.77289
G1 X45.409 Y128.382 E49.7911
G1 X45.122 Y127.692 E49.82838
G1 X44.91 Y126.974 E49.86573
G1 X44.775 Y126.238 E49.90306
G1 X44.734 Y125.804 E49.92481
G1 X44.689 Y125.108 E49.95961
G1 X44.68 Y124.955 E49.96725
G1 X44.584 Y122.706 E50.07956
G1 X44.583 Y122.675 E50.08111
G1 X44.406 Y118.057 E50.31167
G1 X44.405 Y118.036 E50.31272
G1 X44.305 Y115.205 E50.45404
G1 X44.304 Y115.165 E50.45604
G1 X44.224 Y112.466 E50.59075
G1 X44.223 Y112.443 E50.5919
G1 X44.152 Y109.742 E50.7267
G1 X44.151 Y109.685 E50.72955
G1 X44.069 Y105.151 E50.95579
G1 X44.068 Y105.099 E50.95838
G1 X44.048 Y103.236 E51.05133
G1 X44.048 Y103.211 E51.05258
G1 X44.029 Y100.538 E51.18594
G1 X44.029 Y100.497 E51.18798
G1 X44.026 Y98.227 E51.30123
G1 X44.026 Y98.186 E51.30328
G1 X44.036 Y96.029 E51.41089
G1 X44.036 Y95.993 E51.41269
G1 X44.059 Y93.616 E51.53128
G1 X44.06 Y93.556 E51.53428
G1 X44.161 Y88.031 E51.80997
G1 X44.163 Y87.95 E51.81401
G1 X44.347 Y81.779 E52.12202
G1 X44.349 Y81.727 E52.12462
G1 X44.495 Y77.812 E52.32007
G1 X44.496 Y77.784 E52.32147
G1 X44.704 Y72.751 E52.57278
G1 X44.772 Y72.024 E52.60921
G1 X44.833 Y71.608 E52.63019
G1 X44.981 Y70.875 E52.66749
G1 X45.206 Y70.162 E52.70479
G1 X45.506 Y69.477 E52.7421
G1 X45.69 Y69.137 E52.76139
G1 X45.794 Y68.956 E52.77181
G1 X46.2 Y68.328 E52.80911
G1 X46.672 Y67.747 E52.84646
G1 X47.203 Y67.22 E52.88378
G1 X47.588 Y66.9 E52.90876
G1 X47.811 Y66.728 E52.92281
G0 F3600 X48.055 Y67.045
