;FLAVOR:Marlin
;TIME:3989
;Filament used: 4.10113m
;Layer height: 0.2
;MINX:65.923
;MINY:46.3
;MINZ:0.4
;MAXX:135.501
;MAXY:153.698
;MAXZ:12
;Generated with Cura_SteamEngine 4.2.1
M140 S60
M105
M190 S60
M104 S200
M105
M109 S200
M82 ;absolute extrusion mode
G28 ;Home
G1 Z15.0 F6000 ;Move the platform down 15mm
;Prime the extruder
G92 E0
G1 F200 E3
G92 E0
;
M117 Printing...        ☺
M141 S28
G92 E0
G92 E0
G1 F1500 E-3
;LAYER_COUNT:59
;LAYER:0
M107
G0 F3600 X67.504 Y48.055 Z0.4
;TYPE:SKIRT
G1 F1500 E0
G1 F1800 X67.935 Y47.6 E0.04169
G1 X68.246 Y47.33 E0.06909
G1 X68.653 Y47.029 E0.10276
G1 X69.131 Y46.785 E0.13846
G1 X69.651 Y46.572 E0.17584
G1 X70.133 Y46.418 E0.2095
G1 X70.706 Y46.337 E0.24799
G1 X70.908 Y46.327 E0.26145
G1 X70.975 Y46.324 E0.26591
G1 X71.293 Y46.315 E0.28707
G1 X71.33 Y46.314 E0.28953
G1 X71.802 Y46.306 E0.32094
G1 X71.831 Y46.306 E0.32286
G1 X72.594 Y46.3 E0.37362
G1 X72.619 Y46.3 E0.37528
G1 X124.195 Y46.302 E3.80613
G1 X124.241 Y46.302 E3.80919
G1 X124.937 Y46.312 E3.8555
G1 X125.392 Y46.351 E3.88587
G1 X125.657 Y46.393 E3.90372
G1 X125.744 Y46.408 E3.90959
G1 X125.926 Y46.442 E3.92191
G1 X126.414 Y46.574 E3.95554
G1 X126.879 Y46.783 E3.98945
G1 X127.325 Y47.028 E4.0233
G1 X127.747 Y47.306 E4.05692
G1 X128.2 Y47.735 E4.09842
G1 X128.47 Y48.046 E4.12581
G1 X128.771 Y48.453 E4.15949
G1 X129.013 Y48.925 E4.19477
G1 X129.224 Y49.437 E4.23161
G1 X129.379 Y49.918 E4.26523
G1 X129.459 Y50.464 E4.30193
G1 X129.472 Y50.68 E4.31633
G1 X129.477 Y50.807 E4.32478
G1 X129.492 Y51.547 E4.37402
G1 X129.493 Y51.585 E4.37655
G1 X129.5 Y52.404 E4.43103
G1 X129.5 Y52.431 E4.43282
G1 X129.499 Y106.782 E8.04827
G1 X129.539 Y109.58 E8.23441
G1 X129.654 Y112.297 E8.41531
G1 X129.849 Y115.043 E8.59843
G1 X130.117 Y117.747 E8.77918
G1 X130.466 Y120.478 E8.96233
G1 X130.888 Y123.167 E9.14339
G1 X131.391 Y125.872 E9.32641
G1 X131.961 Y128.52 E9.50659
G1 X132.617 Y131.199 E9.69007
G1 X133.345 Y133.842 E9.87243
G1 X134.14 Y136.441 E10.05322
G1 X134.756 Y138.314 E10.18438
G1 X134.799 Y138.455 E10.19418
G1 X134.969 Y139.065 E10.23631
G1 X135.01 Y139.231 E10.24768
G1 X135.172 Y139.961 E10.29742
G1 X135.198 Y140.093 E10.30637
G1 X135.245 Y140.357 E10.32421
G1 X135.258 Y140.436 E10.32954
G1 X135.34 Y140.974 E10.36574
G1 X135.355 Y141.081 E10.37292
G1 X135.383 Y141.318 E10.3888
G1 X135.392 Y141.401 E10.39435
G1 X135.443 Y141.957 E10.43149
G1 X135.45 Y142.055 E10.43803
G1 X135.476 Y142.484 E10.46662
G1 X135.48 Y142.568 E10.47221
G1 X135.49 Y142.859 E10.49158
G1 X135.492 Y142.944 E10.49724
G1 X135.501 Y144.09 E10.57347
G1 X135.501 Y144.121 E10.57553
G1 X135.5 Y144.665 E10.61172
G1 X135.5 Y144.714 E10.61498
G1 X135.491 Y145.234 E10.64958
G1 X135.481 Y145.43 E10.66263
G1 X135.432 Y146.054 E10.70427
G1 X135.303 Y146.737 E10.7505
G1 X135.242 Y146.937 E10.76441
G1 X135.179 Y147.123 E10.77748
G1 X135.021 Y147.546 E10.80751
G1 X134.719 Y148.15 E10.85243
G1 X134.616 Y148.311 E10.86515
G1 X134.508 Y148.469 E10.87788
G1 X134.239 Y148.839 E10.90831
G1 X133.911 Y149.223 E10.9419
G1 X133.677 Y149.434 E10.96286
G1 X133.177 Y149.843 E11.00583
G1 X132.686 Y150.174 E11.04522
G1 X132.055 Y150.519 E11.09306
G1 X132.007 Y150.545 E11.09669
G1 X130.896 Y151.128 E11.18015
G1 X130.887 Y151.132 E11.18081
G1 X127.272 Y153.014 E11.45191
G1 X127.229 Y153.036 E11.45513
G1 X126.619 Y153.342 E11.50052
G1 X126.15 Y153.533 E11.53421
G1 X125.658 Y153.647 E11.56781
G1 X125.257 Y153.681 E11.59458
G1 X124.56 Y153.697 E11.64095
G1 X124.487 Y153.698 E11.64581
G1 X70.761 Y153.698 E15.21968
G1 X70.063 Y153.688 E15.26611
G1 X69.822 Y153.675 E15.28217
G1 X69.578 Y153.653 E15.29846
G1 X69.458 Y153.64 E15.30649
G1 X69.146 Y153.6 E15.32742
G1 X68.651 Y153.496 E15.36106
G1 X68.272 Y153.359 E15.38787
G1 X67.956 Y153.221 E15.41081
G1 X67.51 Y152.982 E15.44447
G1 X67.108 Y152.677 E15.47804
G1 X66.758 Y152.312 E15.51167
G1 X66.571 Y152.059 E15.5326
G1 X66.48 Y151.922 E15.54354
G1 X66.235 Y151.48 E15.57716
G1 X66.062 Y151.005 E15.61079
G1 X65.966 Y150.508 E15.64446
G1 X65.946 Y150.205 E15.66466
G1 X65.934 Y149.49 E15.71223
G1 X65.934 Y149.445 E15.71522
G1 X65.923 Y145.392 E15.98483
G1 X65.923 Y145.374 E15.98603
G1 X65.932 Y142.184 E16.19823
G1 X65.946 Y141.899 E16.21721
G1 X66.142 Y139.771 E16.35936
G1 X66.342 Y136.985 E16.54516
G1 X66.459 Y134.274 E16.72567
G1 X66.501 Y131.401 E16.9168
G1 X66.501 Y86.263 E19.91939
G1 X66.502 Y51.605 E22.22485
G1 X66.502 Y51.559 E22.22791
G1 X66.512 Y50.861 E22.27435
G1 X66.551 Y50.407 E22.30466
G1 X66.594 Y50.135 E22.32298
G1 X66.612 Y50.032 E22.32993
G1 X66.645 Y49.86 E22.34158
G1 X66.78 Y49.373 E22.3752
G1 X66.982 Y48.925 E22.40789
G1 X67.227 Y48.478 E22.4418
G1 X67.504 Y48.055 E22.47543
G1 F1500 E19.47543
;MESH:Base.stl
G0 F3600 X69.056 Y50.734
G0 X70.321 Y50.951
G0 X72.956 Y58.692
G0 X73.026 Y58.622
;TYPE:WALL-INNER
G1 F1500 E22.47543
G1 F1800 X77.226 Y58.622 E22.75482
G1 X77.226 Y54.422 E23.0342
G1 X73.026 Y54.422 E23.31359
G1 X73.026 Y58.622 E23.59297
G0 F3600 X72.956 Y58.692
G0 X116.026 Y58.769
G0 X116.096 Y58.699
G1 F1800 X120.296 Y58.699 E23.87236
G1 X120.296 Y54.499 E24.15174
G1 X116.096 Y54.499 E24.43113
G1 X116.096 Y58.699 E24.71051
G0 F3600 X116.026 Y58.769
G0 X125.637 Y144.657
G0 X125.707 Y144.587
G1 F1800 X128.907 Y144.587 E24.92338
G1 X128.907 Y140.387 E25.20276
G1 X125.707 Y140.387 E25.41563
G1 X125.707 Y144.587 E25.69501
G0 F3600 X125.637 Y144.657
G0 X71.551 Y146.494
G0 X71.481 Y146.424
G1 F1800 X71.481 Y143.224 E25.90788
G1 X69.729 Y143.224 E26.02442
G1 X69.729 Y143.087 E26.03354
G1 X69.722 Y142.214 E26.09161
G1 X69.731 Y142.144 E26.0963
G1 X69.755 Y142.094 E26.09999
G1 X69.928 Y141.973 E26.11404
G1 X70.301 Y141.841 E26.14036
G1 X70.301 Y86.263 E29.83742
G1 X70.302 Y50.95 E32.18645
G1 X70.358 Y50.628 E32.20819
G1 X70.494 Y50.393 E32.22625
G1 X70.704 Y50.216 E32.24452
G1 X70.966 Y50.121 E32.26306
G1 X72.255 Y50.1 E32.34882
G1 X124.85 Y50.102 E35.84745
G1 X125.172 Y50.158 E35.86919
G1 X125.407 Y50.294 E35.88725
G1 X125.584 Y50.504 E35.90552
G1 X125.679 Y50.766 E35.92406
G1 X125.7 Y52.053 E36.00968
G1 X125.699 Y106.918 E39.65932
G1 X125.698 Y125.634 E40.90431
G1 X130.789 Y138.444 E41.82127
G1 X131.023 Y139.098 E41.86747
G1 X131.183 Y139.585 E41.90157
G1 X131.383 Y140.353 E41.95436
G1 X131.527 Y141.084 E42.00392
G1 X131.629 Y141.839 E42.0546
G1 X131.686 Y142.606 E42.10576
G1 X131.699 Y143.185 E42.14429
G1 X131.701 Y144.114 E42.20609
G1 X131.698 Y145.302 E42.28511
G1 X131.66 Y145.689 E42.31098
G1 X131.494 Y146.156 E42.34395
G1 X131.212 Y146.556 E42.3765
G1 X130.814 Y146.878 E42.41056
G1 X129.268 Y147.691 E42.52675
G1 X125.027 Y149.898 E42.84478
G1 X70.139 Y149.898 E46.49594
G1 X69.735 Y149.853 E46.52298
G1 X69.726 Y146.624 E46.73778
G1 X69.726 Y146.424 E46.75108
G1 X69.926 Y146.424 E46.7597
G1 X71.481 Y146.424 E46.86314
G0 F3600 X71.551 Y146.494
G0 X69.887 Y146.452
G0 X69.9 Y146.024
;TYPE:WALL-OUTER
G1 F1800 X71.081 Y146.024 E46.9417
G1 X71.081 Y143.624 E47.10134
G1 X69.9 Y143.624 E47.17991
G1 X69.9 Y146.024 E47.33955
G0 F3600 X70.1 Y146.024
G0 X69.815 Y146.024
G0 X69.887 Y143.196
G0 X70.401 Y141.558
G0 X69.901 Y141.558
G1 F1800 X69.901 Y86.263 E51.01779
G1 X69.902 Y50.917 E53.36902
G1 X69.976 Y50.49 E53.39785
G1 X70.183 Y50.132 E53.42535
G1 X70.502 Y49.864 E53.45307
G1 X70.892 Y49.722 E53.48068
G1 X72.249 Y49.7 E53.57096
G1 X124.883 Y49.702 E57.07219
G1 X125.31 Y49.776 E57.10101
G1 X125.668 Y49.983 E57.12852
G1 X125.936 Y50.302 E57.15624
G1 X126.078 Y50.692 E57.18385
G1 X126.1 Y52.053 E57.27439
G1 X126.099 Y106.918 E60.92403
G1 X126.098 Y125.557 E62.1639
G1 X131.166 Y138.309 E63.0767
G1 X131.4 Y138.963 E63.1229
G1 X131.568 Y139.476 E63.15881
G1 X131.77 Y140.252 E63.21215
G1 X131.921 Y141.016 E63.26396
G1 X132.028 Y141.809 E63.31719
G1 X132.086 Y142.586 E63.36902
G1 X132.099 Y143.184 E63.4088
G1 X132.101 Y144.115 E63.47074
G1 X132.098 Y145.321 E63.55096
G1 X132.053 Y145.778 E63.58151
G1 X131.852 Y146.343 E63.6214
G1 X131.507 Y146.832 E63.66121
G1 X131.037 Y147.213 E63.70145
G1 X129.453 Y148.046 E63.8205
G1 X125.126 Y150.298 E64.14499
G1 X70.113 Y150.298 E67.80447
G1 X69.584 Y150.239 E67.83987
G1 X69.359 Y150.135 E67.85636
G1 X69.336 Y150.099 E67.8592
G1 X69.323 Y145.37 E68.17378
G1 X69.329 Y143.088 E68.32558
G1 X69.322 Y142.191 E68.38525
G1 X69.342 Y142.028 E68.39617
G1 X69.44 Y141.826 E68.41111
G1 X69.743 Y141.614 E68.43571
G1 X69.901 Y141.558 E68.44686
G0 F3600 X69.901 Y141.358
G0 X70.401 Y141.358
G0 X125.607 Y144.187
G0 X126.107 Y144.187
G1 F1800 X128.507 Y144.187 E68.60651
G1 X128.507 Y140.787 E68.83268
G1 X126.107 Y140.787 E68.99232
G1 X126.107 Y144.187 E69.21849
G0 F3600 X126.307 Y144.187
G0 X126.307 Y144.687
G0 X115.996 Y58.299
G0 X116.496 Y58.299
G1 F1800 X119.896 Y58.299 E69.44466
G1 X119.896 Y54.899 E69.67083
G1 X116.496 Y54.899 E69.897
G1 X116.496 Y58.299 E70.12317
G0 F3600 X116.696 Y58.299
G0 X116.696 Y58.799
G0 X72.998 Y58.65
G0 X73.426 Y58.222
G1 F1800 X76.826 Y58.222 E70.34934
G1 X76.826 Y54.822 E70.57551
G1 X73.426 Y54.822 E70.80168
G1 X73.426 Y58.222 E71.02784
G0 F3600 X73.626 Y58.222
G0 X73.626 Y58.722
G0 X72.636 Y59.012
;TYPE:SKIN
G1 F1800 X77.616 Y59.012 E71.35912
G1 X77.616 Y54.032 E71.69039
G1 X72.636 Y54.032 E72.02166
G1 X72.636 Y59.012 E72.35293
G0 F3600 X70.692 Y50.983
G1 F1800 X70.73 Y50.762 E72.36785
G1 X70.796 Y50.648 E72.37661
G1 X70.902 Y50.559 E72.38581
G1 X71.037 Y50.509 E72.39539
G1 X72.261 Y50.49 E72.47682
G1 X124.817 Y50.492 E75.97286
G1 X125.038 Y50.53 E75.98778
G1 X125.152 Y50.596 E75.99654
G1 X125.241 Y50.702 E76.00575
G1 X125.291 Y50.837 E76.01532
G1 X125.31 Y52.053 E76.09622
G1 X125.309 Y106.918 E79.74586
G1 X125.308 Y125.708 E80.99577
G1 X130.424 Y138.582 E81.9173
G1 X130.652 Y139.219 E81.9623
G1 X130.808 Y139.694 E81.99556
G1 X131.005 Y140.451 E82.04759
G1 X131.141 Y141.136 E82.09405
G1 X131.242 Y141.88 E82.14399
G1 X131.296 Y142.614 E82.19295
G1 X131.309 Y143.185 E82.23094
G1 X131.311 Y144.114 E82.29274
G1 X131.308 Y145.283 E82.3705
G1 X131.276 Y145.605 E82.39203
G1 X131.144 Y145.978 E82.41835
G1 X130.927 Y146.286 E82.44341
G1 X130.598 Y146.551 E82.47151
G1 X129.087 Y147.346 E82.58509
G1 X124.932 Y149.508 E82.89666
G1 X70.125 Y149.504 E86.54244
G1 X70.117 Y146.814 E86.72138
G1 X71.871 Y146.814 E86.83805
G1 X71.871 Y142.834 E87.1028
G1 X70.117 Y142.834 E87.21948
G1 X70.113 Y142.322 E87.25354
G1 X70.691 Y142.116 E87.29436
G1 X70.691 Y86.263 E91.00971
G1 X70.692 Y50.983 E93.35655
G0 F3600 X115.706 Y59.089
G1 F1800 X120.686 Y59.089 E93.68782
G1 X120.686 Y54.109 E94.01909
G1 X115.706 Y54.109 E94.35036
G1 X115.706 Y59.089 E94.68163
G0 F3600 X125.317 Y139.997
G1 F1800 X125.317 Y144.977 E95.0129
G1 X129.297 Y144.977 E95.27765
G1 X129.297 Y139.997 E95.60892
G1 X125.317 Y139.997 E95.87368
G0 F3600 X70.693 Y149.323
G1 F1800 X70.302 Y148.932 E95.91046
G0 F3600 X70.301 Y148.365
G1 F1800 X71.258 Y149.323 E96.00053
G0 F3600 X71.824 Y149.323
G1 F1800 X70.299 Y147.798 E96.144
G0 F3600 X70.297 Y147.23
G1 F1800 X72.39 Y149.323 E96.34089
G0 F3600 X72.955 Y149.323
G1 F1800 X70.625 Y146.993 E96.56009
G0 F3600 X71.191 Y146.993
G1 F1800 X73.521 Y149.323 E96.77928
G0 F3600 X74.087 Y149.323
G1 F1800 X71.757 Y146.993 E96.99847
G0 F3600 X72.051 Y146.721
G1 F1800 X74.652 Y149.323 E97.2432
G0 F3600 X75.218 Y149.323
G1 F1800 X72.051 Y146.156 E97.54113
G0 F3600 X72.051 Y145.59
G1 F1800 X75.784 Y149.323 E97.89231
G0 F3600 X76.349 Y149.323
G1 F1800 X72.051 Y145.024 E98.29669
G0 F3600 X72.051 Y144.459
G1 F1800 X76.915 Y149.323 E98.75426
G0 F3600 X77.481 Y149.323
G1 F1800 X72.051 Y143.893 E99.26509
G0 F3600 X72.051 Y143.327
G1 F1800 X78.046 Y149.323 E99.82911
G0 F3600 X78.612 Y149.323
G1 F1800 X72.051 Y142.762 E100.44632
G0 F3600 X71.942 Y142.653
G1 F1800 X70.871 Y141.581 E100.54712
G0 F3600 X70.871 Y141.016
G1 F1800 X79.178 Y149.323 E101.3286
G0 F3600 X79.743 Y149.323
G1 F1800 X70.871 Y140.45 E102.16327
G0 F3600 X70.871 Y139.884
G1 F1800 X80.309 Y149.323 E103.05118
G0 F3600 X80.875 Y149.323
G1 F1800 X70.871 Y139.319 E103.9923
G0 F3600 X70.871 Y138.753
G1 F1800 X81.441 Y149.323 E104.98666
G0 F3600 X82.007 Y149.323
G1 F1800 X70.871 Y138.187 E106.03426
G0 F3600 X70.871 Y137.622
G1 F1800 X82.573 Y149.323 E107.13507
G0 F3600 X83.138 Y149.323
G1 F1800 X70.871 Y137.056 E108.28907
G0 F3600 X70.871 Y136.49
G1 F1800 X83.704 Y149.323 E109.49632
G0 F3600 X84.27 Y149.323
G1 F1800 X70.871 Y135.925 E110.75677
G0 F3600 X70.871 Y135.359
G1 F1800 X84.835 Y149.323 E112.07042
G0 F3600 X85.401 Y149.323
G1 F1800 X70.871 Y134.793 E113.43731
G0 F3600 X70.871 Y134.227
G1 F1800 X85.967 Y149.323 E114.85745
G0 F3600 X86.532 Y149.323
G1 F1800 X70.871 Y133.662 E116.33074
G0 F3600 X70.871 Y133.096
G1 F1800 X87.098 Y149.323 E117.85728
G0 F3600 X87.664 Y149.323
G1 F1800 X70.871 Y132.53 E119.43706
G0 F3600 X70.871 Y131.965
G1 F1800 X88.229 Y149.323 E121.07
G0 F3600 X88.795 Y149.323
G1 F1800 X70.871 Y131.399 E122.75618
G0 F3600 X70.871 Y130.833
G1 F1800 X89.361 Y149.323 E124.4956
G0 F3600 X89.927 Y149.323
G1 F1800 X70.871 Y130.268 E126.28823
G0 F3600 X70.871 Y129.702
G1 F1800 X90.492 Y149.323 E128.13405
G0 F3600 X91.058 Y149.323
G1 F1800 X70.871 Y129.136 E130.03312
G0 F3600 X70.871 Y128.571
G1 F1800 X91.624 Y149.323 E131.98539
G0 F3600 X92.19 Y149.324
G1 F1800 X70.871 Y128.005 E133.99095
G0 F3600 X70.871 Y127.439
G1 F1800 X92.756 Y149.324 E136.04976
G0 F3600 X93.321 Y149.324
G1 F1800 X70.871 Y126.874 E138.16171
G0 F3600 X70.871 Y126.308
G1 F1800 X93.887 Y149.324 E140.32692
G0 F3600 X94.453 Y149.324
G1 F1800 X70.871 Y125.742 E142.54537
G0 F3600 X70.871 Y125.176
G1 F1800 X95.018 Y149.324 E144.81702
G0 F3600 X95.584 Y149.324
G1 F1800 X70.871 Y124.611 E147.14186
G0 F3600 X70.871 Y124.045
G1 F1800 X96.15 Y149.324 E149.51996
G0 F3600 X96.715 Y149.324
G1 F1800 X70.871 Y123.479 E151.95125
G0 F3600 X70.871 Y122.914
G1 F1800 X97.281 Y149.324 E154.43574
G0 F3600 X97.847 Y149.324
G1 F1800 X70.871 Y122.348 E156.97348
G0 F3600 X70.871 Y121.782
G1 F1800 X98.413 Y149.324 E159.56446
G0 F3600 X98.978 Y149.324
G1 F1800 X70.871 Y121.217 E162.20859
G0 F3600 X70.871 Y120.651
G1 F1800 X99.544 Y149.324 E164.90597
G0 F3600 X100.11 Y149.324
G1 F1800 X70.871 Y120.085 E167.6566
G0 F3600 X70.871 Y119.52
G1 F1800 X100.675 Y149.324 E170.46038
G0 F3600 X101.241 Y149.324
G1 F1800 X70.871 Y118.954 E173.3174
G0 F3600 X70.871 Y118.388
G1 F1800 X101.807 Y149.324 E176.22767
G0 F3600 X102.372 Y149.324
G1 F1800 X70.871 Y117.823 E179.19109
G0 F3600 X70.871 Y117.257
G1 F1800 X102.938 Y149.324 E182.20776
G0 F3600 X103.504 Y149.325
G1 F1800 X70.871 Y116.691 E185.27772
G0 F3600 X70.871 Y116.126
G1 F1800 X104.07 Y149.325 E188.40087
G0 F3600 X104.636 Y149.325
G1 F1800 X70.871 Y115.56 E191.57728
G0 F3600 X70.871 Y114.994
G1 F1800 X105.201 Y149.325 E194.80688
G0 F3600 X105.767 Y149.325
G1 F1800 X70.871 Y114.428 E198.08973
G0 F3600 X70.871 Y113.863
G1 F1800 X106.333 Y149.325 E201.42578
G0 F3600 X106.898 Y149.325
G1 F1800 X70.871 Y113.297 E204.81502
G0 F3600 X70.871 Y112.731
G1 F1800 X107.464 Y149.325 E208.25752
G0 F3600 X108.03 Y149.325
G1 F1800 X70.871 Y112.166 E211.75321
G0 F3600 X70.871 Y111.6
G1 F1800 X108.596 Y149.325 E215.30214
G0 F3600 X109.161 Y149.325
G1 F1800 X70.871 Y111.034 E218.90428
G0 F3600 X70.871 Y110.469
G1 F1800 X109.727 Y149.325 E222.55961
G0 F3600 X110.293 Y149.325
G1 F1800 X70.871 Y109.903 E226.26819
G0 F3600 X70.871 Y109.337
G1 F1800 X110.858 Y149.325 E230.02997
G0 F3600 X111.424 Y149.325
G1 F1800 X70.871 Y108.772 E233.84495
G0 F3600 X70.871 Y108.206
G1 F1800 X111.99 Y149.325 E237.71317
G0 F3600 X112.555 Y149.325
G1 F1800 X70.871 Y107.64 E241.6346
G0 F3600 X70.871 Y107.075
G1 F1800 X113.121 Y149.325 E245.60922
G0 F3600 X113.687 Y149.325
G1 F1800 X70.871 Y106.509 E249.63708
G0 F3600 X70.871 Y105.943
G1 F1800 X114.253 Y149.326 E253.71824
G0 F3600 X114.819 Y149.326
G1 F1800 X70.871 Y105.378 E257.8526
G0 F3600 X70.871 Y104.812
G1 F1800 X115.384 Y149.326 E262.04016
G0 F3600 X115.95 Y149.326
G1 F1800 X70.871 Y104.246 E266.28096
G0 F3600 X70.871 Y103.68
G1 F1800 X116.516 Y149.326 E270.57501
G0 F3600 X117.082 Y149.326
G1 F1800 X70.871 Y103.115 E274.92226
G0 F3600 X70.871 Y102.549
G1 F1800 X117.647 Y149.326 E279.3227
G0 F3600 X118.213 Y149.326
