; generated by Slic3r 1.2.9 on 2018-06-24 at 17:19:55

; external perimeters extrusion width = 0.50mm
; perimeters extrusion width = 0.58mm
; infill extrusion width = 0.58mm
; solid infill extrusion width = 0.58mm
; top infill extrusion width = 0.58mm

M107
M190 S80 ; set bed temperature
M104 S225 ; set temperature
G28 ; home all axes
G1 Z5 F5000 ; lift nozzle

M109 S225 ; wait for temperature to be reached
G21 ; set units to millimeters
G90 ; use absolute coordinates
M82 ; use absolute distances for extrusion
G92 E0
G1 Z0.500 F7800.000
G1 E-2.00000 F2400.00000
G92 E0
G1 X80.613 Y86.091 F7800.000
G1 E2.00000 F2400.00000
G1 X81.521 Y85.262 E2.22823 F1800.000
G1 X82.008 Y84.857 E2.34574
G1 X82.968 Y84.130 E2.56921
G1 X83.498 Y83.765 E2.68869
G1 X84.504 Y83.142 E2.90823
G1 X85.074 Y82.825 E3.02923
G1 X86.120 Y82.307 E3.24582
G1 X86.722 Y82.043 E3.36792
G1 X87.803 Y81.631 E3.58251
G1 X88.432 Y81.425 E3.70529
G1 X89.541 Y81.120 E3.91879
G1 X90.188 Y80.975 E4.04185
G1 X91.320 Y80.778 E4.25515
G1 X91.978 Y80.695 E4.37814
G1 X93.128 Y80.608 E4.59208
G1 X93.802 Y80.590 E4.71728
G1 X94.948 Y80.612 E4.93006 F1800.000
G1 X95.602 Y80.656 E5.05167
G1 X96.769 Y80.791 E5.26962
G1 X97.409 Y80.895 E5.38990
G1 X98.576 Y81.143 E5.61126
G1 X99.118 Y81.281 E5.71508
G1 X100.438 Y81.692 E5.97169
G1 X101.304 Y82.017 E6.14337
G1 X101.824 Y82.237 E6.24801
G1 X103.002 Y82.792 E6.48975
G1 X103.595 Y83.108 E6.61451
G1 X104.689 Y83.761 E6.85090
G1 X105.211 Y84.106 E6.96689
G1 X128.155 Y100.797 E12.23216
G1 X129.786 Y102.475 E12.66634
G1 X130.762 Y104.601 E13.10052
G1 X130.993 Y106.371 E13.43174
G1 X130.993 Y112.519 E14.57270
G1 X130.596 Y114.825 E15.00688
G1 X129.450 Y116.865 E15.44106
G1 X127.688 Y118.405 E15.87524
G1 X125.513 Y119.266 E16.30941
G1 X124.100 Y119.412 E16.57296
G1 X94.100 Y119.412 E22.14008
G1 X92.560 Y119.349 E22.42613
G1 X91.929 Y119.292 E22.54371
G1 X90.736 Y119.127 E22.76712
G1 X90.104 Y119.009 E22.88658
G1 X88.952 Y118.739 E23.10614
G1 X88.325 Y118.560 E23.22711
G1 X87.219 Y118.187 E23.44373
G1 X86.606 Y117.947 E23.56584
G1 X85.551 Y117.475 E23.78041
G1 X84.960 Y117.176 E23.90324
G1 X83.960 Y116.608 E24.11669
G1 X83.400 Y116.253 E24.23975
G1 X82.460 Y115.591 E24.45305
G1 X81.937 Y115.184 E24.57602
G1 X81.062 Y114.433 E24.78998
G1 X80.582 Y113.980 E24.91250
G1 X79.778 Y113.143 E25.12798
G1 X79.347 Y112.650 E25.24945
G1 X78.617 Y111.729 E25.46753
G1 X78.238 Y111.203 E25.58782
G1 X77.588 Y110.202 E25.80917
G1 X77.302 Y109.722 E25.91296
G1 X76.660 Y108.497 E26.16954
G1 X76.277 Y107.655 E26.34128
G1 X76.071 Y107.150 E26.44238
G1 X75.652 Y105.994 E26.67067
G1 X75.464 Y105.389 E26.78825
G1 X75.160 Y104.224 E27.01166
G1 X75.026 Y103.594 E27.13108
G1 X74.835 Y102.426 E27.35083
G1 X74.761 Y101.780 E27.47145
G1 X74.682 Y100.613 E27.68842
G1 X74.669 Y99.956 E27.81038
G1 X74.702 Y98.800 E28.02497
G1 X74.752 Y98.140 E28.14778
G1 X74.894 Y96.999 E28.36124
G1 X75.008 Y96.345 E28.48435
G1 X75.259 Y95.224 E28.69759
G1 X75.435 Y94.585 E28.82062
G1 X75.794 Y93.490 E29.03452
G1 X76.029 Y92.873 E29.15704
G1 X76.495 Y91.809 E29.37251
G1 X76.786 Y91.222 E29.49409
G1 X77.357 Y90.195 E29.71207
G1 X77.698 Y89.645 E29.83232
G1 X78.373 Y88.661 E30.05371
G1 X78.708 Y88.213 E30.15753
G1 X79.283 Y87.507 E30.32637
G1 X80.225 Y86.475 E30.58582
G1 X80.559 Y86.144 E30.67307
G1 E28.67307 F2400.00000
G92 E0
G1 X121.815 Y110.234 F7800.000
G1 E2.00000 F2400.00000
G1 X94.152 Y110.234 E7.13342 F1800.000
G1 X93.080 Y110.185 E7.33255
G1 X92.097 Y110.050 E7.51661
G1 X91.155 Y109.829 E7.69624
G1 X90.255 Y109.525 E7.87249
G1 X89.400 Y109.142 E8.04640
G1 X88.591 Y108.683 E8.21903
G1 X87.831 Y108.148 E8.39140
G1 X87.123 Y107.540 E8.56454
G1 X86.470 Y106.861 E8.73949
G1 X85.875 Y106.110 E8.91730
G1 X85.334 Y105.278 E9.10146
G1 X84.983 Y104.628 E9.23851
G1 X84.670 Y103.940 E9.37885
G1 X84.318 Y102.967 E9.57078
G1 X84.067 Y102.007 E9.75484
G1 X83.911 Y101.052 E9.93447
G1 X83.847 Y100.105 E10.11072
G1 X83.873 Y99.168 E10.28464
G1 X83.988 Y98.245 E10.45726
G1 X84.191 Y97.338 E10.62963
G1 X84.482 Y96.452 E10.80277
G1 X84.860 Y95.588 E10.97773
G1 X85.325 Y94.751 E11.15553
G1 X85.887 Y93.932 E11.33970
G1 X86.353 Y93.360 E11.47675
G1 X86.869 Y92.807 E11.61708
G1 X87.633 Y92.109 E11.80901
G1 X88.424 Y91.511 E11.99308
G1 X89.247 Y91.001 E12.17271
G1 X90.098 Y90.579 E12.34895
G1 X90.973 Y90.245 E12.52287
G1 X91.870 Y89.998 E12.69550
G1 X92.784 Y89.839 E12.86761
G1 X93.729 Y89.768 E13.04344
G1 X94.658 Y89.786 E13.21595
G1 X95.610 Y89.896 E13.39375
G1 X96.581 Y90.102 E13.57792
G1 X97.288 Y90.313 E13.71497
G1 X97.994 Y90.578 E13.85473
G1 X98.986 Y91.046 E14.05840
G1 X99.887 Y91.584 E14.25303
G1 X100.709 Y92.192 E14.44281
G1 X101.451 Y92.867 E14.62901
G1 X102.113 Y93.605 E14.81287
G1 X102.693 Y94.401 E14.99563
G1 X103.189 Y95.252 E15.17852
G1 X103.599 Y96.157 E15.36277
G1 X103.919 Y97.111 E15.54960
G1 X104.161 Y98.171 E15.75129
G1 X104.865 Y102.106 E16.49317
G1 X105.331 Y103.585 E16.78095
G1 X105.819 Y104.740 E17.01361
G1 X106.293 Y105.612 E17.19777
G1 X106.853 Y106.419 E17.38002
G1 X107.329 Y106.961 E17.51392
G1 X107.861 Y107.450 E17.64798
G1 X108.472 Y107.885 E17.78719
G1 X109.163 Y108.244 E17.93169
G1 X109.882 Y108.488 E18.07245
G1 X110.372 Y108.592 E18.16542
G1 X111.085 Y108.656 E18.29831
G1 X121.815 Y108.656 E20.28949
G1 X121.815 Y110.159 E20.56834
G1 X122.708 Y111.127 F7800.000
G1 X94.132 Y111.127 E25.87116 F1800.000
G1 X92.999 Y111.075 E26.08166
G1 X91.934 Y110.928 E26.28109
G1 X90.910 Y110.688 E26.47630
G1 X89.929 Y110.357 E26.66831
G1 X88.996 Y109.940 E26.85811
G1 X88.112 Y109.437 E27.04668
G1 X87.282 Y108.853 E27.23501
G1 X86.509 Y108.190 E27.42407
G1 X85.797 Y107.449 E27.61485
G1 X85.149 Y106.632 E27.80834
G1 X84.565 Y105.734 E28.00703
G1 X84.183 Y105.025 E28.15650
G1 X83.842 Y104.277 E28.30908
G1 X83.464 Y103.233 E28.51519
G1 X83.193 Y102.193 E28.71462
G1 X83.023 Y101.155 E28.90984
G1 X82.953 Y100.122 E29.10185
G1 X82.982 Y99.100 E29.29164
G1 X83.108 Y98.091 E29.48022
G1 X83.329 Y97.101 E29.66854
G1 X83.647 Y96.133 E29.85761
G1 X84.059 Y95.191 E30.04838
G1 X84.566 Y94.280 E30.24187
G1 X85.172 Y93.397 E30.44056
G1 X85.680 Y92.772 E30.59003
G1 X86.241 Y92.172 E30.74261
G1 X87.061 Y91.423 E30.94872
G1 X87.918 Y90.774 E31.14815
G1 X88.812 Y90.220 E31.34337
G1 X89.739 Y89.760 E31.53538
G1 X90.695 Y89.395 E31.72518
G1 X91.675 Y89.126 E31.91375
G1 X92.674 Y88.952 E32.10192
G1 X93.704 Y88.875 E32.29367
G1 X94.718 Y88.895 E32.48190
G1 X95.754 Y89.014 E32.67539
G1 X96.801 Y89.236 E32.87409
G1 X97.573 Y89.467 E33.02355
G1 X98.341 Y89.755 E33.17578
G1 X99.406 Y90.257 E33.39432
G1 X100.383 Y90.840 E33.60527
G1 X101.276 Y91.502 E33.81160
G1 X102.085 Y92.237 E34.01454
G1 X102.808 Y93.042 E34.21526
G1 X103.441 Y93.912 E34.41494
G1 X103.983 Y94.842 E34.61473
G1 X104.430 Y95.829 E34.81581
G1 X104.780 Y96.869 E35.01936
G1 X105.036 Y97.993 E35.23326
G1 X105.733 Y101.892 E35.96836
G1 X106.170 Y103.276 E36.23770
G1 X106.624 Y104.352 E36.45443
G1 X107.054 Y105.143 E36.62136
G1 X107.558 Y105.868 E36.78518
G1 X107.968 Y106.336 E36.90078
G1 X108.424 Y106.755 E37.01561
G1 X108.939 Y107.121 E37.13294
G1 X109.515 Y107.420 E37.25326
G1 X110.119 Y107.625 E37.37165
G1 X110.505 Y107.707 E37.44497
G1 X111.125 Y107.764 E37.56049
G1 X122.708 Y107.764 E39.70984
G1 X122.708 Y111.052 E40.32000
G1 X123.600 Y112.019 F7800.000
G1 X94.112 Y112.019 E45.79224 F1800.000
G1 X92.917 Y111.965 E46.01410
G1 X91.771 Y111.807 E46.22890
G1 X90.665 Y111.547 E46.43970
G1 X89.604 Y111.190 E46.64747
G1 X88.592 Y110.737 E46.85315
G1 X87.634 Y110.192 E47.05767
G1 X86.734 Y109.559 E47.26195
G1 X85.895 Y108.839 E47.46694
G1 X85.124 Y108.037 E47.67354
G1 X84.423 Y107.154 E47.88271
G1 X83.797 Y106.190 E48.09593
G1 X83.383 Y105.423 E48.25781
G1 X83.015 Y104.614 E48.42264
G1 X82.611 Y103.498 E48.64293
G1 X82.318 Y102.378 E48.85773
G1 X82.135 Y101.257 E49.06853
G1 X82.060 Y100.140 E49.27630
G1 X82.091 Y99.032 E49.48198
G1 X82.227 Y97.938 E49.68650
G1 X82.468 Y96.864 E49.89079
G1 X82.812 Y95.814 E50.09577
G1 X83.258 Y94.794 E50.30237
G1 X83.806 Y93.809 E50.51154
G1 X84.456 Y92.862 E50.72476
G1 X85.007 Y92.185 E50.88665
G1 X85.613 Y91.536 E51.05147
G1 X86.490 Y90.736 E51.27176
G1 X87.412 Y90.037 E51.48656
G1 X88.378 Y89.439 E51.69737
G1 X89.381 Y88.941 E51.90513
G1 X90.417 Y88.546 E52.11081
G1 X91.479 Y88.254 E52.31533
G1 X92.564 Y88.065 E52.51956
G1 X93.679 Y87.981 E52.72723
G1 X94.778 Y88.003 E52.93119
G1 X95.898 Y88.132 E53.14036
G1 X97.022 Y88.371 E53.35358
G1 X97.858 Y88.620 E53.51547
G1 X98.689 Y88.932 E53.68017
G1 X99.827 Y89.468 E53.91358
G1 X100.878 Y90.096 E54.14083
G1 X101.843 Y90.811 E54.36373
G1 X102.719 Y91.607 E54.58340
G1 X103.502 Y92.480 E54.80098
G1 X104.190 Y93.423 E55.01757
G1 X104.777 Y94.432 E55.23427
G1 X105.262 Y95.502 E55.45219
G1 X105.640 Y96.627 E55.67244
G1 X105.911 Y97.815 E55.89856
G1 X106.602 Y101.679 E56.62689
G1 X107.009 Y102.968 E56.87778
G1 X107.430 Y103.965 E57.07858
G1 X107.815 Y104.674 E57.22829
G1 X108.262 Y105.317 E57.37367
G1 X108.608 Y105.711 E57.47096
G1 X108.987 Y106.060 E57.56656
G1 X109.406 Y106.358 E57.66202
G1 X109.866 Y106.597 E57.75816
G1 X110.356 Y106.763 E57.85417
G1 X110.639 Y106.823 E57.90785
G1 X111.166 Y106.871 E58.00601
G1 X123.600 Y106.871 E60.31352
G1 X123.600 Y111.944 E61.25500
G1 X123.167 Y111.769 F7800.000
G1 X121.368 Y109.445 F7800.000
G1 X111.065 Y109.445 E65.30904 F1800.000
G1 X110.226 Y109.407 E65.63948
G1 X109.619 Y109.341 E65.87933
G1 X108.940 Y109.229 E66.15013
G1 X105.645 Y105.808 F7800.000
G1 X90.711 Y90.874 E70.11967 F1800.000
G1 X89.817 Y91.259 E70.30255
G1 X108.243 Y109.685 E75.20024
G1 X106.964 Y109.685 E75.44057
G1 X88.997 Y91.718 E80.21638
G1 X88.243 Y92.242 E80.38906
G1 X105.686 Y109.685 E85.02556
G1 X104.407 Y109.685 E85.26590
G1 X87.548 Y92.826 E89.74720
G1 X86.908 Y93.464 E89.91715
G1 X103.128 Y109.685 E94.22875
G1 X101.850 Y109.685 E94.46908
G1 X86.317 Y94.152 E98.59772
G1 X85.794 Y94.908 E98.77046
G1 X100.571 Y109.685 E102.69825
G1 X99.292 Y109.685 E102.93858
G1 X85.334 Y95.726 E106.64892
G1 X84.952 Y96.623 E106.83212
G1 X98.013 Y109.685 E110.30408
G1 X96.735 Y109.685 E110.54442
G1 X84.656 Y97.606 E113.75496
G1 X84.464 Y98.692 E113.96226
G1 X95.456 Y109.685 E116.88413
G1 X94.169 Y109.676 E117.12608
G1 X84.397 Y99.904 E119.72354
G1 X84.547 Y101.333 E119.99348
G1 X92.775 Y109.561 E122.18064
G1 X91.087 Y109.151 E122.50712
G1 X85.028 Y103.092 E124.11766
G1 X86.823 Y106.166 F7800.000
G1 X88.021 Y107.364 E124.43611 F1800.000
G1 X104.680 Y103.564 F7800.000
G1 X91.688 Y90.573 E127.88929 F1800.000
G1 X92.772 Y90.377 E128.09617
G1 X104.219 Y101.825 E131.13912
G1 X103.941 Y100.268 E131.43644
G1 X94.000 Y90.327 E134.07888
G1 X95.412 Y90.460 E134.34552
G1 X103.663 Y98.711 E136.53853
G1 X103.227 Y96.997 E136.87088
G1 X97.170 Y90.940 E138.48087
G1 X100.425 Y92.915 F7800.000
G1 X101.364 Y93.854 E138.73049 F1800.000
M104 S220 ; set temperature
M140 S75 ; wait for bed temperature to be reached
G1 Z0.900 F7800.000
G1 E136.73049 F2400.00000
G92 E0
G1 X122.907 Y111.326 F7800.000
G1 E2.00000 F2400.00000
G1 X94.127 Y111.326 E4.34936 F3600.000
G1 X92.980 Y111.274 E4.44307
G1 X91.897 Y111.125 E4.53231
G1 X90.855 Y110.880 E4.61972
G1 X89.857 Y110.543 E4.70573
G1 X88.906 Y110.118 E4.79078
G1 X88.006 Y109.606 E4.87530
G1 X87.160 Y109.011 E4.95971
G1 X86.372 Y108.335 E5.04444
G1 X85.647 Y107.580 E5.12992
G1 X84.987 Y106.748 E5.21658
G1 X84.394 Y105.836 E5.30541
G1 X84.004 Y105.114 E5.37238
G1 X83.658 Y104.352 E5.44070
G1 X83.274 Y103.292 E5.53276
G1 X82.997 Y102.234 E5.62200
G1 X82.825 Y101.177 E5.70941
G1 X82.752 Y100.106 E5.79706
G1 X82.719 Y100.020 E5.80463
G1 X82.760 Y99.915 E5.81380
G1 X82.783 Y99.085 E5.88162
G1 X82.911 Y98.057 E5.96614
G1 X83.137 Y97.048 E6.05055
G1 X83.460 Y96.062 E6.13529
G1 X83.880 Y95.103 E6.22076
G1 X84.396 Y94.175 E6.30742
G1 X85.012 Y93.278 E6.39625
G1 X85.530 Y92.641 E6.46322
G1 X86.101 Y92.030 E6.53155
G1 X86.934 Y91.269 E6.62360
G1 X87.805 Y90.609 E6.71284
G1 X88.715 Y90.045 E6.80025
G1 X89.659 Y89.577 E6.88626
G1 X90.633 Y89.206 E6.97132
G1 X91.631 Y88.931 E7.05584
G1 X92.648 Y88.754 E7.14009
G1 X93.723 Y88.676 E7.22812
G1 X94.732 Y88.696 E7.31044
G1 X95.786 Y88.817 E7.39710
G1 X96.851 Y89.043 E7.48593
G1 X97.637 Y89.278 E7.55290
G1 X98.419 Y89.571 E7.62109
G1 X99.500 Y90.081 E7.71869
G1 X100.493 Y90.674 E7.81308
G1 X101.403 Y91.347 E7.90548
G1 X102.227 Y92.097 E7.99640
G1 X102.963 Y92.917 E8.08635
G1 X103.608 Y93.803 E8.17585
G1 X104.160 Y94.751 E8.26540
G1 X104.616 Y95.756 E8.35551
G1 X104.972 Y96.815 E8.44669
G1 X105.231 Y97.953 E8.54198
G1 X105.927 Y101.845 E8.86469
G1 X106.357 Y103.208 E8.98136
G1 X106.804 Y104.266 E9.07513
G1 X107.224 Y105.038 E9.14688
G1 X107.715 Y105.745 E9.21713
G1 X108.111 Y106.196 E9.26618
G1 X108.550 Y106.599 E9.31481
G1 X109.043 Y106.951 E9.36427
G1 X109.593 Y107.236 E9.41483
G1 X110.172 Y107.433 E9.46471
G1 X110.535 Y107.510 E9.49504
G1 X111.134 Y107.564 E9.54415
G1 X122.907 Y107.564 E10.50518
G1 X122.907 Y111.251 E10.80613
G1 X123.398 Y111.817 F7800.000
G1 X94.116 Y111.817 E13.19647 F3600.000
G1 X92.936 Y111.763 E13.29293
G1 X91.808 Y111.608 E13.38589
G1 X90.720 Y111.352 E13.47706
G1 X89.678 Y111.001 E13.56689
G1 X88.684 Y110.556 E13.65578
G1 X87.742 Y110.021 E13.74416
G1 X86.858 Y109.399 E13.83243
G1 X86.035 Y108.692 E13.92102
G1 X85.277 Y107.903 E14.01032
G1 X84.588 Y107.035 E14.10077
G1 X83.971 Y106.087 E14.19312
G1 X83.564 Y105.333 E14.26309
G1 X83.203 Y104.538 E14.33438
G1 X82.804 Y103.438 E14.42986
G1 X82.517 Y102.336 E14.52282
G1 X82.336 Y101.234 E14.61400
G1 X82.268 Y100.214 E14.69739
G1 X82.191 Y100.020 E14.71447
G1 X82.271 Y99.816 E14.73233
G1 X82.293 Y99.047 E14.79509
G1 X82.427 Y97.973 E14.88347
G1 X82.663 Y96.918 E14.97174
G1 X83.001 Y95.887 E15.06033
G1 X83.440 Y94.884 E15.14963
G1 X83.978 Y93.916 E15.24008
G1 X84.619 Y92.984 E15.33243
G1 X85.159 Y92.319 E15.40240
G1 X85.756 Y91.680 E15.47369
G1 X86.619 Y90.892 E15.56917
G1 X87.527 Y90.204 E15.66213
G1 X88.477 Y89.616 E15.75331
G1 X89.462 Y89.127 E15.84314
G1 X90.480 Y88.739 E15.93203
G1 X91.524 Y88.451 E16.02040
G1 X92.588 Y88.266 E16.10858
G1 X93.710 Y88.184 E16.20047
G1 X94.765 Y88.205 E16.28655
G1 X95.865 Y88.332 E16.37700
G1 X96.972 Y88.567 E16.46935
G1 X97.793 Y88.812 E16.53932
G1 X98.610 Y89.119 E16.61053
G1 X99.731 Y89.647 E16.71172
G1 X100.766 Y90.265 E16.81006
G1 X101.715 Y90.968 E16.90646
G1 X102.575 Y91.750 E17.00143
G1 X103.345 Y92.607 E17.09546
G1 X104.020 Y93.534 E17.18905
G1 X104.597 Y94.525 E17.28269
G1 X105.073 Y95.576 E17.37687
G1 X105.445 Y96.682 E17.47209
G1 X105.713 Y97.855 E17.57034
G1 X106.405 Y101.727 E17.89141
G1 X106.819 Y103.038 E18.00362
G1 X107.247 Y104.053 E18.09354
G1 X107.642 Y104.780 E18.16112
G1 X108.102 Y105.442 E18.22691
G1 X108.463 Y105.853 E18.27154
G1 X108.859 Y106.217 E18.31551
G1 X109.300 Y106.531 E18.35968
G1 X109.786 Y106.784 E18.40439
G1 X110.302 Y106.959 E18.44886
G1 X110.608 Y107.024 E18.47443
G1 X111.156 Y107.073 E18.51934
G1 X123.398 Y107.073 E19.51864
G1 X123.398 Y111.742 E19.89973
G1 X123.850 Y112.269 F7800.000
G1 X94.106 Y112.269 E21.94837 F1800.000
G1 X92.894 Y112.215 E22.03190
G1 X91.725 Y112.053 E22.11322
G1 X90.596 Y111.788 E22.19308
G1 X89.513 Y111.423 E22.27183
G1 X88.479 Y110.960 E22.34982
G1 X87.500 Y110.404 E22.42738
G1 X86.580 Y109.756 E22.50487
G1 X85.723 Y109.021 E22.58260
G1 X84.935 Y108.201 E22.66093
G1 X84.220 Y107.300 E22.74019
G1 X83.582 Y106.318 E22.82084
G1 X83.159 Y105.534 E22.88221
G1 X82.783 Y104.708 E22.94466
G1 X82.372 Y103.572 E23.02789
G1 X82.073 Y102.430 E23.10921
G1 X81.886 Y101.286 E23.18908
G1 X81.821 Y100.314 E23.25612
