; generated by Slic3r 1.2.9 on 2018-06-25 at 18:55:41

; external perimeters extrusion width = 0.50mm
; perimeters extrusion width = 0.85mm
; infill extrusion width = 1.02mm
; solid infill extrusion width = 0.85mm
; top infill extrusion width = 0.85mm

M107
M190 S80 ; set bed temperature
M104 S225 ; set temperature
G28 ; home all axes
G1 Z5 F5000 ; lift nozzle

M109 S225 ; wait for temperature to be reached
G21 ; set units to millimeters
G90 ; use absolute coordinates
M82 ; use absolute distances for extrusion
G92 E0
G1 Z0.500 F7800.000
G1 E-2.00000 F2400.00000
G92 E0
G1 X64.124 Y52.108 F7800.000
G1 E2.00000 F2400.00000
G1 X65.346 Y50.631 E2.35574 F1800.000
G1 X66.087 Y49.780 E2.56503
G1 X66.805 Y48.989 E2.76335
G1 X68.155 Y47.576 E3.12600
G1 X69.747 Y46.031 E3.53764
G1 X71.211 Y44.714 E3.90308
G1 X72.014 Y44.033 E4.09847
G1 X72.940 Y43.283 E4.31955
G1 X74.517 Y42.082 E4.68742
G1 X75.382 Y41.464 E4.88474
G1 X76.363 Y40.797 E5.10485
G1 X77.289 Y40.200 E5.30930
G1 X79.000 Y39.173 E5.67957
G1 X79.940 Y38.650 E5.87927
G1 X80.894 Y38.148 E6.07935
G1 X82.011 Y37.596 E6.31052
G1 X82.995 Y37.140 E6.51181
G1 X84.844 Y36.362 E6.88402
G1 X85.863 Y35.975 E7.08637
G1 X87.039 Y35.564 E7.31755
G1 X88.082 Y35.231 E7.52069
G1 X89.151 Y34.922 E7.72717
G1 X90.233 Y34.639 E7.93474
G1 X92.208 Y34.202 E8.30993
G1 X93.294 Y34.005 E8.51482
G1 X94.387 Y33.837 E8.72001
G1 X95.485 Y33.698 E8.92552
G1 X96.590 Y33.589 E9.13143
G1 X97.696 Y33.511 E9.33733
G1 X98.804 Y33.463 E9.54310
G1 X100.096 Y33.446 E9.78285
G1 X101.209 Y33.464 E9.98944 F1800.000
G1 X102.302 Y33.511 E10.19250
G1 X103.422 Y33.590 E10.40078
G1 X104.515 Y33.698 E10.60458
G1 X105.625 Y33.838 E10.81215
G1 X106.701 Y34.004 E11.01426
G1 X107.807 Y34.205 E11.22285
G1 X108.851 Y34.424 E11.42087
G1 X109.957 Y34.687 E11.63172
G1 X111.018 Y34.970 E11.83558
G1 X112.055 Y35.274 E12.03601
G1 X113.113 Y35.615 E12.24231
G1 X114.145 Y35.977 E12.44524
G1 X115.143 Y36.355 E12.64329
G1 X116.145 Y36.764 E12.84421
G1 X117.171 Y37.213 E13.05193
G1 X118.149 Y37.671 E13.25243
G1 X119.121 Y38.154 E13.45373
G1 X120.075 Y38.657 E13.65391
G1 X121.806 Y39.644 E14.02363
G1 X123.622 Y40.788 E14.42198
G1 X124.437 Y41.340 E14.60461
G1 X125.738 Y42.271 E14.90163
G1 X127.366 Y43.526 E15.28300
G1 X128.798 Y44.723 E15.62941
G1 X130.124 Y45.910 E15.95963
G1 X131.304 Y47.036 E16.26235
G1 X132.699 Y48.457 E16.63188
G1 X133.917 Y49.785 E16.96610
G1 X134.986 Y51.023 E17.26977
G1 X136.220 Y52.542 E17.63295
G1 X137.330 Y53.998 E17.97266
G1 X138.257 Y55.287 E18.26729
G1 X139.257 Y56.759 E18.59760
G1 X140.310 Y58.407 E18.96040
G1 X141.127 Y59.764 E19.25439
G1 X141.999 Y61.296 E19.58153
G1 X142.909 Y63.001 E19.94014
G1 X143.692 Y64.566 E20.26488
G1 X144.368 Y66.000 E20.55909
G1 X145.142 Y67.750 E20.91419
G1 X145.748 Y69.213 E21.20799
G1 X146.379 Y70.839 E21.53165
G1 X147.024 Y72.624 E21.88381
G1 X147.574 Y74.269 E22.20581
G1 X148.088 Y75.925 E22.52752
G1 X148.562 Y77.579 E22.84679
G1 X148.998 Y79.233 E23.16434
G1 X149.377 Y80.798 E23.46306
G1 X149.749 Y82.483 E23.78322
G1 X150.112 Y84.313 E24.12953
G1 X150.411 Y86.009 E24.44915
G1 X150.665 Y87.642 E24.75576
G1 X150.897 Y89.358 E25.07713
G1 X151.084 Y90.987 E25.38131
G1 X151.258 Y92.837 E25.72622
G1 X151.375 Y94.414 E26.01959
G1 X151.468 Y96.130 E26.33857
G1 X151.528 Y97.848 E26.65747
G1 X151.553 Y99.565 E26.97629
G1 X151.542 Y101.420 E27.32036
G1 X151.497 Y103.136 E27.63899
G1 X151.417 Y104.852 E27.95768
G1 X151.304 Y106.566 E28.27656
G1 X151.156 Y108.279 E28.59561
G1 X150.982 Y109.925 E28.90269
G1 X150.776 Y111.559 E29.20829
G1 X150.528 Y113.262 E29.52774
G1 X150.244 Y114.961 E29.84737
G1 X149.897 Y116.796 E30.19386
G1 X149.540 Y118.484 E30.51417
G1 X149.147 Y120.166 E30.83473
G1 X148.738 Y121.766 E31.14120
G1 X148.294 Y123.365 E31.44910
G1 X147.751 Y125.167 E31.79830
G1 X147.260 Y126.672 E32.09208
G1 X146.688 Y128.311 E32.41415
G1 X146.020 Y130.087 E32.76632
G1 X145.429 Y131.555 E33.06007
G1 X144.741 Y133.159 E33.38385
G1 X143.943 Y134.900 E33.73924
G1 X143.171 Y136.475 E34.06478
G1 X142.441 Y137.881 E34.35884
G1 X141.504 Y139.578 E34.71842
G1 X140.615 Y141.090 E35.04389
G1 X139.824 Y142.364 E35.32220
G1 X139.002 Y143.622 E35.60113
G1 X138.149 Y144.864 E35.88071
G1 X137.267 Y146.083 E36.16001
G1 X136.452 Y147.157 E36.41009
G1 X135.398 Y148.477 E36.72358
G1 X134.503 Y149.540 E36.98141
G1 X133.525 Y150.646 E37.25541
G1 X132.353 Y151.899 E37.57388
G1 X131.281 Y152.982 E37.85663
G1 X130.207 Y154.009 E38.13236
G1 X129.113 Y154.999 E38.40616
G1 X127.981 Y155.965 E38.68226
G1 X126.621 Y157.057 E39.00592
G1 X125.528 Y157.879 E39.25974
G1 X124.250 Y158.784 E39.55034
G1 X122.747 Y159.772 E39.88407
G1 X121.397 Y160.593 E40.17738
G1 X120.222 Y161.257 E40.42780
G1 X118.601 Y162.102 E40.76705
G1 X117.159 Y162.786 E41.06316
G1 X115.921 Y163.324 E41.31370
G1 X114.225 Y163.989 E41.65184
G1 X112.660 Y164.530 E41.95902
G1 X111.367 Y164.926 E42.20995
G1 X109.804 Y165.345 E42.51032
G1 X107.960 Y165.757 E42.86096
G1 X106.629 Y166.000 E43.11203
G1 X105.021 Y166.235 E43.41350
G1 X103.127 Y166.428 E43.76689
G1 X101.490 Y166.522 E44.07117
G1 X100.121 Y166.548 E44.32514
G1 X99.050 Y166.540 E44.52398
G1 X98.178 Y166.509 E44.68593
G1 X96.588 Y166.405 E44.98154
G1 X94.714 Y166.200 E45.33137
G1 X93.856 Y166.077 E45.49229
G1 X92.291 Y165.805 E45.78699
G1 X91.235 Y165.586 E45.98721
G1 X89.830 Y165.250 E46.25515
G1 X87.899 Y164.705 E46.62757
G1 X86.264 Y164.164 E46.94721
G1 X84.912 Y163.661 E47.21491
G1 X83.326 Y163.002 E47.53353
G1 X81.542 Y162.173 E47.89866
G1 X80.260 Y161.517 E48.16580
G1 X78.780 Y160.695 E48.47999
G1 X77.132 Y159.694 E48.83778
G1 X75.929 Y158.904 E49.10486
G1 X74.559 Y157.941 E49.41564
G1 X73.021 Y156.776 E49.77375
G1 X71.432 Y155.470 E50.15536
G1 X70.042 Y154.237 E50.50024
G1 X68.750 Y153.013 E50.83042
G1 X67.566 Y151.815 E51.14307
G1 X66.202 Y150.344 E51.51523
G1 X64.970 Y148.921 E51.86462
G1 X63.825 Y147.513 E52.20127
G1 X62.838 Y146.225 E52.50246
G1 X61.660 Y144.591 E52.87636
G1 X60.647 Y143.093 E53.21180
G1 X59.779 Y141.732 E53.51142
G1 X58.849 Y140.188 E53.84585
G1 X57.877 Y138.469 E54.21240
G1 X57.041 Y136.891 E54.54369
G1 X56.320 Y135.447 E54.84320
G1 X55.492 Y133.681 E55.20518
G1 X54.844 Y132.206 E55.50413
G1 X54.167 Y130.564 E55.83376
G1 X53.475 Y128.759 E56.19256
G1 X52.933 Y127.242 E56.49144
G1 X52.375 Y125.564 E56.81955
G1 X51.812 Y123.730 E57.17554
G1 X51.343 Y122.067 E57.49615
G1 X50.906 Y120.380 E57.81961
G1 X50.524 Y118.766 E58.12733
G1 X50.155 Y117.050 E58.45315
G1 X49.796 Y115.181 E58.80638
G1 X49.506 Y113.474 E59.12756
G1 X49.266 Y111.866 E59.42933
G1 X49.025 Y109.987 E59.78079
G1 X48.840 Y108.247 E60.10552
G1 X48.701 Y106.644 E60.40410
G1 X48.578 Y104.788 E60.74922
G1 X48.503 Y103.151 E61.05333
G1 X48.455 Y101.268 E61.40290
G1 X48.448 Y99.520 E61.72737
G1 X48.475 Y97.771 E62.05187
G1 X48.538 Y96.024 E62.37631
G1 X48.627 Y94.416 E62.67518
G1 X48.769 Y92.536 E63.02502
G1 X48.939 Y90.790 E63.35056
G1 X49.143 Y89.051 E63.67548
G1 X49.383 Y87.322 E63.99946
G1 X49.637 Y85.727 E64.29917
G1 X49.974 Y83.860 E64.65129
G1 X50.293 Y82.282 E64.94999
G1 X50.676 Y80.568 E65.27587
G1 X51.097 Y78.861 E65.60210
G1 X51.554 Y77.162 E65.92871
G1 X52.092 Y75.332 E66.28252
G1 X52.584 Y73.789 E66.58306
G1 X53.156 Y72.118 E66.91085
G1 X53.768 Y70.459 E67.23909
G1 X54.419 Y68.811 E67.56781
G1 X55.109 Y67.177 E67.89704
G1 X55.904 Y65.422 E68.25456
G1 X56.688 Y63.801 E68.58869
G1 X57.428 Y62.362 E68.88894
G1 X58.285 Y60.791 E69.22104
G1 X59.280 Y59.081 E69.58819
G1 X60.225 Y57.555 E69.92123
G1 X61.116 Y56.199 E70.22233
G1 X62.149 Y54.714 E70.55803
G1 X62.779 Y53.851 E70.75624
G1 X64.077 Y52.166 E71.15102
G1 E69.15102 F2400.00000
G92 E0
G1 X101.407 Y145.207 F7800.000
G1 E2.00000 F2400.00000
G1 X101.851 Y145.360 E2.08722 F1800.000
G1 X102.279 Y145.556 E2.17443
G1 X102.686 Y145.791 E2.26165
G1 X103.068 Y146.063 E2.34887
G1 X103.424 Y146.371 E2.43608
G1 X103.748 Y146.711 E2.52330
G1 X104.039 Y147.081 E2.61051
G1 X104.293 Y147.476 E2.69773
G1 X104.508 Y147.894 E2.78495
G1 X104.683 Y148.330 E2.87217
G1 X104.815 Y148.781 E2.95938
G1 X104.904 Y149.242 E3.04660
G1 X104.949 Y149.710 E3.13381
G1 X104.949 Y150.180 E3.22104
G1 X104.904 Y150.648 E3.30825
G1 X104.815 Y151.110 E3.39546
G1 X104.683 Y151.561 E3.48268
G1 X104.508 Y151.997 E3.56990
G1 X104.293 Y152.415 E3.65712
G1 X104.039 Y152.810 E3.74433
G1 X103.748 Y153.180 E3.83155
G1 X103.424 Y153.520 E3.91877
G1 X103.068 Y153.827 E4.00598
G1 X102.686 Y154.100 E4.09320
G1 X102.279 Y154.335 E4.18042
G1 X101.851 Y154.530 E4.26764
G1 X101.407 Y154.684 E4.35485
G1 X100.950 Y154.795 E4.44207
G1 X100.485 Y154.862 E4.52929
G1 X100.016 Y154.884 E4.61650
G1 X99.546 Y154.862 E4.70371
G1 X99.065 Y154.793 E4.79396
G1 X98.505 Y154.643 E4.90150
G1 X98.180 Y154.530 E4.96531
G1 X97.752 Y154.335 E5.05252
G1 X97.345 Y154.100 E5.13974
G1 X96.963 Y153.827 E5.22696
G1 X96.607 Y153.520 E5.31417
G1 X96.283 Y153.180 E5.40139
G1 X95.993 Y152.810 E5.48861
G1 X95.738 Y152.415 E5.57582
G1 X95.523 Y151.997 E5.66304
G1 X95.348 Y151.561 E5.75025
G1 X95.216 Y151.110 E5.83747
G1 X95.127 Y150.648 E5.92469
G1 X95.082 Y150.180 E6.01190
G1 X95.082 Y149.710 E6.09912
G1 X95.127 Y149.242 E6.18634
G1 X95.216 Y148.781 E6.27355
G1 X95.348 Y148.330 E6.36077
G1 X95.523 Y147.894 E6.44799
G1 X95.738 Y147.476 E6.53521
G1 X95.993 Y147.081 E6.62242
G1 X96.283 Y146.711 E6.70964
G1 X96.607 Y146.371 E6.79686
G1 X96.963 Y146.063 E6.88407
G1 X97.345 Y145.791 E6.97128
G1 X97.752 Y145.556 E7.05851
G1 X98.180 Y145.360 E7.14572
G1 X98.624 Y145.207 E7.23294
G1 X99.097 Y145.092 E7.32319
G1 X99.672 Y145.023 E7.43071
G1 X100.016 Y145.007 E7.49453 F1800.000
G1 X100.485 Y145.029 E7.58174
G1 X100.950 Y145.096 E7.66896
G1 X101.334 Y145.189 E7.74226
G1 X101.155 Y146.064 F7800.000
G1 X101.519 Y146.190 E7.81369 F1800.000
G1 X101.869 Y146.350 E7.88513
G1 X102.202 Y146.542 E7.95656
G1 X102.516 Y146.766 E8.02800
G1 X102.807 Y147.018 E8.09943
G1 X103.073 Y147.296 E8.17086
G1 X103.311 Y147.599 E8.24230
G1 X103.519 Y147.923 E8.31373
G1 X103.695 Y148.265 E8.38517
G1 X103.838 Y148.622 E8.45660
G1 X103.947 Y148.992 E8.52804
G1 X104.019 Y149.370 E8.59947
G1 X104.056 Y149.753 E8.67090
G1 X104.056 Y150.138 E8.74234
G1 X104.019 Y150.521 E8.81377
G1 X103.947 Y150.899 E8.88520
G1 X103.838 Y151.268 E8.95664
G1 X103.695 Y151.626 E9.02807
G1 X103.519 Y151.968 E9.09951
G1 X103.311 Y152.292 E9.17094
G1 X103.073 Y152.594 E9.24238
G1 X102.807 Y152.873 E9.31381
G1 X102.516 Y153.125 E9.38524
G1 X102.202 Y153.348 E9.45668
G1 X101.869 Y153.541 E9.52811
G1 X101.519 Y153.701 E9.59955
G1 X101.155 Y153.827 E9.67098
G1 X100.781 Y153.917 E9.74242
G1 X100.400 Y153.972 E9.81385
G1 X100.016 Y153.990 E9.88528
G1 X99.631 Y153.972 E9.95672
G1 X99.244 Y153.916 E10.02924
G1 X98.767 Y153.789 E10.12098
G1 X98.512 Y153.701 E10.17095
G1 X98.162 Y153.541 E10.24239
G1 X97.829 Y153.348 E10.31382
G1 X97.515 Y153.125 E10.38526
G1 X97.224 Y152.873 E10.45669
G1 X96.958 Y152.594 E10.52812
G1 X96.721 Y152.292 E10.59956
G1 X96.512 Y151.968 E10.67099
G1 X96.336 Y151.626 E10.74243
G1 X96.193 Y151.268 E10.81386
G1 X96.085 Y150.899 E10.88529
G1 X96.012 Y150.521 E10.95673
G1 X95.975 Y150.138 E11.02816
G1 X95.975 Y149.753 E11.09960
G1 X96.012 Y149.370 E11.17103
G1 X96.085 Y148.992 E11.24246
G1 X96.193 Y148.622 E11.31390
G1 X96.336 Y148.265 E11.38533
G1 X96.512 Y147.923 E11.45677
G1 X96.721 Y147.599 E11.52820
G1 X96.958 Y147.296 E11.59963
G1 X97.224 Y147.018 E11.67107
G1 X97.515 Y146.766 E11.74250
G1 X97.829 Y146.542 E11.81394
G1 X98.162 Y146.350 E11.88537
G1 X98.512 Y146.190 E11.95680
G1 X98.876 Y146.064 E12.02824
G1 X99.256 Y145.972 E12.10076
G1 X99.747 Y145.913 E12.19251
G1 X100.016 Y145.900 E12.24247 F1800.000
G1 X100.400 Y145.919 E12.31391
G1 X100.781 Y145.973 E12.38534
G1 X101.082 Y146.046 E12.44286
G1 X101.438 Y145.803 F7800.000
G1 E10.44286 F2400.00000
G92 E0
G1 X102.473 Y153.769 F7800.000
G1 X102.444 Y156.299 F7800.000
G1 X101.809 Y156.421 F7800.000
G1 X101.231 Y156.506 F7800.000
G1 X101.317 Y158.631 F7800.000
G1 X101.901 Y158.202 F7800.000
G1 E2.00000 F2400.00000
G1 X101.301 Y158.239 E2.11159 F1800.000
G1 X99.306 Y158.258 E2.48179
G1 X98.625 Y158.236 E2.60836
G1 X97.229 Y158.144 E2.86791
G1 X96.555 Y158.078 E2.99361
G1 X95.167 Y157.896 E3.25331
G1 X94.498 Y157.787 E3.37915
G1 X93.130 Y157.520 E3.63770
G1 X91.782 Y157.198 E3.89499
G1 X90.447 Y156.821 E4.15233
G1 X89.129 Y156.390 E4.40965
G1 X87.830 Y155.906 E4.66696
G1 X86.551 Y155.370 E4.92428
G1 X85.293 Y154.786 E5.18166
G1 X84.058 Y154.153 E5.43916
G1 X82.846 Y153.476 E5.69684
G1 X81.658 Y152.754 E5.95475
G1 X80.495 Y151.991 E6.21288
G1 X79.360 Y151.188 E6.47094
G1 X78.109 Y150.237 E6.76253
G1 X76.896 Y149.241 E7.05382
G1 X75.718 Y148.202 E7.34521
G1 X74.578 Y147.123 E7.63663
G1 X73.474 Y146.006 E7.92792
G1 X72.407 Y144.854 E8.21933
G1 X71.377 Y143.668 E8.51094
G1 X70.384 Y142.450 E8.80262
G1 X69.426 Y141.201 E9.09457
G1 X68.506 Y139.924 E9.38675
G1 X67.621 Y138.620 E9.67915
G1 X66.773 Y137.291 E9.97171
G1 X65.961 Y135.939 E10.26440
G1 X65.185 Y134.565 E10.55715
G1 X64.446 Y133.174 E10.84948
G1 X63.741 Y131.761 E11.14251
G1 X63.071 Y130.333 E11.43518
G1 X62.437 Y128.889 E11.72788
G1 X61.837 Y127.430 E12.02065
G1 X61.272 Y125.956 E12.31349
G1 X60.741 Y124.470 E12.60643
G1 X60.244 Y122.971 E12.89944
G1 X59.781 Y121.461 E13.19253
G1 X59.351 Y119.941 E13.48575
G1 X58.954 Y118.412 E13.77888
G1 X58.591 Y116.874 E14.07209
G1 X58.260 Y115.329 E14.36528
G1 X57.961 Y113.773 E14.65931
G1 X57.696 Y112.220 E14.95169
G1 X57.463 Y110.657 E15.24492
G1 X57.262 Y109.089 E15.53823
G1 X57.093 Y107.518 E15.83143
G1 X56.957 Y105.944 E16.12472
G1 X56.853 Y104.367 E16.41804
G1 X56.781 Y102.788 E16.71137
G1 X56.741 Y101.207 E17.00472
G1 X56.732 Y99.626 E17.29808
G1 X56.756 Y98.046 E17.59143
G1 X56.811 Y96.466 E17.88477
G1 X56.899 Y94.888 E18.17809
G1 X57.018 Y93.312 E18.47138
G1 X57.169 Y91.739 E18.76466
G1 X57.353 Y90.169 E19.05792
G1 X57.569 Y88.604 E19.35117
G1 X57.817 Y87.043 E19.64442
G1 X58.098 Y85.488 E19.93767
G1 X58.411 Y83.939 E20.23092
G1 X58.757 Y82.397 E20.52415
G1 X59.136 Y80.863 E20.81732
G1 X59.549 Y79.339 E21.11043
G1 X59.994 Y77.824 E21.40348
G1 X60.473 Y76.319 E21.69646
G1 X60.987 Y74.827 E21.98939
G1 X61.534 Y73.346 E22.28226
G1 X62.115 Y71.879 E22.57512
G1 X62.731 Y70.426 E22.86794
G1 X63.382 Y68.989 E23.16071
G1 X64.067 Y67.569 E23.45339
G1 X64.788 Y66.166 E23.74598
G1 X65.545 Y64.784 E24.03850
G1 X66.337 Y63.421 E24.33095
G1 X67.166 Y62.081 E24.62338
G1 X68.031 Y60.764 E24.91577
G1 X68.931 Y59.473 E25.20780
G1 X69.995 Y58.045 E25.53820
G1 X71.108 Y56.651 E25.86929
G1 X71.673 Y55.981 E26.03192
G1 X72.861 Y54.643 E26.36388
G1 X73.459 Y54.005 E26.52629
G1 X74.719 Y52.735 E26.85821
G1 X75.349 Y52.135 E27.01971
G1 X76.677 Y50.942 E27.35097
G1 X78.048 Y49.806 E27.68140
G1 X78.736 Y49.271 E27.84316
G1 X80.174 Y48.224 E28.17326
G1 X81.653 Y47.243 E28.50262
G1 X82.398 Y46.785 E28.66480
G1 X83.943 Y45.905 E28.99476
G1 X85.527 Y45.098 E29.32459
G1 X86.313 Y44.733 E29.48550
G1 X87.949 Y44.044 E29.81485
G1 X89.616 Y43.438 E30.14407
G1 X90.439 Y43.175 E30.30445
G1 X92.148 Y42.701 E30.63359
G1 X93.880 Y42.317 E30.96271
G1 X94.739 Y42.163 E31.12464
G1 X96.485 Y41.923 E31.45181
G1 X98.242 Y41.778 E31.77892
G1 X100.000 Y41.730 E32.10528
G1 X100.886 Y41.743 E32.26972
G1 X102.647 Y41.840 E32.59698 F1800.000
G1 X103.525 Y41.924 E32.76059
G1 X105.262 Y42.164 E33.08601
G1 X107.012 Y42.503 E33.41677
G1 X107.852 Y42.701 E33.57701
G1 X109.562 Y43.176 E33.90624
G1 X111.245 Y43.738 E34.23555
G1 X112.055 Y44.044 E34.39622
G1 X113.691 Y44.733 E34.72569
G1 X115.292 Y45.501 E35.05520
G1 X116.061 Y45.905 E35.21628
