; generated by Slic3r 1.2.9 on 2018-06-25 at 15:56:52

; external perimeters extrusion width = 0.50mm
; perimeters extrusion width = 0.58mm
; infill extrusion width = 0.58mm
; solid infill extrusion width = 0.58mm
; top infill extrusion width = 0.58mm

M107
M190 S80 ; set bed temperature
M104 S225 ; set temperature
G28 ; home all axes
G1 Z5 F5000 ; lift nozzle

M109 S225 ; wait for temperature to be reached
G21 ; set units to millimeters
G90 ; use absolute coordinates
M82 ; use absolute distances for extrusion
G92 E0
G1 Z0.500 F7800.000
G1 E-2.00000 F2400.00000
G92 E0
G1 X78.705 Y69.868 F7800.000
G1 E2.00000 F2400.00000
G1 X79.988 Y68.498 E2.34835 F1800.000
G1 X80.987 Y67.528 E2.60671
G1 X82.320 Y66.353 E2.93648
G1 X83.434 Y65.464 E3.20091
G1 X84.898 Y64.416 E3.53504
G1 X86.130 Y63.630 E3.80623
G1 X87.140 Y63.048 E4.02260
G1 X87.728 Y62.733 E4.14629
G1 X88.929 Y62.145 E4.39445
G1 X90.317 Y61.549 E4.67475
G1 X91.586 Y61.081 E4.92575
G1 X92.716 Y60.724 E5.14571
G1 X93.372 Y60.541 E5.27212
G1 X94.704 Y60.224 E5.52611
G1 X96.059 Y59.976 E5.78189
G1 X97.437 Y59.800 E6.03960
G1 X98.824 Y59.700 E6.29770
G1 X100.361 Y59.676 E6.58285
G1 X101.662 Y59.728 E6.82459 F1800.000
G1 X102.958 Y59.845 E7.06594
G1 X104.245 Y60.026 E7.30713
G1 X105.831 Y60.341 E7.60735
G1 X107.090 Y60.665 E7.84850
G1 X108.425 Y61.083 E8.10803
G1 X109.917 Y61.642 E8.40375
G1 X111.171 Y62.191 E8.65783
G1 X112.577 Y62.895 E8.94970
G1 X113.880 Y63.638 E9.22794
G1 X115.057 Y64.386 E9.48677
G1 X116.191 Y65.183 E9.74399
G1 X117.392 Y66.115 E10.02607
G1 X118.498 Y67.058 E10.29579
G1 X119.605 Y68.093 E10.57697
G1 X120.713 Y69.227 E10.87118
G1 X121.758 Y70.399 E11.16259
G1 X122.744 Y71.606 E11.45176
G1 X123.672 Y72.844 E11.73894
G1 X124.581 Y74.167 E12.03677
G1 X125.394 Y75.458 E12.31993
G1 X126.163 Y76.789 E12.60524
G1 X126.887 Y78.157 E12.89235
G1 X127.692 Y79.835 E13.23780
G1 X128.322 Y81.294 E13.53266
G1 X128.989 Y83.016 E13.87531
G1 X129.503 Y84.503 E14.16735
G1 X130.038 Y86.258 E14.50777
G1 X130.440 Y87.765 E14.79725
G1 X130.848 Y89.543 E15.13578
G1 X131.143 Y91.065 E15.42344
G1 X131.430 Y92.861 E15.76092
G1 X131.622 Y94.393 E16.04750
G1 X131.791 Y96.249 E16.39341
G1 X131.891 Y98.059 E16.72970
G1 X131.928 Y99.919 E17.07489
G1 X131.898 Y101.780 E17.42029
G1 X131.822 Y103.319 E17.70619
G1 X131.668 Y105.177 E18.05225
G1 X131.452 Y106.981 E18.38938
G1 X131.163 Y108.828 E18.73632
G1 X130.870 Y110.350 E19.02395
G1 X130.466 Y112.128 E19.36237
G1 X130.068 Y113.634 E19.65144
G1 X129.537 Y115.389 E19.99168
G1 X129.027 Y116.878 E20.28367
G1 X128.365 Y118.602 E20.62642
G1 X127.762 Y120.009 E20.91038
G1 X127.081 Y121.455 E21.20703
G1 X126.216 Y123.112 E21.55387
G1 X125.442 Y124.458 E21.84208
G1 X124.611 Y125.783 E22.13235
G1 X123.721 Y127.084 E22.42483
G1 X122.772 Y128.357 E22.71942
G1 X121.761 Y129.596 E23.01619
G1 X120.895 Y130.575 E23.25869
G1 X119.712 Y131.801 E23.57505
G1 X118.729 Y132.732 E23.82628
G1 X117.422 Y133.859 E24.14644
G1 X116.441 Y134.629 E24.37780
G1 X115.302 Y135.446 E24.63798
G1 X113.820 Y136.397 E24.96481
G1 X112.574 Y137.105 E25.23078
G1 X111.421 Y137.690 E25.47069
G1 X110.382 Y138.162 E25.68236
G1 X109.779 Y138.412 E25.80350
G1 X108.549 Y138.873 E26.04724
G1 X107.291 Y139.275 E26.29243
G1 X105.952 Y139.629 E26.54946
G1 X104.616 Y139.909 E26.80274
G1 X103.261 Y140.119 E27.05714
G1 X101.895 Y140.256 E27.31188
G1 X100.521 Y140.321 E27.56713
G1 X99.343 Y140.318 E27.78571
G1 X97.768 Y140.229 E28.07843
G1 X96.470 Y140.083 E28.32082
G1 X94.919 Y139.820 E28.61275
G1 X93.654 Y139.532 E28.85358
G1 X92.153 Y139.105 E29.14317
G1 X90.948 Y138.692 E29.37961
G1 X89.513 Y138.116 E29.66644
G1 X88.373 Y137.591 E29.89935
G1 X87.016 Y136.882 E30.18356
G1 X85.954 Y136.261 E30.41174
G1 X84.586 Y135.369 E30.71488
G1 X83.372 Y134.487 E30.99336
G1 X82.120 Y133.477 E31.29187
G1 X81.237 Y132.701 E31.51000
G1 X80.096 Y131.609 E31.80310
G1 X79.084 Y130.551 E32.07477
G1 X78.057 Y129.380 E32.36378
G1 X77.089 Y128.176 E32.65052
G1 X76.126 Y126.869 E32.95184
G1 X75.275 Y125.609 E33.23381
G1 X74.267 Y123.966 E33.59154
G1 X73.497 Y122.582 E33.88551
G1 X72.758 Y121.125 E34.18864
G1 X72.025 Y119.525 E34.51525
G1 X71.359 Y117.907 E34.83988
G1 X70.741 Y116.219 E35.17347
G1 X70.237 Y114.671 E35.47558
G1 X69.788 Y113.112 E35.77666
G1 X69.381 Y111.489 E36.08729
G1 X69.041 Y109.913 E36.38633
G1 X68.697 Y107.988 E36.74931
G1 X68.471 Y106.397 E37.04750
G1 X68.291 Y104.748 E37.35534
G1 X68.148 Y102.804 E37.71700
G1 X68.085 Y101.152 E38.02388
G1 X68.078 Y99.206 E38.38499
G1 X68.130 Y97.552 E38.69193
G1 X68.259 Y95.607 E39.05364
G1 X68.421 Y94.011 E39.35133
G1 X68.642 Y92.365 E39.65962
G1 X68.921 Y90.703 E39.97232
G1 X69.303 Y88.846 E40.32425
G1 X69.740 Y87.065 E40.66443
G1 X70.147 Y85.624 E40.94231
G1 X70.710 Y83.869 E41.28443
G1 X71.265 Y82.334 E41.58723
G1 X71.853 Y80.875 E41.87920
G1 X72.636 Y79.129 E42.23424
G1 X73.344 Y77.708 E42.52890
G1 X74.109 Y76.306 E42.82531
G1 X74.933 Y74.926 E43.12356
G1 X75.818 Y73.572 E43.42373
G1 X76.766 Y72.247 E43.72592
G1 X77.579 Y71.200 E43.97207
G1 X78.655 Y69.924 E44.28177
G1 E42.28177 F2400.00000
G92 E0
G1 X103.677 Y128.313 F7800.000
G1 E2.00000 F2400.00000
G1 X103.515 Y128.875 E2.10864 F1800.000
G1 X103.363 Y129.227 E2.17970
G1 X103.048 Y129.755 E2.29393
G1 X102.627 Y130.245 E2.41376
G1 X102.128 Y130.655 E2.53358
G1 X101.567 Y130.974 E2.65340
G1 X100.973 Y131.187 E2.77041
G1 X100.526 Y131.275 E2.85499
G1 X99.994 Y131.316 E2.95402
G1 X99.344 Y131.260 E3.07512
G1 X98.653 Y131.064 E3.20840
G1 X98.168 Y130.836 E3.30784
G1 X97.848 Y130.636 E3.37779
G1 X97.373 Y130.245 E3.49202
G1 X96.962 Y129.767 E3.60902
G1 X96.720 Y129.381 E3.69360
G1 X96.491 Y128.899 E3.79263
G1 X96.314 Y128.284 E3.91134
G1 X96.244 Y127.629 E4.03355
G1 X96.303 Y126.913 E4.16684
G1 X96.433 Y126.393 E4.26627
G1 X96.568 Y126.041 E4.33622
G1 X96.860 Y125.500 E4.45046
G1 X97.260 Y124.992 E4.57028
G1 X97.740 Y124.561 E4.69010
G1 X98.283 Y124.221 E4.80886
G1 X98.778 Y124.015 E4.90835
G1 X99.213 Y123.890 E4.99249
G1 X99.838 Y123.809 E5.10942 F1800.000
G1 X100.483 Y123.836 E5.22913
G1 X101.099 Y123.971 E5.34625
G1 X101.525 Y124.134 E5.43084
G1 X101.998 Y124.381 E5.52987
G1 X102.509 Y124.766 E5.64858
G1 X102.940 Y125.226 E5.76559
G1 X103.199 Y125.602 E5.85017
G1 X103.448 Y126.074 E5.94919
G1 X103.655 Y126.692 E6.07029
G1 X103.750 Y127.404 E6.20358
G1 X103.734 Y127.940 E6.30301
G1 X103.688 Y128.239 E6.35905
G1 X102.803 Y128.122 F7800.000
G1 X102.673 Y128.573 E6.44627 F1800.000
G1 X102.567 Y128.819 E6.49591
G1 X102.321 Y129.232 E6.58514
G1 X102.000 Y129.605 E6.67638
G1 X101.621 Y129.917 E6.76761
G1 X101.193 Y130.160 E6.85885
G1 X100.735 Y130.324 E6.94908
G1 X100.405 Y130.389 E7.01153
G1 X99.998 Y130.420 E7.08733
G1 X99.506 Y130.378 E7.17903
G1 X98.966 Y130.225 E7.28301
G1 X98.596 Y130.051 E7.35896
G1 X98.371 Y129.910 E7.40821
G1 X98.000 Y129.605 E7.49744
G1 X97.683 Y129.236 E7.58766
G1 X97.504 Y128.951 E7.65011
G1 X97.329 Y128.582 E7.72592
G1 X97.194 Y128.111 E7.81676
G1 X97.140 Y127.618 E7.90885
G1 X97.187 Y127.059 E8.01284
G1 X97.286 Y126.662 E8.08879
G1 X97.381 Y126.415 E8.13803
G1 X97.609 Y125.991 E8.22726
G1 X97.914 Y125.605 E8.31850
G1 X98.280 Y125.277 E8.40974
G1 X98.694 Y125.017 E8.50059
G1 X99.073 Y124.859 E8.57681
G1 X99.395 Y124.767 E8.63885
G1 X99.877 Y124.704 E8.72905 F1800.000
G1 X100.368 Y124.725 E8.82019
G1 X100.843 Y124.829 E8.91051
G1 X101.157 Y124.949 E8.97297
G1 X101.519 Y125.139 E9.04877
G1 X101.910 Y125.433 E9.13961
G1 X102.243 Y125.788 E9.22984
G1 X102.434 Y126.065 E9.29228
G1 X102.625 Y126.426 E9.36809
G1 X102.781 Y126.895 E9.45978
G1 X102.855 Y127.450 E9.56377
G1 X102.843 Y127.859 E9.63972
G1 X102.814 Y128.048 E9.67505
G1 X103.144 Y128.446 F7800.000
G1 X103.630 Y131.652 F7800.000
G1 X103.396 Y131.706 E9.71952 F1800.000
G1 X102.163 Y131.906 E9.95141
G1 X101.247 Y131.996 E10.12217
G1 X99.999 Y132.042 E10.35400
G1 X98.828 Y132.001 E10.57145
G1 X97.659 Y131.882 E10.78944
G1 X96.501 Y131.686 E11.00743
G1 X95.357 Y131.413 E11.22555
G1 X94.232 Y131.067 E11.44396
G1 X93.130 Y130.650 E11.66274
G1 X92.053 Y130.167 E11.88178
G1 X91.005 Y129.620 E12.10107
G1 X89.990 Y129.013 E12.32064
G1 X89.007 Y128.350 E12.54061
G1 X88.054 Y127.631 E12.76206
G1 X87.447 Y127.131 E12.90807
G1 X86.855 Y126.611 E13.05430
G1 X85.989 Y125.785 E13.27640
G1 X85.165 Y124.923 E13.49772
G1 X84.382 Y124.027 E13.71845
G1 X83.387 Y122.769 E14.01618
G1 X82.695 Y121.803 E14.23666
G1 X81.822 Y120.459 E14.53404
G1 X81.019 Y119.074 E14.83114
G1 X80.334 Y117.756 E15.10685
G1 X79.730 Y116.464 E15.37135
G1 X79.178 Y115.149 E15.63613
G1 X78.677 Y113.814 E15.90061
G1 X78.151 Y112.219 E16.21237
G1 X77.783 Y110.936 E16.46008
G1 X77.381 Y109.305 E16.77177
G1 X77.046 Y107.661 E17.08301
G1 X76.778 Y106.003 E17.39484
G1 X76.611 Y104.676 E17.64295
G1 X76.462 Y103.001 E17.95496
G1 X76.378 Y101.324 E18.26655
G1 X76.359 Y99.645 E18.57817
G1 X76.405 Y97.967 E18.88979
G1 X76.516 Y96.291 E19.20133
G1 X76.693 Y94.620 E19.51328
G1 X76.882 Y93.295 E19.76167
G1 X77.136 Y91.857 E20.03264
G1 X77.468 Y90.313 E20.32570
G1 X77.859 Y88.784 E20.61852
G1 X78.310 Y87.271 E20.91148
G1 X78.771 Y85.920 E21.17640
G1 X79.351 Y84.422 E21.47449
G1 X79.995 Y82.950 E21.77265
G1 X80.554 Y81.803 E22.00939
G1 X81.319 Y80.389 E22.30778
G1 X81.973 Y79.297 E22.54395
G1 X82.859 Y77.959 E22.84170
G1 X83.612 Y76.931 E23.07829
G1 X84.305 Y76.063 E23.28433
G1 X85.252 Y74.981 E23.55123
G1 X86.252 Y73.955 E23.81702
G1 X87.305 Y72.989 E24.08218
G1 X88.416 Y72.085 E24.34801
G1 X89.169 Y71.533 E24.52126
G1 X90.371 Y70.749 E24.78758
G1 X91.176 Y70.284 E24.96015
G1 X92.458 Y69.641 E25.22624
G1 X93.319 Y69.272 E25.39999
G1 X94.211 Y68.940 E25.57671
G1 X95.555 Y68.534 E25.83724
G1 X96.479 Y68.317 E26.01340
G1 X97.868 Y68.088 E26.27463
G1 X98.315 Y68.039 E26.35813
G1 X99.259 Y67.974 E26.53367
G1 X100.267 Y67.962 E26.72067
G1 X101.379 Y68.015 E26.92724
G1 X102.554 Y68.148 E27.14677 F1800.000
G1 X103.717 Y68.359 E27.36605
G1 X104.863 Y68.646 E27.58534
G1 X105.989 Y69.008 E27.80478
G1 X107.091 Y69.442 E28.02463
G1 X108.168 Y69.942 E28.24495
G1 X109.219 Y70.507 E28.46630
G1 X110.069 Y71.023 E28.65097
G1 X111.326 Y71.890 E28.93427
G1 X112.112 Y72.500 E29.11887
G1 X113.183 Y73.422 E29.38109
G1 X114.045 Y74.248 E29.60270
G1 X115.082 Y75.348 E29.88323
G1 X115.857 Y76.259 E30.10527
G1 X116.783 Y77.457 E30.38620
G1 X117.472 Y78.440 E30.60888
G1 X118.286 Y79.717 E30.88988
G1 X119.050 Y81.051 E31.17518
G1 X119.761 Y82.437 E31.46435
G1 X120.282 Y83.561 E31.69419
G1 X120.882 Y85.000 E31.98357
G1 X121.420 Y86.462 E32.27255
G1 X121.899 Y87.945 E32.56175
G1 X122.318 Y89.447 E32.85116
G1 X122.679 Y90.965 E33.14071
G1 X122.982 Y92.496 E33.43034
G1 X123.228 Y94.037 E33.72002
G1 X123.416 Y95.588 E34.00977
G1 X123.548 Y97.144 E34.29961
G1 X123.623 Y98.704 E34.58952
G1 X123.642 Y100.267 E34.87946
G1 X123.604 Y101.829 E35.16939
G1 X123.510 Y103.388 E35.45925
G1 X123.359 Y104.942 E35.74904
G1 X123.151 Y106.489 E36.03873
G1 X122.886 Y108.027 E36.32835
G1 X122.562 Y109.554 E36.61791
G1 X122.181 Y111.066 E36.90741
G1 X121.742 Y112.563 E37.19686
G1 X121.243 Y114.040 E37.48612
G1 X120.684 Y115.493 E37.77510
G1 X120.063 Y116.923 E38.06435
G1 X119.526 Y118.037 E38.29392
G1 X118.792 Y119.413 E38.58331
G1 X118.166 Y120.478 E38.81252
G1 X117.317 Y121.785 E39.10179
G1 X116.597 Y122.791 E39.33137
G1 X115.834 Y123.767 E39.56125
G1 X115.031 Y124.707 E39.79070
G1 X114.189 Y125.606 E40.01928
G1 X113.190 Y126.569 E40.27670
G1 X112.143 Y127.472 E40.53332
G1 X111.046 Y128.312 E40.78973
G1 X109.894 Y129.086 E41.04728
G1 X109.117 Y129.550 E41.21503
G1 X107.885 Y130.196 E41.47327
G1 X107.066 Y130.568 E41.64018
G1 X105.776 Y131.064 E41.89666
G1 X104.608 Y131.423 E42.12337
G1 X103.703 Y131.635 E42.29596
G1 X103.833 Y132.521 F7800.000
G1 X103.570 Y132.583 E42.34623 F1800.000
G1 X102.278 Y132.791 E42.58903
G1 X101.307 Y132.887 E42.77003
G1 X99.999 Y132.935 E43.01287
G1 X98.767 Y132.892 E43.24175
G1 X97.539 Y132.767 E43.47078
G1 X96.322 Y132.561 E43.69979
G1 X95.122 Y132.275 E43.92873
G1 X93.943 Y131.912 E44.15767
G1 X92.789 Y131.476 E44.38667
G1 X91.663 Y130.970 E44.61567
G1 X90.569 Y130.399 E44.84461
G1 X89.511 Y129.766 E45.07347
G1 X88.488 Y129.077 E45.30236
G1 X87.502 Y128.333 E45.53169
G1 X86.868 Y127.811 E45.68394
G1 X86.252 Y127.269 E45.83622
G1 X85.358 Y126.417 E46.06546
G1 X84.506 Y125.525 E46.29429
G1 X83.695 Y124.598 E46.52281
G1 X82.673 Y123.306 E46.82860
G1 X81.957 Y122.306 E47.05679
G1 X81.061 Y120.926 E47.36209
G1 X80.236 Y119.504 E47.66719
G1 X79.533 Y118.151 E47.95023
G1 X78.914 Y116.826 E48.22150
G1 X78.348 Y115.478 E48.49277
G1 X77.835 Y114.111 E48.76382
G1 X77.298 Y112.482 E49.08217
G1 X76.920 Y111.166 E49.33619
G1 X76.510 Y109.501 E49.65440
G1 X76.168 Y107.822 E49.97238
G1 X75.894 Y106.129 E50.29053
G1 X75.724 Y104.771 E50.54456
G1 X75.571 Y103.063 E50.86275
G1 X75.486 Y101.352 E51.18078
G1 X75.466 Y99.638 E51.49881
G1 X75.513 Y97.925 E51.81685
G1 X75.627 Y96.215 E52.13488
G1 X75.807 Y94.510 E52.45305
G1 X76.000 Y93.154 E52.70718
G1 X76.260 Y91.685 E52.98398
G1 X76.599 Y90.108 E53.28329
G1 X76.999 Y88.546 E53.58259
G1 X77.460 Y86.999 E53.88203
G1 X77.932 Y85.615 E54.15349
G1 X78.525 Y84.082 E54.45856
G1 X79.185 Y82.575 E54.76373
G1 X79.760 Y81.395 E55.00733
G1 X80.543 Y79.947 E55.31283
G1 X81.217 Y78.821 E55.55640
G1 X82.126 Y77.449 E55.86186
G1 X82.903 Y76.388 E56.10576
G1 X83.620 Y75.490 E56.31900
G1 X84.596 Y74.375 E56.59412
G1 X85.630 Y73.314 E56.86898
G1 X86.721 Y72.314 E57.14367
G1 X87.870 Y71.378 E57.41861
G1 X88.661 Y70.799 E57.60052
G1 X89.903 Y69.988 E57.87587
G1 X90.753 Y69.498 E58.05788
G1 X92.082 Y68.831 E58.33375
G1 X92.987 Y68.443 E58.51648
G1 X94.378 Y67.945 E58.79072
G1 X95.329 Y67.670 E58.97443
G1 X96.293 Y67.444 E59.15811
G1 X96.770 Y67.352 E59.24840
G1 X97.752 Y67.203 E59.43269
G1 X98.236 Y67.149 E59.52298
G1 X99.223 Y67.082 E59.70661
G1 X100.283 Y67.069 E59.90324
G1 X101.450 Y67.124 E60.12015
G1 X102.684 Y67.264 E60.35058 F1800.000
G1 X103.905 Y67.486 E60.58089
G1 X105.109 Y67.787 E60.81111
G1 X106.289 Y68.167 E61.04121
G1 X107.443 Y68.621 E61.27130
G1 X108.568 Y69.143 E61.50150
G1 X109.662 Y69.732 E61.73203
G1 X110.555 Y70.274 E61.92585
G1 X111.853 Y71.170 E62.21859
G1 X112.677 Y71.809 E62.41205
G1 X113.783 Y72.761 E62.68285
G1 X114.679 Y73.619 E62.91315
G1 X115.747 Y74.753 E63.20211
G1 X116.551 Y75.697 E63.43224
G1 X117.502 Y76.928 E63.72092
G1 X118.214 Y77.943 E63.95107
G1 X119.050 Y79.255 E64.23967
G1 X119.835 Y80.625 E64.53273
G1 X120.564 Y82.046 E64.82904
G1 X121.099 Y83.202 E65.06542
G1 X121.713 Y84.674 E65.36150
G1 X122.264 Y86.170 E65.65735
G1 X122.754 Y87.688 E65.95324
G1 X123.183 Y89.224 E66.24916
G1 X123.552 Y90.775 E66.54507
G1 X123.861 Y92.339 E66.84095
G1 X124.112 Y93.913 E67.13680
G1 X124.304 Y95.496 E67.43266
G1 X124.439 Y97.085 E67.72854
G1 X124.515 Y98.677 E68.02443
G1 X124.535 Y100.272 E68.32034
G1 X124.496 Y101.866 E68.61626
G1 X124.400 Y103.458 E68.91215
G1 X124.246 Y105.045 E69.20802
G1 X124.034 Y106.625 E69.50386
G1 X123.763 Y108.196 E69.79969
G1 X123.432 Y109.755 E70.09553
G1 X123.043 Y111.301 E70.39142
G1 X122.593 Y112.832 E70.68740
G1 X122.083 Y114.343 E70.98340
G1 X121.511 Y115.831 E71.27933
G1 X120.875 Y117.295 E71.57539
G1 X120.322 Y118.441 E71.81162
G1 X119.571 Y119.850 E72.10786
G1 X118.925 Y120.947 E72.34417
G1 X118.055 Y122.288 E72.64084
G1 X117.312 Y123.326 E72.87768
G1 X116.525 Y124.333 E73.11468
G1 X115.696 Y125.303 E73.35154
G1 X114.825 Y126.233 E73.58808
G1 X113.792 Y127.229 E73.85432
G1 X112.706 Y128.166 E74.12042
G1 X111.566 Y129.038 E74.38676
G1 X110.372 Y129.840 E74.65382
G1 X109.554 Y130.329 E74.83054
