;FLAVOR:Marlin
;TIME:7766
;Filament used: 7.68617m
;Layer height: 0.2
;MINX:17.361
;MINY:39.87
;MINZ:0.3
;MAXX:187.761
;MAXY:169.995
;MAXZ:7.9
;Generated with Cura_SteamEngine 4.2.1
M140 S60
M105
M190 S60
M104 S200
M105
M109 S200
M82 ;absolute extrusion mode
G28 ;Home
G1 Z15.0 F6000 ;Move the platform down 15mm
;Prime the extruder
G92 E0
G1 F200 E3
G92 E0
;
M117 Printing...        ☺
M141 S28
G92 E0
G92 E0
G1 F1500 E-3
;LAYER_COUNT:39
;LAYER:0
M107
G0 F3600 X19.182 Y41.798 Z0.3
;TYPE:SKIRT
G1 F1500 E0
G1 F1800 X19.653 Y41.616 E0.02519
G1 X20.147 Y41.509 E0.05041
G1 X20.652 Y41.482 E0.07564
G1 X20.936 Y41.502 E0.08984
G1 X21.145 Y41.526 E0.10034
G1 X21.181 Y41.53 E0.10215
G1 X23.51 Y41.824 E0.21926
G1 X26.253 Y42.093 E0.35677
G1 X28.97 Y42.283 E0.49265
G1 X31.681 Y42.394 E0.62802
G1 X34.437 Y42.43 E0.76553
G1 X37.188 Y42.389 E0.90279
G1 X39.905 Y42.269 E1.03847
G1 X42.652 Y42.072 E1.17587
G1 X45.36 Y41.799 E1.31166
G1 X48.081 Y41.448 E1.44854
G1 X50.815 Y41.016 E1.58663
G1 X53.463 Y40.52 E1.72103
G1 X54.983 Y40.186 E1.79868
G1 X55.021 Y40.178 E1.80061
G1 X56.134 Y39.947 E1.85733
G1 X56.725 Y39.881 E1.88699
G1 X57.215 Y39.872 E1.91144
G1 X57.274 Y39.871 E1.91439
G1 X141.772 Y39.871 E6.13001
G1 X155.439 Y39.87 E6.81186
G1 X155.484 Y39.87 E6.81411
G1 X156.191 Y39.88 E6.84938
G1 X156.695 Y39.927 E6.87463
G1 X157.184 Y40.053 E6.89983
G1 X157.648 Y40.254 E6.92506
G1 X158.074 Y40.526 E6.95027
G1 X158.362 Y40.771 E6.96914
G1 X158.736 Y41.13 E6.995
G1 X158.783 Y41.176 E6.99828
G1 X167.494 Y49.888 E7.61292
G1 X167.524 Y49.919 E7.61508
G1 X167.995 Y50.403 E7.64877
G1 X168.318 Y50.792 E7.674
G1 X168.576 Y51.227 E7.69923
G1 X168.762 Y51.698 E7.72449
G1 X168.852 Y52.069 E7.74354
G1 X169.097 Y53.434 E7.81273
G1 X169.544 Y55.784 E7.93207
G1 X170.118 Y58.411 E8.06622
G1 X170.785 Y61.097 E8.2043
G1 X171.525 Y63.753 E8.34185
G1 X172.33 Y66.357 E8.47783
G1 X173.209 Y68.937 E8.61382
G1 X174.172 Y71.524 E8.75153
G1 X175.198 Y74.056 E8.88783
G1 X176.29 Y76.545 E9.02344
G1 X177.463 Y79.03 E9.16053
G1 X178.704 Y81.475 E9.29733
G1 X180.026 Y83.907 E9.43543
G1 X181.383 Y86.241 E9.57012
G1 X182.819 Y88.56 E9.7062
G1 X184.341 Y90.868 E9.84413
G1 X185.912 Y93.109 E9.98067
G1 X186.86 Y94.388 E10.0601
G1 X186.887 Y94.424 E10.06234
G1 X187.147 Y94.785 E10.08454
G1 X187.409 Y95.217 E10.10974
G1 X187.6 Y95.685 E10.13496
G1 X187.714 Y96.178 E10.16021
G1 X187.748 Y96.548 E10.17874
G1 X187.759 Y96.877 E10.19517
G1 X187.761 Y96.984 E10.20051
G1 X187.761 Y98.103 E10.25633
G1 X187.751 Y98.834 E10.29281
G1 X187.661 Y99.545 E10.32856
G1 X187.37 Y100.743 E10.39007
G1 X186.753 Y103.417 E10.52698
G1 X186.217 Y106.089 E10.66294
G1 X185.75 Y108.814 E10.80088
G1 X185.46 Y110.787 E10.90037
G1 X185.401 Y111.224 E10.92237
G1 X185.294 Y111.718 E10.94758
G1 X185.099 Y112.213 E10.97413
G1 X184.854 Y112.709 E11.00173
G1 X184.821 Y112.774 E11.00536
G1 X184.207 Y113.949 E11.0715
G1 X184.182 Y113.995 E11.07412
G1 X183.373 Y115.483 E11.15862
G1 X183.348 Y115.53 E11.16127
G1 X182.707 Y116.664 E11.22626
G1 X182.684 Y116.704 E11.22856
G1 X181.947 Y117.965 E11.30143
G1 X181.923 Y118.004 E11.30372
G1 X181.153 Y119.279 E11.37803
G1 X181.132 Y119.314 E11.38006
G1 X180.444 Y120.421 E11.44509
G1 X180.419 Y120.461 E11.44744
G1 X179.574 Y121.777 E11.52547
G1 X179.55 Y121.814 E11.52767
G1 X178.797 Y122.952 E11.59574
G1 X178.772 Y122.988 E11.59793
G1 X177.942 Y124.206 E11.67147
G1 X177.916 Y124.245 E11.6738
G1 X177.106 Y125.397 E11.74406
G1 X177.08 Y125.432 E11.74624
G1 X176.189 Y126.663 E11.82205
G1 X176.161 Y126.701 E11.82441
G1 X175.354 Y127.782 E11.89171
G1 X175.33 Y127.814 E11.8937
G1 X174.423 Y128.998 E11.96811
G1 X174.394 Y129.036 E11.9705
G1 X173.546 Y130.109 E12.03873
G1 X173.519 Y130.143 E12.0409
G1 X172.532 Y131.358 E12.11899
G1 X172.502 Y131.394 E12.12133
G1 X171.65 Y132.412 E12.18756
G1 X171.622 Y132.445 E12.18972
G1 X170.674 Y133.547 E12.26224
G1 X170.645 Y133.58 E12.26443
G1 X169.649 Y134.706 E12.33943
G1 X169.619 Y134.739 E12.34166
G1 X168.662 Y135.791 E12.41261
G1 X168.632 Y135.824 E12.41484
G1 X167.676 Y136.846 E12.48465
G1 X167.645 Y136.878 E12.48688
G1 X166.634 Y137.929 E12.55963
G1 X166.603 Y137.961 E12.56186
G1 X165.604 Y138.971 E12.63273
G1 X165.57 Y139.005 E12.63513
G1 X164.5 Y140.055 E12.70992
G1 X164.471 Y140.084 E12.71197
G1 X163.489 Y141.023 E12.77975
G1 X163.455 Y141.054 E12.78205
G1 X162.383 Y142.05 E12.85505
G1 X162.35 Y142.08 E12.85728
G1 X161.26 Y143.065 E12.93057
G1 X161.227 Y143.095 E12.9328
G1 X160.139 Y144.051 E13.00505
G1 X160.106 Y144.08 E13.00725
G1 X159.055 Y144.978 E13.07621
G1 X159.019 Y145.008 E13.07855
G1 X157.856 Y145.973 E13.15395
G1 X157.822 Y146.001 E13.15614
G1 X156.761 Y146.857 E13.22416
G1 X156.727 Y146.884 E13.22632
G1 X155.515 Y147.835 E13.30318
G1 X155.478 Y147.863 E13.3055
G1 X154.406 Y148.679 E13.37271
G1 X154.369 Y148.707 E13.37503
G1 X153.172 Y149.591 E13.44926
G1 X153.14 Y149.615 E13.45126
G1 X152.01 Y150.428 E13.52071
G1 X151.973 Y150.454 E13.52297
G1 X150.707 Y151.338 E13.6
G1 X150.667 Y151.365 E13.60241
G1 X149.577 Y152.102 E13.66805
G1 X149.542 Y152.125 E13.67014
G1 X148.273 Y152.959 E13.7459
G1 X148.235 Y152.984 E13.74817
G1 X147.067 Y153.728 E13.81726
G1 X147.028 Y153.753 E13.81957
G1 X145.752 Y154.54 E13.89437
G1 X145.716 Y154.562 E13.89647
G1 X144.54 Y155.266 E13.96485
G1 X144.5 Y155.289 E13.96715
G1 X143.214 Y156.034 E14.0413
G1 X143.176 Y156.056 E14.04349
G1 X141.937 Y156.751 E14.11437
G1 X141.899 Y156.771 E14.11651
G1 X140.639 Y157.456 E14.18806
G1 X140.598 Y157.479 E14.19041
G1 X139.283 Y158.169 E14.26449
G1 X139.243 Y158.189 E14.26673
G1 X137.986 Y158.826 E14.33703
G1 X137.945 Y158.846 E14.33931
G1 X136.641 Y159.484 E14.41173
G1 X136.601 Y159.504 E14.41396
G1 X135.313 Y160.112 E14.48502
G1 X135.275 Y160.129 E14.4871
G1 X133.973 Y160.723 E14.5585
G1 X133.931 Y160.742 E14.5608
G1 X132.593 Y161.329 E14.63369
G1 X132.552 Y161.347 E14.63593
G1 X131.236 Y161.903 E14.7072
G1 X131.194 Y161.92 E14.70946
G1 X129.834 Y162.472 E14.78269
G1 X129.793 Y162.489 E14.7849
G1 X128.512 Y162.988 E14.85349
G1 X128.473 Y163.003 E14.85557
G1 X127.045 Y163.538 E14.93165
G1 X126.998 Y163.555 E14.93415
G1 X125.709 Y164.015 E15.00243
G1 X125.669 Y164.029 E15.00454
G1 X124.292 Y164.5 E15.07715
G1 X124.251 Y164.513 E15.07929
G1 X122.872 Y164.964 E15.15168
G1 X122.826 Y164.979 E15.15409
G1 X121.442 Y165.409 E15.2264
G1 X121.403 Y165.421 E15.22843
G1 X120.034 Y165.827 E15.29967
G1 X119.989 Y165.84 E15.30201
G1 X118.614 Y166.226 E15.37326
G1 X118.572 Y166.237 E15.37542
G1 X117.185 Y166.606 E15.44703
G1 X117.14 Y166.618 E15.44935
G1 X115.708 Y166.977 E15.52301
G1 X115.666 Y166.987 E15.52516
G1 X114.29 Y167.312 E15.5957
G1 X114.247 Y167.322 E15.5979
G1 X112.831 Y167.636 E15.67026
G1 X112.785 Y167.646 E15.67261
G1 X111.391 Y167.934 E15.74363
G1 X111.35 Y167.942 E15.74571
G1 X109.867 Y168.228 E15.82106
G1 X109.818 Y168.237 E15.82355
G1 X108.522 Y168.466 E15.8892
G1 X108.481 Y168.473 E15.89128
G1 X106.994 Y168.716 E15.96645
G1 X106.952 Y168.723 E15.96858
G1 X105.515 Y168.938 E16.04107
G1 X105.468 Y168.944 E16.04343
G1 X104.071 Y169.132 E16.11375
G1 X104.029 Y169.138 E16.11587
G1 X102.602 Y169.311 E16.18759
G1 X102.556 Y169.316 E16.18989
G1 X101.009 Y169.481 E16.26751
G1 X100.965 Y169.485 E16.26972
G1 X99.582 Y169.613 E16.33901
G1 X99.535 Y169.617 E16.34136
G1 X98.058 Y169.732 E16.41527
G1 X98.014 Y169.736 E16.41748
G1 X96.618 Y169.825 E16.48727
G1 X96.572 Y169.827 E16.48956
G1 X95.099 Y169.9 E16.56314
G1 X95.053 Y169.902 E16.56544
G1 X93.631 Y169.952 E16.63643
G1 X93.586 Y169.953 E16.63867
G1 X92.156 Y169.983 E16.71003
G1 X92.116 Y169.984 E16.71203
G1 X90.8 Y169.995 E16.77768
G1 X90.756 Y169.995 E16.77988
G1 X89.217 Y169.987 E16.85666
G1 X89.174 Y169.986 E16.85881
G1 X87.788 Y169.96 E16.92797
G1 X87.74 Y169.959 E16.93036
G1 X86.262 Y169.909 E17.00414
G1 X86.219 Y169.907 E17.00629
G1 X84.843 Y169.842 E17.07502
G1 X84.797 Y169.84 E17.07731
G1 X83.255 Y169.745 E17.15439
G1 X83.21 Y169.742 E17.15664
G1 X81.904 Y169.643 E17.22198
G1 X81.861 Y169.639 E17.22414
G1 X80.374 Y169.506 E17.29862
G1 X80.328 Y169.502 E17.30092
G1 X78.874 Y169.351 E17.37385
G1 X78.832 Y169.346 E17.37596
G1 X77.365 Y169.174 E17.44965
G1 X77.319 Y169.168 E17.45197
G1 X75.994 Y168.993 E17.51865
G1 X75.95 Y168.987 E17.52086
G1 X74.417 Y168.763 E17.59816
G1 X74.373 Y168.757 E17.60037
G1 X73.059 Y168.546 E17.66677
G1 X73.016 Y168.538 E17.66895
G1 X71.544 Y168.281 E17.7435
G1 X71.497 Y168.273 E17.74588
G1 X70.065 Y168.001 E17.8186
G1 X70.021 Y167.992 E17.82084
G1 X68.577 Y167.697 E17.89437
G1 X68.536 Y167.689 E17.89645
G1 X67.261 Y167.411 E17.96156
G1 X67.218 Y167.401 E17.96376
G1 X65.723 Y167.053 E18.04034
G1 X65.678 Y167.042 E18.04265
G1 X64.286 Y166.697 E18.1142
G1 X64.241 Y166.686 E18.11651
G1 X62.851 Y166.32 E18.18822
G1 X62.811 Y166.309 E18.19029
G1 X61.447 Y165.931 E18.26091
G1 X61.403 Y165.918 E18.26319
G1 X59.982 Y165.502 E18.33706
G1 X59.939 Y165.489 E18.33931
G1 X58.589 Y165.073 E18.40978
G1 X58.546 Y165.06 E18.41202
G1 X57.202 Y164.625 E18.4825
G1 X57.16 Y164.611 E18.48471
G1 X55.743 Y164.131 E18.55935
G1 X55.7 Y164.116 E18.56162
G1 X54.322 Y163.627 E18.63457
G1 X54.281 Y163.612 E18.63675
G1 X53.033 Y163.15 E18.70314
G1 X52.992 Y163.135 E18.70532
G1 X51.553 Y162.58 E18.78227
G1 X51.51 Y162.563 E18.78457
G1 X50.243 Y162.053 E18.85271
G1 X50.201 Y162.035 E18.85499
G1 X48.791 Y161.444 E18.93127
G1 X48.751 Y161.427 E18.93343
G1 X47.549 Y160.904 E18.99883
G1 X47.507 Y160.885 E19.00113
G1 X46.042 Y160.222 E19.08136
G1 X46.003 Y160.204 E19.0835
G1 X44.868 Y159.672 E19.14604
G1 X44.826 Y159.653 E19.14834
G1 X43.43 Y158.974 E19.22579
G1 X43.391 Y158.954 E19.22797
G1 X42.134 Y158.321 E19.29819
G1 X42.092 Y158.3 E19.30053
G1 X40.77 Y157.61 E19.37493
G1 X40.733 Y157.59 E19.37703
G1 X39.551 Y156.953 E19.44402
G1 X39.512 Y156.932 E19.44623
G1 X38.192 Y156.197 E19.5216
G1 X38.152 Y156.174 E19.5239
G1 X36.924 Y155.467 E19.5946
G1 X36.886 Y155.445 E19.59679
G1 X35.634 Y154.701 E19.66945
G1 X35.595 Y154.677 E19.67173
G1 X34.383 Y153.933 E19.74268
G1 X34.346 Y153.91 E19.74486
G1 X33.099 Y153.121 E19.81848
G1 X33.06 Y153.096 E19.82079
G1 X31.89 Y152.332 E19.8905
G1 X31.854 Y152.308 E19.89266
G1 X30.623 Y151.48 E19.96667
G1 X30.586 Y151.455 E19.9689
G1 X29.451 Y150.668 E20.03781
G1 X29.415 Y150.642 E20.04002
G1 X28.23 Y149.796 E20.11266
G1 X28.193 Y149.77 E20.11492
G1 X27.041 Y148.923 E20.18626
G1 X27.007 Y148.898 E20.18836
G1 X25.802 Y147.987 E20.26373
G1 X25.764 Y147.957 E20.26614
G1 X24.71 Y147.135 E20.33283
G1 X24.675 Y147.108 E20.33503
G1 X23.449 Y146.124 E20.41346
G1 X23.415 Y146.096 E20.41566
G1 X22.406 Y145.263 E20.48094
G1 X22.371 Y145.234 E20.48321
G1 X21.216 Y144.253 E20.55881
G1 X21.185 Y144.226 E20.56086
G1 X20.152 Y143.325 E20.62924
G1 X20.116 Y143.293 E20.63165
G1 X18.822 Y142.13 E20.71845
G1 X18.777 Y142.089 E20.72149
G1 X18.399 Y141.736 E20.74729
G1 X18.058 Y141.363 E20.7725
G1 X17.78 Y140.94 E20.79776
G1 X17.572 Y140.48 E20.82294
G1 X17.439 Y139.992 E20.84818
G1 X17.384 Y139.463 E20.87471
G1 X17.362 Y138.403 E20.92761
G1 X17.361 Y138.337 E20.9309
G1 X17.361 Y45.321 E25.57149
G1 X17.371 Y44.634 E25.60576
G1 X17.419 Y44.131 E25.63097
G1 X17.545 Y43.641 E25.65621
G1 X17.746 Y43.178 E25.6814
G1 X18.018 Y42.752 E25.70661
G1 X18.354 Y42.374 E25.73184
G1 X18.745 Y42.053 E25.75708
G1 X19.182 Y41.798 E25.78233
G1 F1500 E22.78233
;MESH:Dreamcatcher_Wall_Hook_Plate.stl
G0 F3600 X46.547 Y52.886
G0 X47.83 Y52.886
G0 X54.946 Y59.5
G0 X56.031 Y59.94
G0 X57.105 Y59.889
G0 X58.005 Y59.559
G0 X57.95 Y59.476
;TYPE:WALL-INNER
G1 F1500 E25.78233
G1 F1800 X58.412 Y59.063 E25.81324
G1 X58.736 Y58.613 E25.84091
G1 X58.958 Y58.102 E25.8687
G1 X59.072 Y57.511 E25.89873
G1 X59.052 Y56.95 E25.92674
G1 X58.9 Y56.369 E25.9567
G1 X58.644 Y55.875 E25.98446
G1 X58.287 Y55.444 E26.01238
G1 X57.811 Y55.079 E26.0423
G1 X57.303 Y54.841 E26.07029
G1 X56.715 Y54.717 E26.10027
G1 X56.159 Y54.72 E26.12801
G1 X55.615 Y54.844 E26.15585
G1 X55.072 Y55.103 E26.18586
G1 X54.632 Y55.45 E26.21382
G1 X54.255 Y55.918 E26.2438
G1 X54.008 Y56.414 E26.27145
G1 X53.871 Y56.957 E26.29938
G1 X53.857 Y57.558 E26.32938
G1 X53.967 Y58.108 E26.35736
G1 X54.214 Y58.655 E26.3873
G1 X54.545 Y59.1 E26.41497
G1 X54.968 Y59.468 E26.44294
G1 X55.497 Y59.752 E26.4729
G1 X56.037 Y59.901 E26.50085
G1 X56.637 Y59.931 E26.53082
G1 X57.203 Y59.832 E26.55948
G1 X57.95 Y59.476 E26.60077
G0 F3600 X58.005 Y59.559
G0 X141.772 Y43.771
G0 X141.772 Y43.671
G1 F1800 X155.903 Y43.67 E27.30577
G1 X165.112 Y52.879 E27.95551
G1 X165.112 Y61.761 E28.39864
G1 X155.902 Y70.969 E29.04838
G1 X141.773 Y70.97 E29.75328
G1 X57.022 Y70.969 E33.98152
G1 X47.812 Y61.761 E34.63127
G1 X47.812 Y52.879 E35.07439
G1 X57.022 Y43.671 E35.72414
G1 X141.772 Y43.671 E39.95233
G0 F3600 X141.772 Y43.271
;TYPE:WALL-OUTER
G1 F1800 X156.069 Y43.27 E40.66561
G1 X165.512 Y52.713 E41.33187
G1 X165.512 Y61.927 E41.79156
G1 X156.068 Y71.369 E42.45781
G1 X141.773 Y71.37 E43.17099
G1 X56.856 Y71.369 E47.40752
G1 X47.412 Y61.927 E48.07377
G1 X47.412 Y52.713 E48.53346
G1 X56.856 Y43.271 E49.19972
G1 X141.772 Y43.271 E53.43619
G0 F3600 X141.972 Y43.271
G0 X141.972 Y43.771
G0 X58.058 Y59.512
G0 X57.726 Y59.139
G1 F1800 X58.113 Y58.794 E53.46206
G1 X58.386 Y58.414 E53.4854
G1 X58.574 Y57.983 E53.50886
G1 X58.671 Y57.48 E53.53442
G1 X58.654 Y57.009 E53.55793
G1 X58.524 Y56.514 E53.58346
G1 X58.308 Y56.097 E53.60689
G1 X58.008 Y55.734 E53.63039
G1 X57.602 Y55.423 E53.6559
G1 X57.175 Y55.223 E53.67943
G1 X56.674 Y55.117 E53.70498
G1 X56.205 Y55.12 E53.72837
G1 X55.747 Y55.224 E53.75181
G1 X55.285 Y55.445 E53.77736
G1 X54.915 Y55.736 E53.80084
G1 X54.594 Y56.135 E53.82639
G1 X54.385 Y56.554 E53.84975
G1 X54.27 Y57.011 E53.87326
G1 X54.258 Y57.523 E53.89881
G1 X54.35 Y57.985 E53.92231
G1 X54.561 Y58.451 E53.94783
G1 X54.84 Y58.827 E53.97119
G1 X55.196 Y59.137 E53.99474
G1 X55.647 Y59.378 E54.02026
G1 X56.101 Y59.504 E54.04376
G1 X56.612 Y59.529 E54.06929
G1 X57.08 Y59.447 E54.09299
G1 X57.726 Y59.139 E54.1287
G0 F3600 X57.875 Y59.006
G0 X58.168 Y59.804
;TYPE:SKIN
G1 F1800 X58.704 Y59.326 E54.16453
G1 X59.077 Y58.806 E54.19645
G1 X59.333 Y58.218 E54.22845
G1 X59.464 Y57.542 E54.2628
G1 X59.44 Y56.893 E54.2952
G1 X59.266 Y56.228 E54.3295
G1 X58.971 Y55.659 E54.36147
G1 X58.56 Y55.161 E54.39369
G1 X58.014 Y54.744 E54.42796
G1 X57.428 Y54.469 E54.46026
G1 X56.754 Y54.327 E54.49462
G1 X56.114 Y54.33 E54.52655
G1 X55.486 Y54.473 E54.55868
G1 X54.865 Y54.77 E54.59303
G1 X54.355 Y55.171 E54.62539
G1 X53.925 Y55.706 E54.65964
G1 X53.64 Y56.278 E54.69152
G1 X53.483 Y56.904 E54.72372
G1 X53.467 Y57.591 E54.758
G1 X53.593 Y58.228 E54.7904
G1 X53.876 Y58.854 E54.82467
G1 X54.257 Y59.367 E54.85655
G1 X54.745 Y59.791 E54.88881
G1 X55.351 Y60.116 E54.92311
G1 X55.975 Y60.289 E54.95542
G1 X56.661 Y60.323 E54.98969
G1 X57.322 Y60.207 E55.02317
G1 X58.168 Y59.804 E55.06992
G0 F3600 X48.202 Y61.601
G1 F1800 X48.202 Y53.039 E55.49708
G1 X57.182 Y44.061 E56.13059
G1 X141.772 Y44.061 E60.35081
G1 X155.743 Y44.06 E61.04782
G1 X164.722 Y53.039 E61.68134
G1 X164.722 Y61.601 E62.1085
G1 X155.742 Y70.579 E62.74202
G1 X141.773 Y70.58 E63.43893
G1 X57.182 Y70.579 E67.6592
G1 X48.202 Y61.601 E68.29271
G0 F3600 X57.387 Y70.398
G1 F1800 X48.381 Y61.392 E68.92813
G0 F3600 X48.381 Y60.826
G1 F1800 X57.953 Y70.398 E69.60349
G0 F3600 X58.518 Y70.398
G1 F1800 X48.381 Y60.261 E70.31871
G0 F3600 X48.381 Y59.695
G1 F1800 X59.084 Y70.398 E71.07387
G0 F3600 X59.65 Y70.398
G1 F1800 X48.381 Y59.129 E71.86895
G0 F3600 X48.381 Y58.563
G1 F1800 X60.215 Y70.398 E72.70394
G0 F3600 X60.781 Y70.398
G1 F1800 X48.381 Y57.998 E73.57883
G0 F3600 X48.381 Y57.432
G1 F1800 X61.347 Y70.398 E74.49365
G0 F3600 X61.912 Y70.398
G1 F1800 X48.381 Y56.866 E75.44837
G0 F3600 X48.381 Y56.301
G1 F1800 X62.478 Y70.398 E76.44299
G0 F3600 X63.044 Y70.398
G1 F1800 X48.381 Y55.735 E77.47754
G0 F3600 X48.381 Y55.169
G1 F1800 X63.609 Y70.398 E78.552
G0 F3600 X64.175 Y70.398
G1 F1800 X48.381 Y54.604 E79.66635
G0 F3600 X48.381 Y54.038
G1 F1800 X64.741 Y70.398 E80.82064
G0 F3600 X65.306 Y70.398
G1 F1800 X55.087 Y60.178 E81.54168
G1 X55.017 Y60.108
