;FLAVOR:Marlin
;TIME:2437
;Filament used: 2.56314m
;Layer height: 0.2
;MINX:35.601
;MINY:70.55
;MINZ:0.3
;MAXX:162.45
;MAXY:141.446
;MAXZ:5.9
;Generated with Cura_SteamEngine 4.2.1
M140 S60
M105
M190 S60
M104 S200
M105
M109 S200
M82 ;absolute extrusion mode
G28 ;Home
G1 Z15.0 F6000 ;Move the platform down 15mm
;Prime the extruder
G92 E0
G1 F200 E3
G92 E0
;
M117 Printing...        ☺
M141 S28
G92 E0
G92 E0
G1 F1500 E-3
;LAYER_COUNT:29
;LAYER:0
M107
G0 F3600 X46.52 Y71.147 Z0.3
;TYPE:SKIRT
G1 F1500 E0
G1 F1800 X46.955 Y70.888 E0.02526
G1 X47.425 Y70.702 E0.05048
G1 X47.918 Y70.592 E0.07568
G1 X48.309 Y70.561 E0.09524
G1 X48.805 Y70.552 E0.11999
G1 X48.863 Y70.551 E0.12289
G1 X133.361 Y70.551 E4.33851
G1 X147.028 Y70.55 E5.02036
G1 X147.073 Y70.55 E5.0226
G1 X147.78 Y70.56 E5.05788
G1 X148.284 Y70.607 E5.08313
G1 X148.773 Y70.733 E5.10833
G1 X149.237 Y70.934 E5.13356
G1 X149.663 Y71.206 E5.15877
G1 X149.951 Y71.452 E5.17767
G1 X150.329 Y71.815 E5.20381
G1 X150.376 Y71.86 E5.20706
G1 X159.083 Y80.568 E5.82142
G1 X159.113 Y80.599 E5.82357
G1 X159.585 Y81.084 E5.85734
G1 X159.908 Y81.473 E5.88256
G1 X160.166 Y81.908 E5.9078
G1 X160.352 Y82.378 E5.93301
G1 X160.461 Y82.872 E5.95825
G1 X160.492 Y83.264 E5.97787
G1 X160.501 Y83.822 E6.00571
G1 X160.501 Y92.027 E6.41506
G1 X160.491 Y92.733 E6.45029
G1 X160.488 Y92.825 E6.45488
G1 X160.447 Y93.784 E6.50277
G1 X160.445 Y93.828 E6.50497
G1 X160.399 Y94.641 E6.54559
G1 X160.32 Y97.396 E6.6831
G1 X160.32 Y100.113 E6.81865
G1 X160.397 Y102.864 E6.95595
G1 X160.55 Y105.58 E7.09167
G1 X160.782 Y108.324 E7.22905
G1 X161.092 Y111.059 E7.36638
G1 X161.474 Y113.748 E7.50188
G1 X161.93 Y116.415 E7.63687
G1 X162.354 Y118.566 E7.74624
G1 X162.395 Y118.84 E7.76007
G1 X162.427 Y119.135 E7.77487
G1 X162.446 Y119.446 E7.79042
G1 X162.45 Y119.828 E7.80947
G1 X162.45 Y128.024 E8.21837
G1 X162.44 Y128.722 E8.2532
G1 X162.393 Y129.225 E8.27841
G1 X162.267 Y129.715 E8.30365
G1 X162.065 Y130.179 E8.32889
G1 X161.793 Y130.605 E8.35411
G1 X161.558 Y130.882 E8.37223
G1 X161.182 Y131.277 E8.39944
G1 X161.126 Y131.334 E8.40343
G1 X152.462 Y139.995 E9.01461
G1 X152.436 Y140.021 E9.01645
G1 X151.92 Y140.525 E9.05243
G1 X151.532 Y140.849 E9.07765
G1 X151.097 Y141.107 E9.10288
G1 X150.627 Y141.294 E9.12812
G1 X150.134 Y141.404 E9.15332
G1 X149.742 Y141.435 E9.17294
G1 X149.246 Y141.444 E9.19769
G1 X149.188 Y141.445 E9.20058
G1 X64.69 Y141.445 E13.41621
G1 X51.023 Y141.446 E14.09806
G1 X50.977 Y141.446 E14.10035
G1 X50.274 Y141.436 E14.13543
G1 X49.771 Y141.389 E14.16063
G1 X49.281 Y141.263 E14.18587
G1 X48.818 Y141.061 E14.21107
G1 X48.391 Y140.79 E14.23631
G1 X48.114 Y140.554 E14.25446
G1 X47.722 Y140.181 E14.28146
G1 X47.665 Y140.126 E14.28541
G1 X38.968 Y131.428 E14.89906
G1 X38.937 Y131.396 E14.90129
G1 X38.47 Y130.916 E14.9347
G1 X38.148 Y130.527 E14.95989
G1 X37.89 Y130.092 E14.98512
G1 X37.704 Y129.622 E15.01034
G1 X37.595 Y129.129 E15.03553
G1 X37.565 Y128.765 E15.05375
G1 X37.551 Y128.203 E15.0818
G1 X37.55 Y128.123 E15.08579
G1 X37.55 Y119.969 E15.4926
G1 X37.56 Y119.262 E15.52787
G1 X37.563 Y119.17 E15.53246
G1 X37.604 Y118.213 E15.58025
G1 X37.606 Y118.169 E15.58245
G1 X37.652 Y117.356 E15.62308
G1 X37.731 Y114.601 E15.76058
G1 X37.731 Y111.883 E15.89618
G1 X37.654 Y109.131 E16.03353
G1 X37.501 Y106.416 E16.1692
G1 X37.269 Y103.671 E16.30664
G1 X36.959 Y100.937 E16.44391
G1 X36.577 Y98.247 E16.57946
G1 X36.121 Y95.581 E16.7144
G1 X35.697 Y93.43 E16.82378
G1 X35.656 Y93.156 E16.8376
G1 X35.624 Y92.861 E16.85241
G1 X35.605 Y92.55 E16.86795
G1 X35.601 Y92.169 E16.88696
G1 X35.601 Y83.972 E17.29591
G1 X35.611 Y83.274 E17.33074
G1 X35.658 Y82.771 E17.35594
G1 X35.784 Y82.281 E17.38118
G1 X35.986 Y81.817 E17.40643
G1 X36.258 Y81.391 E17.43165
G1 X36.493 Y81.114 E17.44977
G1 X36.869 Y80.719 E17.47698
G1 X36.925 Y80.662 E17.48096
G1 X45.605 Y71.985 E18.09328
G1 X45.632 Y71.958 E18.09518
G1 X46.132 Y71.47 E18.13004
G1 X46.52 Y71.147 E18.15523
G1 F1500 E15.15523
;MESH:Dreamcatcher_Wall_Hook_Plate_03.stl
G0 F3600 X47.712 Y73.462
G0 X48.618 Y74.369
G0 X50.681 Y87.624
G0 X50.586 Y88.794
G0 X49.595 Y90.238
G0 X49.54 Y90.155
;TYPE:WALL-INNER
G1 F1500 E18.15523
G1 F1800 X50 Y89.744 E18.186
G1 X50.325 Y89.295 E18.21365
G1 X50.548 Y88.783 E18.24152
G1 X50.662 Y88.19 E18.27164
G1 X50.642 Y87.629 E18.29965
G1 X50.488 Y87.048 E18.32964
G1 X50.232 Y86.556 E18.35731
G1 X49.878 Y86.126 E18.38509
G1 X49.401 Y85.759 E18.41512
G1 X48.893 Y85.522 E18.44309
G1 X48.304 Y85.397 E18.47313
G1 X47.749 Y85.4 E18.50082
G1 X47.204 Y85.525 E18.52871
G1 X46.662 Y85.783 E18.55866
G1 X46.22 Y86.131 E18.58673
G1 X45.844 Y86.599 E18.61668
G1 X45.597 Y87.094 E18.64428
G1 X45.46 Y87.637 E18.67221
G1 X45.446 Y88.238 E18.70221
G1 X45.556 Y88.789 E18.73024
G1 X45.803 Y89.336 E18.76018
G1 X46.134 Y89.781 E18.78785
G1 X46.557 Y90.149 E18.81582
G1 X47.086 Y90.431 E18.84573
G1 X47.627 Y90.582 E18.87375
G1 X48.227 Y90.611 E18.90372
G1 X48.793 Y90.512 E18.93239
G1 X49.54 Y90.155 E18.97369
G0 F3600 X49.595 Y90.238
G0 X133.361 Y74.451
G0 X133.361 Y74.351
G1 F1800 X147.492 Y74.35 E19.67869
G1 X156.701 Y83.559 E20.32844
G1 X156.701 Y92.441 E20.77156
G1 X147.491 Y101.649 E21.42131
G1 X133.362 Y101.65 E22.12621
G1 X48.611 Y101.649 E26.35445
G1 X39.401 Y92.441 E27.00419
G1 X39.401 Y83.559 E27.44732
G1 X48.611 Y74.351 E28.09706
G1 X133.361 Y74.351 E32.32526
G0 F3600 X133.361 Y73.951
;TYPE:WALL-OUTER
G1 F1800 X147.658 Y73.95 E33.03854
G1 X157.101 Y83.393 E33.70479
G1 X157.101 Y92.607 E34.16448
G1 X147.657 Y102.049 E34.83074
G1 X133.362 Y102.05 E35.54392
G1 X48.445 Y102.049 E39.78044
G1 X39.001 Y92.607 E40.4467
G1 X39.001 Y83.393 E40.90639
G1 X48.445 Y73.951 E41.57264
G1 X133.361 Y73.951 E45.80912
G0 F3600 X133.561 Y73.951
G0 X133.561 Y74.451
G0 X49.647 Y90.192
G0 X49.316 Y89.819
G1 F1800 X49.701 Y89.475 E45.83488
G1 X49.976 Y89.095 E45.85828
G1 X50.164 Y88.664 E45.88174
G1 X50.261 Y88.159 E45.90739
G1 X50.244 Y87.688 E45.93091
G1 X50.113 Y87.193 E45.95645
G1 X49.897 Y86.778 E45.97979
G1 X49.598 Y86.415 E46.00326
G1 X49.192 Y86.103 E46.0288
G1 X48.765 Y85.904 E46.0523
G1 X48.263 Y85.797 E46.07791
G1 X47.795 Y85.8 E46.10126
G1 X47.336 Y85.905 E46.12475
G1 X46.874 Y86.125 E46.15028
G1 X46.503 Y86.417 E46.17384
G1 X46.183 Y86.816 E46.19935
G1 X45.974 Y87.234 E46.22267
G1 X45.859 Y87.691 E46.24618
G1 X45.847 Y88.203 E46.27173
G1 X45.939 Y88.666 E46.29528
G1 X46.15 Y89.132 E46.3208
G1 X46.429 Y89.508 E46.34416
G1 X46.785 Y89.817 E46.36768
G1 X47.236 Y90.058 E46.39319
G1 X47.691 Y90.185 E46.41676
G1 X48.202 Y90.209 E46.44228
G1 X48.67 Y90.127 E46.46598
G1 X49.316 Y89.819 E46.50169
G0 F3600 X49.465 Y89.686
G0 X49.758 Y90.483
;TYPE:SKIN
G1 F1800 X50.291 Y90.007 E46.53734
G1 X50.666 Y89.49 E46.5692
G1 X50.923 Y88.9 E46.60131
G1 X51.054 Y88.221 E46.63581
G1 X51.03 Y87.571 E46.66826
G1 X50.854 Y86.906 E46.70258
G1 X50.559 Y86.34 E46.73442
G1 X50.151 Y85.844 E46.76647
G1 X49.605 Y85.424 E46.80083
G1 X49.018 Y85.15 E46.83315
G1 X48.343 Y85.007 E46.86758
G1 X47.704 Y85.01 E46.89946
G1 X47.075 Y85.154 E46.93165
G1 X46.455 Y85.45 E46.96592
G1 X45.943 Y85.852 E46.9984
G1 X45.514 Y86.387 E47.03261
G1 X45.229 Y86.958 E47.06445
G1 X45.072 Y87.584 E47.09665
G1 X45.056 Y88.271 E47.13093
G1 X45.182 Y88.909 E47.16338
G1 X45.465 Y89.535 E47.19765
G1 X45.846 Y90.048 E47.22953
G1 X46.335 Y90.473 E47.26186
G1 X46.94 Y90.795 E47.29605
G1 X47.565 Y90.97 E47.32843
G1 X48.252 Y91.003 E47.36274
G1 X48.912 Y90.887 E47.39618
G1 X49.758 Y90.483 E47.44295
G0 F3600 X39.791 Y92.281
G1 F1800 X39.791 Y83.719 E47.87011
G1 X48.771 Y74.741 E48.50363
G1 X133.361 Y74.741 E52.72384
G1 X147.332 Y74.74 E53.42085
G1 X156.311 Y83.719 E54.05437
G1 X156.311 Y92.281 E54.48153
G1 X147.331 Y101.259 E55.11505
G1 X133.362 Y101.26 E55.81196
G1 X48.771 Y101.259 E60.03223
G1 X39.791 Y92.281 E60.66574
G0 F3600 X49.035 Y101.078
G1 F1800 X39.97 Y92.013 E61.30533
G0 F3600 X39.97 Y91.447
G1 F1800 X49.601 Y101.078 E61.98485
G0 F3600 X50.167 Y101.078
G1 F1800 X39.97 Y90.882 E62.70427
G0 F3600 X39.97 Y90.316
G1 F1800 X50.732 Y101.078 E63.46358
G0 F3600 X51.298 Y101.078
G1 F1800 X39.97 Y89.75 E64.26283
G0 F3600 X39.97 Y89.185
G1 F1800 X51.864 Y101.078 E65.10198
G0 F3600 X52.429 Y101.078
G1 F1800 X39.97 Y88.619 E65.98103
G0 F3600 X39.97 Y88.053
G1 F1800 X52.995 Y101.078 E66.90002
G0 F3600 X53.561 Y101.078
G1 F1800 X39.97 Y87.488 E67.8589
G0 F3600 X39.97 Y86.922
G1 F1800 X54.126 Y101.078 E68.85768
G0 F3600 X54.692 Y101.078
G1 F1800 X39.97 Y86.356 E69.8964
G0 F3600 X39.97 Y85.791
G1 F1800 X55.258 Y101.078 E70.97502
G0 F3600 X55.823 Y101.078
G1 F1800 X39.97 Y85.225 E72.09353
G0 F3600 X39.97 Y84.659
G1 F1800 X56.389 Y101.078 E73.25198
G0 F3600 X56.955 Y101.078
G1 F1800 X46.801 Y90.925 E73.96836
G1 X46.731 Y90.855
G0 F3600 X47.593 Y91.151
G1 F1800 X57.521 Y101.078 E74.6688
G0 F3600 X58.086 Y101.078
G1 F1800 X48.187 Y91.179 E75.36723
G0 F3600 X48.682 Y91.109
G1 F1800 X58.652 Y101.078 E76.07063
G0 F3600 X59.218 Y101.078
G1 F1800 X49.124 Y90.984 E76.78282
G0 F3600 X49.507 Y90.802
G1 F1800 X59.783 Y101.078 E77.50785
G0 F3600 X60.349 Y101.078
G1 F1800 X49.883 Y90.612 E78.24628
G0 F3600 X50.181 Y90.345
G1 F1800 X60.915 Y101.078 E79.00359
G0 F3600 X61.48 Y101.078
G1 F1800 X50.469 Y90.067 E79.78047
G0 F3600 X50.706 Y89.738
G1 F1800 X62.046 Y101.078 E80.58057
G0 F3600 X62.612 Y101.078
G1 F1800 X50.91 Y89.377 E81.40617
G0 F3600 X51.082 Y88.983
G1 F1800 X63.177 Y101.078 E82.25954
G0 F3600 X63.743 Y101.078
G1 F1800 X51.18 Y88.515 E83.14593
G0 F3600 X51.226 Y87.995
G1 F1800 X64.309 Y101.078 E84.06901
G0 F3600 X64.874 Y101.078
G1 F1800 X51.162 Y87.365 E85.0365
G1 X51.092 Y87.295
G0 F3600 X50.828 Y86.466
G1 F1800 X65.44 Y101.078 E86.06745
G0 F3600 X66.006 Y101.078
G1 F1800 X44.346 Y79.418 E87.59568
G0 F3600 X44.629 Y79.135
G1 F1800 X66.571 Y101.078 E89.14384
G0 F3600 X67.137 Y101.078
G1 F1800 X44.911 Y78.853 E90.71197
G0 F3600 X45.194 Y78.57
G1 F1800 X67.703 Y101.078 E92.30007
G0 F3600 X68.269 Y101.078
G1 F1800 X45.477 Y78.287 E93.90813
G0 F3600 X45.76 Y78.004
G1 F1800 X68.834 Y101.078 E95.53613
G0 F3600 X69.4 Y101.078
G1 F1800 X46.043 Y77.721 E97.18409
G0 F3600 X46.326 Y77.438
G1 F1800 X69.966 Y101.078 E98.85202
G0 F3600 X70.531 Y101.078
G1 F1800 X46.608 Y77.155 E100.53992
G0 F3600 X46.891 Y76.873
G1 F1800 X71.097 Y101.078 E102.24775
G0 F3600 X71.663 Y101.078
G1 F1800 X47.174 Y76.59 E103.97554
G0 F3600 X47.457 Y76.307
G1 F1800 X72.228 Y101.078 E105.72327
G0 F3600 X72.794 Y101.078
G1 F1800 X47.74 Y76.024 E107.49096
G0 F3600 X48.023 Y75.741
G1 F1800 X73.36 Y101.078 E109.27863
G0 F3600 X73.925 Y101.078
G1 F1800 X48.305 Y75.458 E111.08626
G0 F3600 X48.588 Y75.176
G1 F1800 X74.491 Y101.078 E112.91382
G0 F3600 X75.057 Y101.078
G1 F1800 X48.899 Y74.92 E114.75941
G0 F3600 X49.464 Y74.92
G1 F1800 X75.622 Y101.078 E116.60499
G0 F3600 X76.188 Y101.078
G1 F1800 X50.03 Y74.92 E118.45058
G0 F3600 X50.596 Y74.92
G1 F1800 X76.754 Y101.078 E120.29617
G0 F3600 X77.32 Y101.078
G1 F1800 X51.162 Y74.92 E122.14176
G0 F3600 X51.727 Y74.92
G1 F1800 X77.885 Y101.078 E123.98735
G0 F3600 X78.451 Y101.078
G1 F1800 X52.293 Y74.92 E125.83293
G0 F3600 X52.859 Y74.92
G1 F1800 X79.017 Y101.078 E127.67852
G0 F3600 X79.582 Y101.078
G1 F1800 X53.424 Y74.92 E129.52411
G0 F3600 X53.99 Y74.92
G1 F1800 X80.148 Y101.078 E131.3697
G0 F3600 X80.714 Y101.078
G1 F1800 X54.556 Y74.92 E133.21529
G0 F3600 X55.121 Y74.92
G1 F1800 X81.279 Y101.078 E135.06088
G0 F3600 X81.845 Y101.078
G1 F1800 X55.687 Y74.92 E136.90646
G0 F3600 X56.253 Y74.92
G1 F1800 X82.411 Y101.078 E138.75205
G0 F3600 X82.976 Y101.078
G1 F1800 X56.818 Y74.92 E140.59764
G0 F3600 X57.384 Y74.92
G1 F1800 X83.542 Y101.078 E142.44323
G0 F3600 X84.108 Y101.078
G1 F1800 X57.95 Y74.92 E144.28882
G0 F3600 X58.515 Y74.92
G1 F1800 X84.673 Y101.078 E146.1344
G0 F3600 X85.239 Y101.078
G1 F1800 X59.081 Y74.92 E147.97999
G0 F3600 X59.647 Y74.92
G1 F1800 X85.805 Y101.078 E149.82558
G0 F3600 X86.37 Y101.078
G1 F1800 X60.212 Y74.92 E151.67117
G0 F3600 X60.778 Y74.92
G1 F1800 X86.936 Y101.078 E153.51676
G0 F3600 X87.502 Y101.078
G1 F1800 X61.344 Y74.92 E155.36235
G0 F3600 X61.91 Y74.92
G1 F1800 X88.068 Y101.078 E157.20793
G0 F3600 X88.633 Y101.078
G1 F1800 X62.475 Y74.92 E159.05352
G0 F3600 X63.041 Y74.92
G1 F1800 X89.199 Y101.078 E160.89911
G0 F3600 X89.765 Y101.078
G1 F1800 X63.607 Y74.92 E162.7447
G0 F3600 X64.172 Y74.92
G1 F1800 X90.33 Y101.078 E164.59029
G0 F3600 X90.896 Y101.078
G1 F1800 X64.738 Y74.92 E166.43587
G0 F3600 X65.304 Y74.92
G1 F1800 X91.462 Y101.079 E168.2815
G0 F3600 X92.028 Y101.079
G1 F1800 X65.869 Y74.92 E170.12716
G0 F3600 X66.435 Y74.92
G1 F1800 X92.594 Y101.079 E171.97282
G0 F3600 X93.159 Y101.079
G1 F1800 X67.001 Y74.92 E173.81844
G0 F3600 X67.566 Y74.92
G1 F1800 X93.725 Y101.079 E175.6641
G0 F3600 X94.291 Y101.079
G1 F1800 X68.132 Y74.92 E177.50976
G0 F3600 X68.698 Y74.92
G1 F1800 X94.856 Y101.079 E179.35538
G0 F3600 X95.422 Y101.079
G1 F1800 X69.263 Y74.92 E181.20104
G0 F3600 X69.829 Y74.92
G1 F1800 X95.988 Y101.079 E183.0467
G0 F3600 X96.554 Y101.079
G1 F1800 X70.395 Y74.92 E184.89236
G0 F3600 X70.96 Y74.92
G1 F1800 X97.119 Y101.079 E186.73801
G0 F3600 X97.685 Y101.079
G1 F1800 X71.526 Y74.92 E188.58367
G0 F3600 X72.092 Y74.92
G1 F1800 X98.251 Y101.079 E190.42933
G0 F3600 X98.816 Y101.079
G1 F1800 X72.658 Y74.92 E192.27496
G0 F3600 X73.223 Y74.92
G1 F1800 X99.382 Y101.079 E194.12061
G0 F3600 X99.948 Y101.079
G1 F1800 X73.789 Y74.92 E195.96627
G0 F3600 X74.355 Y74.92
G1 F1800 X100.513 Y101.079 E197.8119
G0 F3600 X101.079 Y101.079
G1 F1800 X74.92 Y74.92 E199.65756
G0 F3600 X75.486 Y74.92
G1 F1800 X101.645 Y101.079 E201.50321
G0 F3600 X102.21 Y101.079
G1 F1800 X76.052 Y74.92 E203.34884
G0 F3600 X76.617 Y74.92
G1 F1800 X102.776 Y101.079 E205.1945
G0 F3600 X103.342 Y101.079
G1 F1800 X77.183 Y74.92 E207.04015
G0 F3600 X77.749 Y74.92
G1 F1800 X103.907 Y101.079 E208.88578
G0 F3600 X104.473 Y101.079
G1 F1800 X78.314 Y74.92 E210.73144
G0 F3600 X78.88 Y74.92
G1 F1800 X105.039 Y101.079 E212.5771
G0 F3600 X105.604 Y101.079
G1 F1800 X79.446 Y74.92 E214.42272
G0 F3600 X80.011 Y74.92
G1 F1800 X106.17 Y101.079 E216.26838
G0 F3600 X106.736 Y101.079
G1 F1800 X80.577 Y74.92 E218.11404
G0 F3600 X81.143 Y74.92
G1 F1800 X107.302 Y101.079 E219.9597
G0 F3600 X107.867 Y101.079
G1 F1800 X81.709 Y74.92 E221.80532
G0 F3600 X82.274 Y74.92
G1 F1800 X108.433 Y101.079 E223.65098
G0 F3600 X108.999 Y101.079
G1 F1800 X82.84 Y74.92 E225.49664
G0 F3600 X83.406 Y74.92
G1 F1800 X109.564 Y101.079 E227.34226
G0 F3600 X110.13 Y101.079
G1 F1800 X83.971 Y74.92 E229.18792
G0 F3600 X84.537 Y74.92
G1 F1800 X110.696 Y101.079 E231.03358
G0 F3600 X111.261 Y101.079
G1 F1800 X85.103 Y74.92 E232.8792
G0 F3600 X85.668 Y74.92
G1 F1800 X111.827 Y101.079 E234.72486
G0 F3600 X112.393 Y101.079
G1 F1800 X86.234 Y74.92 E236.57052
G0 F3600 X86.8 Y74.92
G1 F1800 X112.958 Y101.079 E238.41614
G0 F3600 X113.524 Y101.079
G1 F1800 X87.365 Y74.92 E240.2618
G0 F3600 X87.931 Y74.92
G1 F1800 X114.09 Y101.079 E242.10746
G0 F3600 X114.655 Y101.079
G1 F1800 X88.497 Y74.92 E243.95308
G0 F3600 X89.062 Y74.92
G1 F1800 X115.221 Y101.079 E245.79874
G0 F3600 X115.787 Y101.079
G1 F1800 X89.628 Y74.92 E247.6444
G0 F3600 X90.194 Y74.92
G1 F1800 X116.353 Y101.079 E249.49006
G0 F3600 X116.918 Y101.079
G1 F1800 X90.759 Y74.92 E251.33572
G0 F3600 X91.325 Y74.92
G1 F1800 X117.484 Y101.079 E253.18138
G0 F3600 X118.05 Y101.079
G1 F1800 X91.891 Y74.92 E255.02704
G0 F3600 X92.457 Y74.92
G1 F1800 X118.615 Y101.079 E256.87266
G0 F3600 X119.181 Y101.079
G1 F1800 X93.022 Y74.92 E258.71832
G0 F3600 X93.588 Y74.92
G1 F1800 X119.747 Y101.079 E260.56398
G0 F3600 X120.312 Y101.079
G1 F1800 X94.154 Y74.92 E262.4096
G0 F3600 X94.719 Y74.92
G1 F1800 X120.878 Y101.079 E264.25526
G0 F3600 X121.444 Y101.079
G1 F1800 X95.285 Y74.92 E266.10092
G0 F3600 X95.851 Y74.92
G1 F1800 X122.009 Y101.079 E267.94654
G0 F3600 X122.575 Y101.079
G1 F1800 X96.416 Y74.92 E269.7922
G0 F3600 X96.982 Y74.92
G1 F1800 X123.141 Y101.079 E271.63786
G0 F3600 X123.706 Y101.079
G1 F1800 X97.548 Y74.92 E273.48348
G0 F3600 X98.113 Y74.92
G1 F1800 X124.272 Y101.079 E275.32914
G0 F3600 X124.838 Y101.079
