;FLAVOR:Marlin
;TIME:7785
;Filament used: 22.2262m
;Layer height: 0.4
;MINX:55.099
;MINY:52.101
;MINZ:0.3
;MAXX:144.901
;MAXY:147.745
;MAXZ:47.9
;Generated with Cura_SteamEngine 4.2.1
M140 S60
M105
M190 S60
M104 S210
M105
M109 S210
M82 ;absolute extrusion mode
G28 ;Home
G1 Z15.0 F6000 ;Move the platform down 15mm
;Prime the extruder
G92 E0
G1 F200 E3
G92 E0
;
M117 Printing...        ☺
M141 S28
G92 E0
G92 E0
G1 F1500 E-5
;LAYER_COUNT:120
;LAYER:0
M107
G0 F3600 X57.37 Y54.522 Z0.3
;TYPE:SKIRT
G1 F1500 E0
G1 F1800 X57.52 Y54.372 E0.01323
G1 X58.104 Y53.844 E0.06233
G1 X58.739 Y53.379 E0.11141
G1 X59.417 Y52.98 E0.16047
G1 X60.133 Y52.652 E0.20958
G1 X60.878 Y52.398 E0.25867
G1 X61.645 Y52.221 E0.30776
G1 X62.426 Y52.123 E0.35685
G1 X63 Y52.102 E0.39267
G1 X135.612 Y52.101 E4.92095
G1 X135.618 Y52.101 E4.92133
G1 X137.006 Y52.102 E5.00789
G1 X137.792 Y52.143 E5.05697
G1 X138.57 Y52.263 E5.10606
G1 X139.331 Y52.461 E5.1551
G1 X140.069 Y52.736 E5.20421
G1 X140.775 Y53.084 E5.2533
G1 X141.442 Y53.501 E5.30236
G1 X142.063 Y53.985 E5.35146
G1 X142.48 Y54.372 E5.38694
G1 X142.63 Y54.522 E5.40016
G1 X143.158 Y55.106 E5.44926
G1 X143.623 Y55.741 E5.49835
G1 X144.022 Y56.419 E5.54741
G1 X144.35 Y57.135 E5.59652
G1 X144.604 Y57.88 E5.64561
G1 X144.781 Y58.647 E5.6947
G1 X144.879 Y59.428 E5.74378
G1 X144.9 Y60.002 E5.7796
G1 X144.901 Y132.614 E10.30789
G1 X144.901 Y132.62 E10.30826
G1 X144.9 Y134.008 E10.39482
G1 X144.859 Y134.794 E10.4439
G1 X144.739 Y135.572 E10.493
G1 X144.541 Y136.333 E10.54203
G1 X144.266 Y137.071 E10.59115
G1 X143.918 Y137.777 E10.64024
G1 X143.501 Y138.444 E10.68929
G1 X143.017 Y139.065 E10.73839
G1 X142.63 Y139.482 E10.77387
G1 X142.48 Y139.632 E10.7871
G1 X141.896 Y140.16 E10.8362
G1 X141.261 Y140.625 E10.88528
G1 X140.583 Y141.024 E10.93434
G1 X139.867 Y141.352 E10.98346
G1 X139.122 Y141.606 E11.03254
G1 X138.355 Y141.783 E11.08163
G1 X137.574 Y141.881 E11.13072
G1 X137 Y141.902 E11.16654
G1 X64.388 Y141.903 E15.69482
G1 X64.382 Y141.903 E15.6952
G1 X62.994 Y141.902 E15.78176
G1 X62.208 Y141.861 E15.83084
G1 X61.43 Y141.741 E15.87993
G1 X60.669 Y141.543 E15.92897
G1 X59.931 Y141.268 E15.97809
G1 X59.225 Y140.92 E16.02717
G1 X58.558 Y140.503 E16.07623
G1 X57.937 Y140.019 E16.12533
G1 X57.52 Y139.632 E16.16081
G1 X57.37 Y139.482 E16.17404
G1 X56.842 Y138.898 E16.22313
G1 X56.377 Y138.263 E16.27222
G1 X55.978 Y137.585 E16.32128
G1 X55.65 Y136.869 E16.37039
G1 X55.396 Y136.124 E16.41948
G1 X55.219 Y135.357 E16.46857
G1 X55.121 Y134.576 E16.51765
G1 X55.1 Y134.002 E16.55347
G1 X55.099 Y61.39 E21.08176
G1 X55.099 Y61.384 E21.08213
G1 X55.1 Y59.996 E21.16869
G1 X55.141 Y59.21 E21.21778
G1 X55.261 Y58.432 E21.26687
G1 X55.459 Y57.671 E21.31591
G1 X55.734 Y56.933 E21.36502
G1 X56.082 Y56.227 E21.41411
G1 X56.499 Y55.56 E21.46316
G1 X56.983 Y54.939 E21.51226
G1 X57.37 Y54.522 E21.54774
G0 F3600 X57.723 Y54.875
G1 F1800 X57.873 Y54.725 E21.56097
G1 X58.439 Y54.216 E21.60844
G1 X59.055 Y53.769 E21.65591
G1 X59.715 Y53.389 E21.7034
G1 X60.411 Y53.08 E21.75089
G1 X61.135 Y52.846 E21.79834
G1 X61.88 Y52.689 E21.84582
G1 X63 Y52.602 E21.91588
G1 X135.612 Y52.601 E26.44416
G1 X135.617 Y52.601 E26.44447
G1 X137.005 Y52.602 E26.53103
G1 X137.765 Y52.643 E26.5785
G1 X138.517 Y52.763 E26.62599
G1 X139.252 Y52.961 E26.67346
G1 X139.963 Y53.235 E26.72098
G1 X140.64 Y53.582 E26.76842
G1 X141.278 Y53.998 E26.81592
G1 X142.127 Y54.725 E26.88562
G1 X142.277 Y54.875 E26.89885
G1 X142.786 Y55.441 E26.94632
G1 X143.233 Y56.057 E26.99379
G1 X143.613 Y56.717 E27.04128
G1 X143.922 Y57.413 E27.08877
G1 X144.156 Y58.137 E27.13622
G1 X144.313 Y58.882 E27.1837
G1 X144.4 Y60.002 E27.25376
G1 X144.401 Y132.614 E31.78204
G1 X144.401 Y132.619 E31.78236
G1 X144.4 Y134.007 E31.86891
G1 X144.359 Y134.767 E31.91638
G1 X144.239 Y135.519 E31.96387
G1 X144.041 Y136.254 E32.01134
G1 X143.767 Y136.965 E32.05886
G1 X143.42 Y137.642 E32.1063
G1 X143.004 Y138.28 E32.1538
G1 X142.277 Y139.129 E32.2235
G1 X142.127 Y139.279 E32.23673
G1 X141.561 Y139.788 E32.2842
G1 X140.945 Y140.235 E32.33167
G1 X140.285 Y140.615 E32.37916
G1 X139.589 Y140.924 E32.42665
G1 X138.865 Y141.158 E32.4741
G1 X138.12 Y141.315 E32.52158
G1 X137 Y141.402 E32.59164
G1 X64.388 Y141.403 E37.11992
G1 X64.383 Y141.403 E37.12024
G1 X62.995 Y141.402 E37.2068
G1 X62.235 Y141.361 E37.25426
G1 X61.483 Y141.241 E37.30175
G1 X60.748 Y141.043 E37.34922
G1 X60.037 Y140.769 E37.39674
G1 X59.36 Y140.422 E37.44418
G1 X58.722 Y140.006 E37.49168
G1 X57.873 Y139.279 E37.56139
G1 X57.723 Y139.129 E37.57461
G1 X57.214 Y138.563 E37.62209
G1 X56.767 Y137.947 E37.66955
G1 X56.387 Y137.287 E37.71704
G1 X56.078 Y136.591 E37.76453
G1 X55.844 Y135.867 E37.81198
G1 X55.687 Y135.122 E37.85946
G1 X55.6 Y134.002 E37.92952
G1 X55.599 Y61.39 E42.4578
G1 X55.599 Y61.385 E42.45812
G1 X55.6 Y59.997 E42.54468
G1 X55.641 Y59.237 E42.59214
G1 X55.761 Y58.485 E42.63963
G1 X55.959 Y57.75 E42.6871
G1 X56.233 Y57.039 E42.73462
G1 X56.58 Y56.362 E42.78206
G1 X56.996 Y55.724 E42.82956
G1 X57.723 Y54.875 E42.89927
G0 F3600 X58.077 Y55.229
G1 F1800 X58.227 Y55.079 E42.91249
G1 X58.774 Y54.589 E42.95829
G1 X59.371 Y54.161 E43.0041
G1 X60.011 Y53.8 E43.04993
G1 X60.686 Y53.511 E43.09572
G1 X61.389 Y53.297 E43.14154
G1 X62.111 Y53.161 E43.18736
G1 X63 Y53.102 E43.24292
G1 X135.612 Y53.101 E47.77121
G1 X135.617 Y53.101 E47.77152
G1 X137.005 Y53.102 E47.85808
G1 X137.738 Y53.143 E47.90386
G1 X138.463 Y53.262 E47.94968
G1 X139.17 Y53.46 E47.99547
G1 X139.852 Y53.734 E48.0413
G1 X140.5 Y54.08 E48.08711
G1 X141.106 Y54.495 E48.13292
G1 X141.773 Y55.079 E48.18821
G1 X141.923 Y55.229 E48.20143
G1 X142.413 Y55.776 E48.24723
G1 X142.841 Y56.373 E48.29304
G1 X143.202 Y57.013 E48.33887
G1 X143.491 Y57.688 E48.38466
G1 X143.705 Y58.391 E48.43048
G1 X143.841 Y59.113 E48.4763
G1 X143.9 Y60.002 E48.53186
G1 X143.901 Y132.614 E53.06015
G1 X143.901 Y132.619 E53.06046
G1 X143.9 Y134.007 E53.14702
G1 X143.859 Y134.74 E53.1928
G1 X143.74 Y135.465 E53.23862
G1 X143.542 Y136.172 E53.28441
G1 X143.268 Y136.854 E53.33024
G1 X142.922 Y137.502 E53.37605
G1 X142.507 Y138.108 E53.42186
G1 X141.923 Y138.775 E53.47715
G1 X141.773 Y138.925 E53.49037
G1 X141.226 Y139.415 E53.53617
G1 X140.629 Y139.843 E53.58198
G1 X139.989 Y140.204 E53.62781
G1 X139.314 Y140.493 E53.6736
G1 X138.611 Y140.707 E53.71942
G1 X137.889 Y140.843 E53.76524
G1 X137 Y140.902 E53.8208
G1 X64.388 Y140.903 E58.34909
G1 X64.383 Y140.903 E58.3494
G1 X62.995 Y140.902 E58.43596
G1 X62.262 Y140.861 E58.48174
G1 X61.537 Y140.742 E58.52756
G1 X60.83 Y140.544 E58.57335
G1 X60.148 Y140.27 E58.61918
G1 X59.5 Y139.924 E58.66499
G1 X58.894 Y139.509 E58.7108
G1 X58.227 Y138.925 E58.76609
G1 X58.077 Y138.775 E58.77931
G1 X57.587 Y138.228 E58.82511
G1 X57.159 Y137.631 E58.87092
G1 X56.798 Y136.991 E58.91675
G1 X56.509 Y136.316 E58.96254
G1 X56.295 Y135.613 E59.00836
G1 X56.159 Y134.891 E59.05418
G1 X56.1 Y134.002 E59.10974
G1 X56.099 Y61.39 E63.63803
G1 X56.099 Y61.385 E63.63834
G1 X56.1 Y59.997 E63.7249
G1 X56.141 Y59.264 E63.77068
G1 X56.26 Y58.539 E63.8165
G1 X56.458 Y57.832 E63.86229
G1 X56.732 Y57.15 E63.90812
G1 X57.078 Y56.502 E63.95393
G1 X57.493 Y55.896 E63.99974
G1 X58.077 Y55.229 E64.05503
G0 F3600 X58.431 Y55.583
G1 F1800 X58.581 Y55.433 E64.06825
G1 X59.108 Y54.962 E64.11233
G1 X59.685 Y54.554 E64.1564
G1 X60.304 Y54.213 E64.20048
G1 X60.958 Y53.945 E64.24455
G1 X61.638 Y53.752 E64.28863
G1 X62.336 Y53.637 E64.33275
G1 X63 Y53.602 E64.37422
G1 X135.612 Y53.601 E68.9025
G1 X135.617 Y53.601 E68.90281
G1 X137.005 Y53.602 E68.98937
G1 X137.71 Y53.642 E69.03341
G1 X138.407 Y53.762 E69.07752
G1 X139.085 Y53.96 E69.12156
G1 X139.737 Y54.233 E69.16564
G1 X140.354 Y54.578 E69.20973
G1 X140.928 Y54.991 E69.25383
G1 X141.419 Y55.433 E69.29503
G1 X141.569 Y55.583 E69.30826
G1 X142.04 Y56.11 E69.35233
G1 X142.448 Y56.687 E69.3964
G1 X142.789 Y57.306 E69.44048
G1 X143.057 Y57.96 E69.48455
G1 X143.25 Y58.64 E69.52864
G1 X143.365 Y59.338 E69.57275
G1 X143.4 Y60.002 E69.61422
G1 X143.401 Y132.614 E74.1425
G1 X143.401 Y132.619 E74.14281
G1 X143.4 Y134.007 E74.22937
G1 X143.36 Y134.712 E74.27341
G1 X143.24 Y135.409 E74.31752
G1 X143.042 Y136.087 E74.36156
G1 X142.769 Y136.739 E74.40565
G1 X142.424 Y137.356 E74.44973
G1 X142.011 Y137.93 E74.49383
G1 X141.569 Y138.421 E74.53503
G1 X141.419 Y138.571 E74.54826
G1 X140.892 Y139.042 E74.59234
G1 X140.315 Y139.45 E74.63641
G1 X139.696 Y139.791 E74.68048
G1 X139.042 Y140.059 E74.72456
G1 X138.362 Y140.252 E74.76864
G1 X137.664 Y140.367 E74.81275
G1 X137 Y140.402 E74.85422
G1 X64.388 Y140.403 E79.3825
G1 X64.383 Y140.403 E79.38282
G1 X62.995 Y140.402 E79.46938
G1 X62.29 Y140.362 E79.51341
G1 X61.593 Y140.242 E79.55752
G1 X60.915 Y140.044 E79.60157
G1 X60.263 Y139.771 E79.64565
G1 X59.646 Y139.426 E79.68973
G1 X59.072 Y139.013 E79.73383
G1 X58.581 Y138.571 E79.77503
G1 X58.431 Y138.421 E79.78826
G1 X57.96 Y137.894 E79.83234
G1 X57.552 Y137.317 E79.87641
G1 X57.211 Y136.698 E79.92048
G1 X56.943 Y136.044 E79.96456
G1 X56.75 Y135.364 E80.00864
G1 X56.635 Y134.666 E80.05275
G1 X56.6 Y134.002 E80.09422
G1 X56.599 Y61.39 E84.62251
G1 X56.599 Y61.385 E84.62282
G1 X56.6 Y59.997 E84.70938
G1 X56.64 Y59.292 E84.75341
G1 X56.76 Y58.595 E84.79752
G1 X56.958 Y57.917 E84.84157
G1 X57.231 Y57.265 E84.88565
G1 X57.576 Y56.648 E84.92973
G1 X57.989 Y56.074 E84.97383
G1 X58.431 Y55.583 E85.01503
G0 F3600 X58.784 Y55.936
G1 F1800 X58.934 Y55.786 E85.02826
G1 X59.441 Y55.336 E85.07054
G1 X59.997 Y54.948 E85.11282
G1 X60.595 Y54.629 E85.15509
G1 X61.227 Y54.382 E85.1974
G1 X61.883 Y54.212 E85.23966
G1 X62.554 Y54.119 E85.28191
G1 X63 Y54.102 E85.30974
G1 X135.612 Y54.101 E89.83803
G1 X135.616 Y54.101 E89.83828
G1 X137.004 Y54.102 E89.92484
G1 X137.681 Y54.142 E89.96713
G1 X138.348 Y54.262 E90.00939
G1 X138.997 Y54.46 E90.05171
G1 X139.617 Y54.732 E90.09393
G1 X140.202 Y55.076 E90.13625
G1 X140.742 Y55.486 E90.17853
G1 X141.066 Y55.786 E90.20607
G1 X141.216 Y55.936 E90.2193
G1 X141.666 Y56.443 E90.26158
G1 X142.054 Y56.999 E90.30386
G1 X142.373 Y57.597 E90.34613
G1 X142.62 Y58.229 E90.38844
G1 X142.79 Y58.885 E90.4307
G1 X142.883 Y59.556 E90.47295
G1 X142.9 Y60.002 E90.50078
G1 X142.901 Y132.614 E95.02907
G1 X142.901 Y132.618 E95.02932
G1 X142.9 Y134.006 E95.11588
G1 X142.86 Y134.683 E95.15817
G1 X142.74 Y135.35 E95.20043
G1 X142.542 Y135.999 E95.24275
G1 X142.27 Y136.619 E95.28497
G1 X141.926 Y137.204 E95.32729
G1 X141.516 Y137.744 E95.36957
G1 X141.216 Y138.068 E95.39711
G1 X141.066 Y138.218 E95.41034
G1 X140.559 Y138.668 E95.45262
G1 X140.003 Y139.056 E95.4949
G1 X139.405 Y139.375 E95.53717
G1 X138.773 Y139.622 E95.57948
G1 X138.117 Y139.792 E95.62174
G1 X137.446 Y139.885 E95.66399
G1 X137 Y139.902 E95.69182
G1 X64.388 Y139.903 E100.22011
G1 X64.384 Y139.903 E100.22036
G1 X62.996 Y139.902 E100.30692
G1 X62.319 Y139.862 E100.34921
G1 X61.652 Y139.742 E100.39147
G1 X61.003 Y139.544 E100.43379
G1 X60.383 Y139.272 E100.47601
G1 X59.798 Y138.928 E100.51833
G1 X59.258 Y138.518 E100.56062
G1 X58.934 Y138.218 E100.58815
G1 X58.784 Y138.068 E100.60138
G1 X58.334 Y137.561 E100.64366
G1 X57.946 Y137.005 E100.68594
G1 X57.627 Y136.407 E100.72821
G1 X57.38 Y135.775 E100.77052
G1 X57.21 Y135.119 E100.81278
G1 X57.117 Y134.448 E100.85503
G1 X57.1 Y134.002 E100.88286
G1 X57.099 Y61.39 E105.41115
G1 X57.099 Y61.386 E105.4114
G1 X57.1 Y59.998 E105.49796
G1 X57.14 Y59.321 E105.54025
G1 X57.26 Y58.654 E105.58251
G1 X57.458 Y58.005 E105.62483
G1 X57.73 Y57.385 E105.66705
G1 X58.074 Y56.8 E105.70937
G1 X58.484 Y56.26 E105.75166
G1 X58.784 Y55.936 E105.77919
G0 F3600 X59.138 Y56.29
G1 F1800 X59.288 Y56.14 E105.79242
G1 X59.773 Y55.711 E105.8328
G1 X60.308 Y55.345 E105.87323
G1 X60.883 Y55.048 E105.91359
G1 X61.491 Y54.824 E105.95399
G1 X62.122 Y54.676 E105.99441
G1 X63 Y54.602 E106.04936
G1 X135.612 Y54.601 E110.57765
G1 X135.616 Y54.601 E110.5779
G1 X137.004 Y54.602 E110.66445
G1 X137.65 Y54.642 E110.70482
G1 X138.287 Y54.762 E110.74524
G1 X138.904 Y54.959 E110.78563
G1 X139.492 Y55.231 E110.82604
G1 X140.042 Y55.573 E110.86643
G1 X140.712 Y56.14 E110.92116
G1 X140.862 Y56.29 E110.93439
G1 X141.291 Y56.775 E110.97477
G1 X141.657 Y57.31 E111.0152
G1 X141.954 Y57.885 E111.05556
G1 X142.178 Y58.493 E111.09596
G1 X142.326 Y59.124 E111.13638
G1 X142.4 Y60.002 E111.19133
G1 X142.401 Y132.614 E115.71962
G1 X142.401 Y132.618 E115.71987
G1 X142.4 Y134.006 E115.80642
G1 X142.36 Y134.652 E115.84679
G1 X142.24 Y135.289 E115.88721
G1 X142.043 Y135.906 E115.9276
G1 X141.771 Y136.494 E115.96801
G1 X141.429 Y137.044 E116.0084
G1 X140.862 Y137.714 E116.06313
G1 X140.712 Y137.864 E116.07636
G1 X140.227 Y138.293 E116.11674
G1 X139.692 Y138.659 E116.15717
G1 X139.117 Y138.956 E116.19753
G1 X138.509 Y139.18 E116.23793
G1 X137.878 Y139.328 E116.27835
G1 X137 Y139.402 E116.3333
G1 X64.388 Y139.403 E120.86159
G1 X64.384 Y139.403 E120.86184
G1 X62.996 Y139.402 E120.9484
G1 X62.35 Y139.362 E120.98876
G1 X61.713 Y139.242 E121.02918
G1 X61.096 Y139.045 E121.06957
G1 X60.508 Y138.773 E121.10998
G1 X59.958 Y138.431 E121.15037
G1 X59.288 Y137.864 E121.2051
G1 X59.138 Y137.714 E121.21833
G1 X58.709 Y137.229 E121.25871
G1 X58.343 Y136.694 E121.29914
G1 X58.046 Y136.119 E121.3395
G1 X57.822 Y135.511 E121.3799
G1 X57.674 Y134.88 E121.42032
G1 X57.6 Y134.002 E121.47527
G1 X57.599 Y61.39 E126.00356
G1 X57.599 Y61.386 E126.00381
G1 X57.6 Y59.998 E126.09037
G1 X57.64 Y59.352 E126.13073
G1 X57.76 Y58.715 E126.17115
G1 X57.957 Y58.098 E126.21154
G1 X58.229 Y57.51 E126.25195
G1 X58.571 Y56.96 E126.29234
G1 X59.138 Y56.29 E126.34707
G0 F3600 X59.491 Y56.643
G1 F1800 X59.641 Y56.493 E126.3603
G1 X60.104 Y56.087 E126.39871
G1 X60.616 Y55.744 E126.43714
G1 X61.168 Y55.47 E126.47557
G1 X61.75 Y55.269 E126.51397
G1 X62.354 Y55.146 E126.55241
G1 X63 Y55.102 E126.59279
G1 X135.612 Y55.101 E131.12107
G1 X135.615 Y55.101 E131.12126
G1 X137.003 Y55.102 E131.20782
G1 X137.618 Y55.142 E131.24625
G1 X138.223 Y55.262 E131.28472
G1 X138.806 Y55.459 E131.32309
G1 X139.36 Y55.73 E131.36156
G1 X139.874 Y56.07 E131.39999
G1 X140.359 Y56.493 E131.44012
G1 X140.509 Y56.643 E131.45335
G1 X140.915 Y57.106 E131.49175
G1 X141.258 Y57.618 E131.53019
G1 X141.532 Y58.17 E131.56862
G1 X141.733 Y58.752 E131.60702
G1 X141.856 Y59.356 E131.64546
G1 X141.9 Y60.002 E131.68584
G1 X141.901 Y132.614 E136.21412
G1 X141.901 Y132.617 E136.21431
G1 X141.9 Y134.005 E136.30087
G1 X141.86 Y134.62 E136.3393
G1 X141.74 Y135.225 E136.37777
G1 X141.543 Y135.808 E136.41614
G1 X141.272 Y136.362 E136.4546
G1 X140.932 Y136.876 E136.49304
G1 X140.509 Y137.361 E136.53317
G1 X140.359 Y137.511 E136.5464
G1 X139.896 Y137.917 E136.5848
G1 X139.384 Y138.26 E136.62323
G1 X138.832 Y138.534 E136.66167
G1 X138.25 Y138.735 E136.70007
G1 X137.646 Y138.858 E136.73851
G1 X137 Y138.902 E136.77889
G1 X64.388 Y138.903 E141.30717
G1 X64.385 Y138.903 E141.30736
G1 X62.997 Y138.902 E141.39392
G1 X62.382 Y138.862 E141.43235
G1 X61.777 Y138.742 E141.47081
G1 X61.194 Y138.545 E141.50919
G1 X60.64 Y138.274 E141.54765
G1 X60.126 Y137.934 E141.58609
G1 X59.641 Y137.511 E141.62622
G1 X59.491 Y137.361 E141.63945
G1 X59.085 Y136.898 E141.67785
G1 X58.742 Y136.386 E141.71628
G1 X58.468 Y135.834 E141.75472
G1 X58.267 Y135.252 E141.79311
G1 X58.144 Y134.648 E141.83155
G1 X58.1 Y134.002 E141.87193
G1 X58.099 Y61.39 E146.40022
G1 X58.099 Y61.387 E146.40041
G1 X58.1 Y59.999 E146.48696
G1 X58.14 Y59.384 E146.5254
G1 X58.26 Y58.779 E146.56386
G1 X58.457 Y58.196 E146.60224
G1 X58.728 Y57.642 E146.6407
G1 X59.068 Y57.128 E146.67913
G1 X59.491 Y56.643 E146.71927
G0 F3600 X59.845 Y56.997
