;FLAVOR:Marlin
;TIME:9488
;Filament used: 21.8123m
;Layer height: 0.4
;MINX:54.734
;MINY:38.382
;MINZ:0.3
;MAXX:144.636
;MAXY:140.104
;MAXZ:47.9
;Generated with Cura_SteamEngine 4.2.1
M140 S60
M105
M190 S60
M104 S210
M105
M109 S210
M82 ;absolute extrusion mode
G28 ;Home
G1 Z15.0 F6000 ;Move the platform down 15mm
;Prime the extruder
G92 E0
G1 F200 E3
G92 E0
;
M117 Printing...        ☺
M141 S28
G92 E0
G92 E0
G1 F1500 E-5
;LAYER_COUNT:120
;LAYER:0
M107
G0 F3600 X56.867 Y52.803 Z0.3
;TYPE:SKIRT
G1 F1500 E0
G1 F1800 X57.425 Y52.245 E0.03937
G1 X58.037 Y51.746 E0.07877
G1 X58.697 Y51.311 E0.1182
G1 X59.654 Y50.833 E0.17157
G1 X59.726 Y50.803 E0.17546
G1 X60.469 Y50.537 E0.21483
G1 X61.236 Y50.347 E0.25426
G1 X62.018 Y50.235 E0.29367
G1 X62.726 Y50.203 E0.32903
G1 X80.704 Y50.203 E1.22595
G1 X80.699 Y50.003 E1.23594
G1 X80.699 Y46.182 E1.42657
G1 X80.739 Y45.393 E1.46598
G1 X80.858 Y44.613 E1.50534
G1 X81.056 Y43.848 E1.54477
G1 X81.33 Y43.108 E1.58414
G1 X81.678 Y42.399 E1.62354
G1 X82.096 Y41.728 E1.66298
G1 X82.579 Y41.104 E1.70235
G1 X83.122 Y40.531 E1.74173
G1 X83.721 Y40.016 E1.78114
G1 X84.369 Y39.565 E1.82053
G1 X85.06 Y39.181 E1.85997
G1 X85.785 Y38.869 E1.89935
G1 X86.538 Y38.632 E1.93873
G1 X87.312 Y38.473 E1.97815
G1 X88.097 Y38.392 E2.01753
G1 X88.499 Y38.382 E2.03759
G1 X93.871 Y38.382 E2.3056
G1 X94.66 Y38.422 E2.34501
G1 X95.44 Y38.541 E2.38438
G1 X96.205 Y38.739 E2.4238
G1 X96.945 Y39.013 E2.46317
G1 X97.654 Y39.361 E2.50257
G1 X98.325 Y39.779 E2.54201
G1 X98.949 Y40.262 E2.58138
G1 X99.522 Y40.805 E2.62076
G1 X99.684 Y40.993 E2.63315
G1 X100.122 Y40.531 E2.66491
G1 X100.721 Y40.016 E2.70432
G1 X101.369 Y39.565 E2.74371
G1 X102.06 Y39.181 E2.78315
G1 X102.785 Y38.869 E2.82252
G1 X103.538 Y38.632 E2.86191
G1 X104.312 Y38.473 E2.90133
G1 X105.097 Y38.392 E2.9407
G1 X105.499 Y38.382 E2.96076
G1 X110.871 Y38.382 E3.22877
G1 X111.66 Y38.422 E3.26819
G1 X112.44 Y38.541 E3.30755
G1 X113.205 Y38.739 E3.34697
G1 X113.945 Y39.013 E3.38634
G1 X114.654 Y39.361 E3.42575
G1 X115.325 Y39.779 E3.46519
G1 X115.949 Y40.262 E3.50455
G1 X116.522 Y40.805 E3.54394
G1 X117.037 Y41.404 E3.58335
G1 X117.488 Y42.052 E3.62274
G1 X117.872 Y42.743 E3.66218
G1 X118.184 Y43.468 E3.70156
G1 X118.421 Y44.221 E3.74094
G1 X118.58 Y44.995 E3.78036
G1 X118.661 Y45.78 E3.81973
G1 X118.671 Y46.182 E3.83979
G1 X118.671 Y50.002 E4.03037
G1 X118.661 Y50.202 E4.04037
G1 X135.303 Y50.202 E4.87064
G1 X136.649 Y50.203 E4.93779
G1 X137.437 Y50.244 E4.97716
G1 X138.218 Y50.364 E5.01658
G1 X138.982 Y50.562 E5.05595
G1 X139.723 Y50.837 E5.09539
G1 X140.431 Y51.185 E5.13474
G1 X141.261 Y51.717 E5.18393
G1 X141.423 Y51.836 E5.19396
G1 X142.035 Y52.335 E5.23335
G1 X142.593 Y52.893 E5.27272
G1 X143.092 Y53.505 E5.31212
G1 X143.527 Y54.165 E5.35156
G1 X144.005 Y55.122 E5.40492
G1 X144.035 Y55.194 E5.40882
G1 X144.301 Y55.937 E5.44819
G1 X144.491 Y56.704 E5.48761
G1 X144.603 Y57.486 E5.52702
G1 X144.635 Y58.194 E5.56238
G1 X144.636 Y130.765 E9.18296
G1 X144.636 Y130.771 E9.18326
G1 X144.635 Y132.117 E9.25042
G1 X144.594 Y132.905 E9.28978
G1 X144.474 Y133.686 E9.3292
G1 X144.276 Y134.45 E9.36858
G1 X144.001 Y135.191 E9.40801
G1 X143.653 Y135.899 E9.44737
G1 X143.121 Y136.729 E9.49655
G1 X143.002 Y136.891 E9.50658
G1 X142.503 Y137.503 E9.54598
G1 X141.945 Y138.061 E9.58535
G1 X141.333 Y138.56 E9.62474
G1 X140.673 Y138.995 E9.66418
G1 X139.716 Y139.473 E9.71755
G1 X139.644 Y139.503 E9.72144
G1 X138.901 Y139.769 E9.76081
G1 X138.134 Y139.959 E9.80024
G1 X137.352 Y140.071 E9.83965
G1 X136.644 Y140.103 E9.87501
G1 X64.073 Y140.104 E13.49559
G1 X64.067 Y140.104 E13.49589
G1 X62.721 Y140.103 E13.56304
G1 X61.933 Y140.062 E13.60241
G1 X61.152 Y139.942 E13.64183
G1 X60.388 Y139.744 E13.6812
G1 X59.647 Y139.469 E13.72064
G1 X58.939 Y139.121 E13.75999
G1 X58.109 Y138.589 E13.80918
G1 X57.947 Y138.47 E13.81921
G1 X57.335 Y137.971 E13.8586
G1 X56.777 Y137.413 E13.89797
G1 X56.278 Y136.801 E13.93737
G1 X55.843 Y136.141 E13.97681
G1 X55.365 Y135.184 E14.03017
G1 X55.335 Y135.112 E14.03407
G1 X55.069 Y134.369 E14.07344
G1 X54.879 Y133.602 E14.11286
G1 X54.767 Y132.82 E14.15227
G1 X54.735 Y132.112 E14.18763
G1 X54.734 Y59.541 E17.80821
G1 X54.734 Y59.535 E17.80851
G1 X54.735 Y58.189 E17.87566
G1 X54.776 Y57.401 E17.91503
G1 X54.896 Y56.62 E17.95445
G1 X55.094 Y55.856 E17.99383
G1 X55.369 Y55.115 E18.03326
G1 X55.717 Y54.407 E18.07262
G1 X56.249 Y53.577 E18.1218
G1 X56.368 Y53.415 E18.13183
G1 X56.867 Y52.803 E18.17123
G0 F3600 X57.177 Y53.057
G1 F1800 X57.723 Y52.515 E18.20961
G1 X58.323 Y52.033 E18.24801
G1 X58.969 Y51.616 E18.28637
G1 X59.808 Y51.202 E18.33304
G1 X59.88 Y51.172 E18.33694
G1 X60.604 Y50.914 E18.37528
G1 X61.352 Y50.732 E18.41369
G1 X62.114 Y50.628 E18.45206
G1 X62.726 Y50.603 E18.48261
G1 X81.134 Y50.603 E19.40099
G1 X81.099 Y50.003 E19.43098
G1 X81.099 Y46.182 E19.62161
G1 X81.139 Y45.414 E19.65998
G1 X81.258 Y44.654 E19.69836
G1 X81.456 Y43.911 E19.73672
G1 X81.73 Y43.192 E19.7751
G1 X82.077 Y42.506 E19.81346
G1 X82.493 Y41.859 E19.85183
G1 X82.974 Y41.259 E19.8902
G1 X83.515 Y40.712 E19.92858
G1 X84.11 Y40.224 E19.96697
G1 X84.752 Y39.801 E20.00533
G1 X85.435 Y39.446 E20.04373
G1 X86.15 Y39.165 E20.08206
G1 X86.892 Y38.959 E20.12048
G1 X87.65 Y38.831 E20.15883
G1 X88.499 Y38.782 E20.20126
G1 X93.871 Y38.782 E20.46927
G1 X94.639 Y38.822 E20.50764
G1 X95.399 Y38.941 E20.54602
G1 X96.142 Y39.139 E20.58438
G1 X96.861 Y39.413 E20.62277
G1 X97.547 Y39.76 E20.66112
G1 X98.194 Y40.176 E20.69949
G1 X98.794 Y40.657 E20.73786
G1 X99.341 Y41.198 E20.77624
G1 X99.686 Y41.618 E20.80336
G1 X99.974 Y41.259 E20.82632
G1 X100.515 Y40.712 E20.8647
G1 X101.11 Y40.224 E20.9031
G1 X101.752 Y39.801 E20.94145
G1 X102.435 Y39.446 E20.97986
G1 X103.15 Y39.165 E21.01818
G1 X103.892 Y38.959 E21.0566
G1 X104.65 Y38.831 E21.09495
G1 X105.499 Y38.782 E21.13738
G1 X110.871 Y38.782 E21.40539
G1 X111.639 Y38.822 E21.44376
G1 X112.399 Y38.941 E21.48214
G1 X113.142 Y39.139 E21.5205
G1 X113.861 Y39.413 E21.55889
G1 X114.547 Y39.76 E21.59724
G1 X115.194 Y40.176 E21.63562
G1 X115.794 Y40.657 E21.67398
G1 X116.341 Y41.198 E21.71237
G1 X116.829 Y41.793 E21.75076
G1 X117.252 Y42.435 E21.78911
G1 X117.607 Y43.118 E21.82752
G1 X117.888 Y43.833 E21.86584
G1 X118.094 Y44.575 E21.90426
G1 X118.222 Y45.333 E21.94262
G1 X118.271 Y46.182 E21.98504
G1 X118.271 Y50.002 E22.17562
G1 X118.24 Y50.602 E22.2056
G1 X135.302 Y50.602 E23.05682
G1 X136.648 Y50.603 E23.12398
G1 X137.417 Y50.644 E23.1624
G1 X138.176 Y50.764 E23.20073
G1 X138.919 Y50.962 E23.2391
G1 X139.638 Y51.236 E23.27748
G1 X140.324 Y51.584 E23.31586
G1 X141.024 Y52.039 E23.35751
G1 X141.186 Y52.158 E23.36754
G1 X141.781 Y52.645 E23.4059
G1 X142.323 Y53.191 E23.44428
G1 X142.805 Y53.791 E23.48268
G1 X143.222 Y54.437 E23.52104
G1 X143.636 Y55.276 E23.56772
G1 X143.666 Y55.348 E23.57161
G1 X143.924 Y56.072 E23.60995
G1 X144.106 Y56.82 E23.64836
G1 X144.21 Y57.582 E23.68673
G1 X144.235 Y58.194 E23.71729
G1 X144.236 Y130.765 E27.33787
G1 X144.236 Y130.77 E27.33812
G1 X144.235 Y132.116 E27.40527
G1 X144.194 Y132.885 E27.44369
G1 X144.074 Y133.644 E27.48203
G1 X143.876 Y134.387 E27.52039
G1 X143.602 Y135.106 E27.55878
G1 X143.254 Y135.792 E27.59715
G1 X142.799 Y136.492 E27.63881
G1 X142.68 Y136.654 E27.64883
G1 X142.193 Y137.249 E27.68719
G1 X141.647 Y137.791 E27.72558
G1 X141.047 Y138.273 E27.76397
G1 X140.401 Y138.69 E27.80233
G1 X139.562 Y139.104 E27.84901
G1 X139.49 Y139.134 E27.8529
G1 X138.766 Y139.392 E27.89125
G1 X138.018 Y139.574 E27.92965
G1 X137.256 Y139.678 E27.96802
G1 X136.644 Y139.703 E27.99858
G1 X64.073 Y139.704 E31.61916
G1 X64.068 Y139.704 E31.61941
G1 X62.722 Y139.703 E31.68656
G1 X61.953 Y139.662 E31.72498
G1 X61.194 Y139.542 E31.76332
G1 X60.451 Y139.344 E31.80168
G1 X59.732 Y139.07 E31.84007
G1 X59.046 Y138.722 E31.87845
G1 X58.346 Y138.267 E31.9201
G1 X58.184 Y138.148 E31.93013
G1 X57.589 Y137.661 E31.96849
G1 X57.047 Y137.115 E32.00687
G1 X56.565 Y136.515 E32.04527
G1 X56.148 Y135.869 E32.08363
G1 X55.734 Y135.03 E32.1303
G1 X55.704 Y134.958 E32.1342
G1 X55.446 Y134.234 E32.17254
G1 X55.264 Y133.486 E32.21095
G1 X55.16 Y132.724 E32.24932
G1 X55.135 Y132.112 E32.27988
G1 X55.134 Y59.541 E35.90046
G1 X55.134 Y59.536 E35.90071
G1 X55.135 Y58.19 E35.96786
G1 X55.176 Y57.421 E36.00628
G1 X55.296 Y56.662 E36.04462
G1 X55.494 Y55.919 E36.08298
G1 X55.768 Y55.2 E36.12137
G1 X56.116 Y54.514 E36.15974
G1 X56.571 Y53.814 E36.20139
G1 X56.69 Y53.652 E36.21142
G1 X57.177 Y53.057 E36.24978
G0 F3600 X57.487 Y53.311
G1 F1800 X58.02 Y52.786 E36.28711
G1 X58.607 Y52.322 E36.32444
G1 X59.239 Y51.922 E36.36175
G1 X59.962 Y51.571 E36.40185
G1 X60.034 Y51.541 E36.40574
G1 X60.739 Y51.291 E36.44306
G1 X61.466 Y51.117 E36.48035
G1 X62.208 Y51.022 E36.51767
G1 X62.726 Y51.003 E36.54354
G1 X81.58 Y51.003 E37.48417
G1 X81.518 Y50.52 E37.50846
G1 X81.499 Y50.003 E37.53427
G1 X81.499 Y46.182 E37.7249
G1 X81.539 Y45.435 E37.76222
G1 X81.658 Y44.697 E37.79952
G1 X81.856 Y43.975 E37.83687
G1 X82.129 Y43.279 E37.87417
G1 X82.476 Y42.616 E37.9115
G1 X82.891 Y41.993 E37.94885
G1 X83.37 Y41.419 E37.98615
G1 X83.907 Y40.898 E38.02347
G1 X84.497 Y40.439 E38.06077
G1 X85.133 Y40.044 E38.09812
G1 X85.807 Y39.72 E38.13543
G1 X86.512 Y39.47 E38.17275
G1 X87.24 Y39.296 E38.21009
G1 X87.982 Y39.201 E38.24741
G1 X88.499 Y39.182 E38.27322
G1 X93.871 Y39.182 E38.54123
G1 X94.618 Y39.222 E38.57855
G1 X95.356 Y39.341 E38.61585
G1 X96.078 Y39.539 E38.6532
G1 X96.774 Y39.812 E38.6905
G1 X97.437 Y40.159 E38.72783
G1 X98.06 Y40.574 E38.76518
G1 X98.634 Y41.053 E38.80248
G1 X99.155 Y41.59 E38.8398
G1 X99.614 Y42.18 E38.8771
G1 X99.688 Y42.298 E38.88405
G1 X99.891 Y41.993 E38.90232
G1 X100.37 Y41.419 E38.93962
G1 X100.907 Y40.898 E38.97695
G1 X101.497 Y40.439 E39.01424
G1 X102.133 Y40.044 E39.0516
G1 X102.807 Y39.72 E39.08891
G1 X103.512 Y39.47 E39.12622
G1 X104.24 Y39.296 E39.16357
G1 X104.982 Y39.201 E39.20089
G1 X105.499 Y39.182 E39.2267
G1 X110.871 Y39.182 E39.49471
G1 X111.618 Y39.222 E39.53203
G1 X112.356 Y39.341 E39.56933
G1 X113.078 Y39.539 E39.60668
G1 X113.774 Y39.812 E39.64398
G1 X114.437 Y40.159 E39.68131
G1 X115.06 Y40.574 E39.71866
G1 X115.634 Y41.053 E39.75595
G1 X116.155 Y41.59 E39.79328
G1 X116.614 Y42.18 E39.83058
G1 X117.009 Y42.816 E39.86793
G1 X117.333 Y43.49 E39.90524
G1 X117.583 Y44.195 E39.94256
G1 X117.757 Y44.923 E39.9799
G1 X117.852 Y45.665 E40.01722
G1 X117.871 Y46.182 E40.04303
G1 X117.871 Y50.002 E40.23361
G1 X117.831 Y50.749 E40.27093
G1 X117.79 Y51.002 E40.28372
G1 X135.302 Y51.002 E41.1574
G1 X136.648 Y51.003 E41.22455
G1 X137.395 Y51.044 E41.26187
G1 X138.134 Y51.164 E41.29922
G1 X138.855 Y51.362 E41.33653
G1 X139.551 Y51.636 E41.37384
G1 X140.214 Y51.982 E41.41115
G1 X140.787 Y52.361 E41.44543
G1 X140.949 Y52.48 E41.45546
G1 X141.527 Y52.955 E41.49278
G1 X142.052 Y53.488 E41.53011
G1 X142.516 Y54.075 E41.56744
G1 X142.916 Y54.707 E41.60475
G1 X143.267 Y55.43 E41.64485
G1 X143.297 Y55.502 E41.64874
G1 X143.547 Y56.207 E41.68606
G1 X143.721 Y56.934 E41.72335
G1 X143.816 Y57.676 E41.76067
G1 X143.835 Y58.194 E41.78653
G1 X143.836 Y130.765 E45.40712
G1 X143.836 Y130.77 E45.40737
G1 X143.835 Y132.116 E45.47452
G1 X143.794 Y132.863 E45.51184
G1 X143.674 Y133.602 E45.54919
G1 X143.476 Y134.323 E45.5865
G1 X143.202 Y135.019 E45.62381
G1 X142.856 Y135.682 E45.66112
G1 X142.477 Y136.255 E45.6954
G1 X142.358 Y136.417 E45.70543
G1 X141.883 Y136.995 E45.74275
G1 X141.35 Y137.52 E45.78008
G1 X140.763 Y137.984 E45.81741
G1 X140.131 Y138.384 E45.85472
G1 X139.408 Y138.735 E45.89482
G1 X139.336 Y138.765 E45.89871
G1 X138.631 Y139.015 E45.93603
G1 X137.904 Y139.189 E45.97332
G1 X137.162 Y139.284 E46.01064
G1 X136.644 Y139.303 E46.0365
G1 X64.073 Y139.304 E49.65709
G1 X64.068 Y139.304 E49.65734
G1 X62.722 Y139.303 E49.72449
G1 X61.975 Y139.262 E49.76181
G1 X61.236 Y139.142 E49.79916
G1 X60.515 Y138.944 E49.83647
G1 X59.819 Y138.67 E49.87378
G1 X59.156 Y138.324 E49.91109
G1 X58.583 Y137.945 E49.94537
G1 X58.421 Y137.826 E49.9554
G1 X57.843 Y137.351 E49.99272
G1 X57.318 Y136.818 E50.03005
G1 X56.854 Y136.231 E50.06738
G1 X56.454 Y135.599 E50.10469
G1 X56.103 Y134.876 E50.14479
G1 X56.073 Y134.804 E50.14868
G1 X55.823 Y134.099 E50.186
G1 X55.649 Y133.372 E50.22329
G1 X55.554 Y132.63 E50.26061
G1 X55.535 Y132.112 E50.28647
G1 X55.534 Y59.541 E53.90706
G1 X55.534 Y59.536 E53.90731
G1 X55.535 Y58.19 E53.97446
G1 X55.576 Y57.443 E54.01178
G1 X55.696 Y56.704 E54.04913
G1 X55.894 Y55.983 E54.08644
G1 X56.168 Y55.287 E54.12375
G1 X56.514 Y54.624 E54.16106
G1 X56.893 Y54.051 E54.19534
G1 X57.012 Y53.889 E54.20537
G1 X57.487 Y53.311 E54.24269
G0 F3600 X57.796 Y53.565
G1 F1800 X58.317 Y53.058 E54.27896
G1 X58.89 Y52.612 E54.31519
G1 X59.508 Y52.231 E54.35141
G1 X60.116 Y51.941 E54.38501
G1 X60.188 Y51.911 E54.38891
G1 X60.872 Y51.669 E54.4251
G1 X61.58 Y51.503 E54.46138
G1 X62.301 Y51.417 E54.49761
G1 X62.726 Y51.403 E54.51882
G1 X82.058 Y51.403 E55.4833
G1 X81.963 Y50.92 E55.50786
G1 X81.899 Y50.003 E55.55372
G1 X81.899 Y46.182 E55.74435
G1 X81.939 Y45.457 E55.78058
G1 X82.058 Y44.74 E55.81684
G1 X82.256 Y44.041 E55.85308
G1 X82.529 Y43.368 E55.88932
G1 X82.874 Y42.729 E55.92555
G1 X83.288 Y42.132 E55.96179
G1 X83.764 Y41.584 E55.99801
G1 X84.298 Y41.091 E56.03426
G1 X84.883 Y40.661 E56.07049
G1 X85.512 Y40.297 E56.10674
G1 X86.177 Y40.004 E56.143
G1 X86.87 Y39.786 E56.17924
G1 X87.582 Y39.646 E56.21544
G1 X88.499 Y39.582 E56.2613
G1 X93.871 Y39.582 E56.52931
G1 X94.596 Y39.622 E56.56554
G1 X95.313 Y39.741 E56.6018
G1 X96.012 Y39.939 E56.63805
G1 X96.685 Y40.212 E56.67428
G1 X97.324 Y40.557 E56.71051
G1 X97.921 Y40.971 E56.74675
G1 X98.469 Y41.447 E56.78297
G1 X98.962 Y41.981 E56.81923
G1 X99.392 Y42.566 E56.85545
G1 X99.687 Y43.076 E56.88484
G1 X99.874 Y42.729 E56.90451
G1 X100.288 Y42.132 E56.94075
G1 X100.764 Y41.584 E56.97697
G1 X101.298 Y41.091 E57.01323
G1 X101.883 Y40.661 E57.04945
G1 X102.512 Y40.297 E57.08571
G1 X103.177 Y40.004 E57.12196
G1 X103.87 Y39.786 E57.1582
G1 X104.582 Y39.646 E57.19441
G1 X105.499 Y39.582 E57.24027
G1 X110.871 Y39.582 E57.50828
G1 X111.596 Y39.622 E57.5445
G1 X112.313 Y39.741 E57.58076
G1 X113.012 Y39.939 E57.61701
G1 X113.685 Y40.212 E57.65324
G1 X114.324 Y40.557 E57.68947
G1 X114.921 Y40.971 E57.72572
G1 X115.469 Y41.447 E57.76193
G1 X115.962 Y41.981 E57.79819
G1 X116.392 Y42.566 E57.83441
G1 X116.756 Y43.195 E57.87067
G1 X117.049 Y43.86 E57.90692
G1 X117.267 Y44.553 E57.94317
G1 X117.407 Y45.265 E57.97937
G1 X117.471 Y46.182 E58.02523
G1 X117.471 Y50.002 E58.21581
G1 X117.431 Y50.727 E58.25204
G1 X117.319 Y51.402 E58.28617
G1 X135.302 Y51.402 E59.18335
G1 X136.648 Y51.403 E59.2505
G1 X137.373 Y51.444 E59.28673
G1 X138.09 Y51.563 E59.32299
G1 X138.788 Y51.761 E59.35919
G1 X139.461 Y52.035 E59.39544
G1 X140.1 Y52.381 E59.43169
G1 X140.55 Y52.684 E59.45876
G1 X140.712 Y52.803 E59.46878
G1 X141.273 Y53.264 E59.50501
G1 X141.78 Y53.785 E59.54128
G1 X142.226 Y54.358 E59.57751
G1 X142.607 Y54.976 E59.61373
G1 X142.897 Y55.584 E59.64733
G1 X142.927 Y55.656 E59.65122
G1 X143.169 Y56.34 E59.68742
G1 X143.335 Y57.048 E59.7237
G1 X143.421 Y57.769 E59.75993
G1 X143.435 Y58.194 E59.78114
G1 X143.436 Y130.765 E63.40173
G1 X143.436 Y130.77 E63.40197
G1 X143.435 Y132.116 E63.46913
G1 X143.394 Y132.841 E63.50535
G1 X143.275 Y133.558 E63.54162
G1 X143.077 Y134.256 E63.57781
G1 X142.803 Y134.929 E63.61407
G1 X142.457 Y135.568 E63.65032
G1 X142.154 Y136.018 E63.67738
G1 X142.035 Y136.18 E63.68741
G1 X141.574 Y136.741 E63.72364
G1 X141.053 Y137.248 E63.75991
G1 X140.48 Y137.694 E63.79613
G1 X139.862 Y138.075 E63.83235
G1 X139.254 Y138.365 E63.86596
G1 X139.182 Y138.395 E63.86985
G1 X138.498 Y138.637 E63.90605
G1 X137.79 Y138.803 E63.94233
G1 X137.069 Y138.889 E63.97856
G1 X136.644 Y138.903 E63.99977
G1 X64.073 Y138.904 E67.62035
G1 X64.068 Y138.904 E67.6206
G1 X62.722 Y138.903 E67.68775
G1 X61.997 Y138.862 E67.72398
G1 X61.28 Y138.743 E67.76024
G1 X60.582 Y138.545 E67.79644
G1 X59.909 Y138.271 E67.83269
G1 X59.27 Y137.925 E67.86895
G1 X58.82 Y137.622 E67.89601
G1 X58.658 Y137.503 E67.90604
G1 X58.097 Y137.042 E67.94227
