;FLAVOR:Marlin
;TIME:4191
;Filament used: 4.43268m
;Layer height: 0.2
;MINX:54.2
;MINY:53.7
;MINZ:0.3
;MAXX:145.8
;MAXY:146.3
;MAXZ:5.9
;Generated with Cura_SteamEngine 4.2.1
M140 S60
M105
M190 S60
M104 S210
M105
M109 S210
M82 ;absolute extrusion mode
G28 ;Home
G1 Z15.0 F6000 ;Move the platform down 15mm
;Prime the extruder
G92 E0
G1 F200 E3
G92 E0
;
M117 Printing...        ☺
M141 S28
G92 E0
G92 E0
G1 F1500 E-5
;LAYER_COUNT:29
;LAYER:0
M107
G0 F3600 X57.327 Y56.325 Z0.3
;TYPE:SKIRT
G1 F1500 E0
G1 F1800 X57.928 Y55.812 E0.03942
G1 X58.475 Y55.427 E0.07279
G1 X58.95 Y55.122 E0.10096
G1 X59.635 Y54.729 E0.14036
G1 X60.356 Y54.408 E0.17973
G1 X60.934 Y54.211 E0.2102
G1 X61.477 Y54.049 E0.23847
G1 X62.244 Y53.861 E0.27787
G1 X63.026 Y53.753 E0.31725
G1 X63.704 Y53.723 E0.35111
G1 X134.196 Y53.7 E3.86797
G1 X135.998 Y53.7 E3.95787
G1 X137.089 Y53.777 E4.01244
G1 X137.648 Y53.856 E4.0406
G1 X138.424 Y54.006 E4.08003
G1 X139.18 Y54.233 E4.11941
G1 X139.773 Y54.473 E4.15133
G1 X140.29 Y54.707 E4.17964
G1 X140.992 Y55.069 E4.21905
G1 X141.654 Y55.499 E4.25843
G1 X142.168 Y55.906 E4.29114
G1 X142.604 Y56.282 E4.31986
G1 X143.175 Y56.827 E4.35924
G1 X143.688 Y57.428 E4.39867
G1 X144.073 Y57.975 E4.43204
G1 X144.378 Y58.45 E4.4602
G1 X144.771 Y59.135 E4.4996
G1 X145.092 Y59.856 E4.53897
G1 X145.289 Y60.434 E4.56944
G1 X145.451 Y60.977 E4.59771
G1 X145.639 Y61.744 E4.63711
G1 X145.747 Y62.526 E4.67649
G1 X145.777 Y63.204 E4.71035
G1 X145.8 Y134.671 E8.27586
G1 X145.8 Y136.498 E8.367
G1 X145.723 Y137.589 E8.42157
G1 X145.644 Y138.148 E8.44974
G1 X145.494 Y138.924 E8.48917
G1 X145.267 Y139.68 E8.52855
G1 X145.027 Y140.273 E8.56046
G1 X144.793 Y140.79 E8.58878
G1 X144.431 Y141.492 E8.62818
G1 X144.001 Y142.154 E8.66756
G1 X143.594 Y142.668 E8.70027
G1 X143.218 Y143.104 E8.729
G1 X142.673 Y143.675 E8.76838
G1 X142.072 Y144.188 E8.8078
G1 X141.525 Y144.573 E8.84117
G1 X141.05 Y144.878 E8.86933
G1 X140.365 Y145.271 E8.90873
G1 X139.644 Y145.592 E8.94811
G1 X139.066 Y145.789 E8.97857
G1 X138.523 Y145.951 E9.00684
G1 X137.756 Y146.139 E9.04624
G1 X136.974 Y146.247 E9.08563
G1 X136.469 Y146.275 E9.11086
G1 X135.451 Y146.298 E9.16166
G1 X135.275 Y146.3 E9.17044
G1 X64.002 Y146.3 E12.72627
G1 X62.911 Y146.223 E12.78083
G1 X62.352 Y146.144 E12.809
G1 X61.576 Y145.994 E12.84843
G1 X60.82 Y145.767 E12.88781
G1 X60.227 Y145.527 E12.91973
G1 X59.71 Y145.293 E12.94804
G1 X59.008 Y144.931 E12.98744
G1 X58.346 Y144.501 E13.02683
G1 X57.832 Y144.094 E13.05954
G1 X57.396 Y143.718 E13.08826
G1 X56.825 Y143.173 E13.12764
G1 X56.312 Y142.572 E13.16706
G1 X55.927 Y142.025 E13.20043
G1 X55.622 Y141.55 E13.2286
G1 X55.229 Y140.865 E13.268
G1 X54.908 Y140.144 E13.30737
G1 X54.711 Y139.566 E13.33784
G1 X54.549 Y139.023 E13.36611
G1 X54.361 Y138.256 E13.40551
G1 X54.253 Y137.474 E13.44489
G1 X54.223 Y136.796 E13.47875
G1 X54.2 Y65.329 E17.04425
G1 X54.2 Y63.502 E17.1354
G1 X54.276 Y62.412 E17.18991
G1 X54.355 Y61.852 E17.21813
G1 X54.505 Y61.077 E17.25751
G1 X54.733 Y60.321 E17.29691
G1 X54.975 Y59.721 E17.32918
G1 X55.209 Y59.205 E17.35745
G1 X55.571 Y58.503 E17.39686
G1 X56.003 Y57.841 E17.43629
G1 X56.406 Y57.332 E17.46868
G1 X56.782 Y56.896 E17.49741
G1 X57.327 Y56.325 E17.53679
G0 F3600 X57.617 Y56.602
G1 F1800 X58.204 Y56.104 E17.57519
G1 X58.691 Y55.763 E17.60485
G1 X59.166 Y55.458 E17.63302
G1 X59.834 Y55.077 E17.67138
G1 X60.538 Y54.767 E17.70976
G1 X61.048 Y54.594 E17.73663
G1 X61.591 Y54.432 E17.7649
G1 X62.339 Y54.251 E17.80329
G1 X63.101 Y54.148 E17.84165
G1 X63.705 Y54.123 E17.87181
G1 X134.197 Y54.1 E21.38867
G1 X135.998 Y54.1 E21.47853
G1 X137.034 Y54.173 E21.53034
G1 X137.593 Y54.252 E21.55851
G1 X138.347 Y54.399 E21.59683
G1 X139.083 Y54.624 E21.63523
G1 X139.608 Y54.837 E21.66349
G1 X140.125 Y55.071 E21.69181
G1 X140.809 Y55.425 E21.73023
G1 X141.452 Y55.847 E21.7686
G1 X141.907 Y56.209 E21.79761
G1 X142.343 Y56.585 E21.82633
G1 X142.898 Y57.117 E21.86469
G1 X143.396 Y57.704 E21.90309
G1 X143.737 Y58.191 E21.93275
G1 X144.042 Y58.666 E21.96092
G1 X144.423 Y59.334 E21.99928
G1 X144.733 Y60.038 E22.03766
G1 X144.906 Y60.548 E22.06453
G1 X145.068 Y61.091 E22.0928
G1 X145.249 Y61.839 E22.13119
G1 X145.352 Y62.601 E22.16956
G1 X145.377 Y63.205 E22.19972
G1 X145.4 Y134.672 E25.76522
G1 X145.4 Y136.498 E25.85632
G1 X145.327 Y137.534 E25.90813
G1 X145.248 Y138.093 E25.9363
G1 X145.101 Y138.847 E25.97462
G1 X144.876 Y139.583 E26.01302
G1 X144.663 Y140.108 E26.04129
G1 X144.429 Y140.625 E26.0696
G1 X144.075 Y141.309 E26.10802
G1 X143.653 Y141.952 E26.14639
G1 X143.291 Y142.407 E26.1754
G1 X142.915 Y142.843 E26.20413
G1 X142.383 Y143.398 E26.24248
G1 X141.796 Y143.896 E26.28089
G1 X141.309 Y144.237 E26.31055
G1 X140.834 Y144.542 E26.33871
G1 X140.166 Y144.923 E26.37708
G1 X139.462 Y145.233 E26.41545
G1 X138.952 Y145.406 E26.44232
G1 X138.409 Y145.568 E26.47059
G1 X137.661 Y145.749 E26.50899
G1 X136.899 Y145.852 E26.54735
G1 X136.46 Y145.875 E26.56928
G1 X135.442 Y145.898 E26.62008
G1 X135.275 Y145.9 E26.62841
G1 X64.002 Y145.9 E30.18424
G1 X62.966 Y145.827 E30.23605
G1 X62.407 Y145.748 E30.26422
G1 X61.653 Y145.601 E30.30254
G1 X60.917 Y145.376 E30.34094
G1 X60.392 Y145.163 E30.36921
G1 X59.875 Y144.929 E30.39752
G1 X59.191 Y144.575 E30.43594
G1 X58.548 Y144.153 E30.47431
G1 X58.093 Y143.791 E30.50332
G1 X57.657 Y143.415 E30.53205
G1 X57.102 Y142.883 E30.5704
G1 X56.604 Y142.296 E30.60881
G1 X56.263 Y141.809 E30.63847
G1 X55.958 Y141.334 E30.66663
G1 X55.577 Y140.666 E30.705
G1 X55.267 Y139.962 E30.74337
G1 X55.094 Y139.452 E30.77024
G1 X54.932 Y138.909 E30.79851
G1 X54.751 Y138.161 E30.83691
G1 X54.648 Y137.399 E30.87527
G1 X54.623 Y136.795 E30.90543
G1 X54.6 Y65.328 E34.47093
G1 X54.6 Y63.502 E34.56203
G1 X54.673 Y62.468 E34.61374
G1 X54.752 Y61.908 E34.64196
G1 X54.898 Y61.153 E34.68032
G1 X55.123 Y60.418 E34.71867
G1 X55.34 Y59.886 E34.74734
G1 X55.574 Y59.37 E34.77561
G1 X55.927 Y58.687 E34.81396
G1 X56.35 Y58.044 E34.85236
G1 X56.709 Y57.593 E34.88112
G1 X57.085 Y57.157 E34.90984
G1 X57.617 Y56.602 E34.9482
G0 F3600 X57.906 Y56.879
G1 F1800 X58.479 Y56.398 E34.98552
G1 X58.907 Y56.1 E35.01154
G1 X59.382 Y55.795 E35.0397
G1 X60.032 Y55.425 E35.07702
G1 X60.718 Y55.126 E35.11435
G1 X61.163 Y54.977 E35.13777
G1 X61.706 Y54.815 E35.16604
G1 X62.433 Y54.64 E35.20334
G1 X63.175 Y54.543 E35.24068
G1 X63.705 Y54.523 E35.26714
G1 X134.197 Y54.5 E38.784
G1 X135.998 Y54.5 E38.87385
G1 X136.978 Y54.569 E38.92286
G1 X137.537 Y54.648 E38.95103
G1 X138.271 Y54.792 E38.98835
G1 X138.985 Y55.014 E39.02565
G1 X139.443 Y55.202 E39.05035
G1 X139.96 Y55.436 E39.07866
G1 X140.624 Y55.78 E39.11597
G1 X141.248 Y56.194 E39.15333
G1 X141.646 Y56.512 E39.17875
G1 X142.082 Y56.888 E39.20747
G1 X142.621 Y57.406 E39.24477
G1 X143.102 Y57.979 E39.28209
G1 X143.4 Y58.407 E39.30811
G1 X143.705 Y58.882 E39.33627
G1 X144.075 Y59.532 E39.37359
G1 X144.374 Y60.218 E39.41092
G1 X144.523 Y60.663 E39.43433
G1 X144.685 Y61.206 E39.4626
G1 X144.86 Y61.933 E39.49991
G1 X144.957 Y62.675 E39.53724
G1 X144.977 Y63.205 E39.5637
G1 X145 Y134.672 E43.12921
G1 X145 Y136.498 E43.22031
G1 X144.931 Y137.478 E43.26932
G1 X144.852 Y138.037 E43.29748
G1 X144.708 Y138.771 E43.3348
G1 X144.486 Y139.485 E43.37211
G1 X144.298 Y139.943 E43.39681
G1 X144.064 Y140.46 E43.42512
G1 X143.72 Y141.124 E43.46243
G1 X143.306 Y141.748 E43.49979
G1 X142.988 Y142.146 E43.5252
G1 X142.612 Y142.582 E43.55393
G1 X142.094 Y143.121 E43.59122
G1 X141.521 Y143.602 E43.62855
G1 X141.093 Y143.9 E43.65457
G1 X140.618 Y144.205 E43.68273
G1 X139.968 Y144.575 E43.72004
G1 X139.282 Y144.874 E43.75738
G1 X138.837 Y145.023 E43.78079
G1 X138.294 Y145.185 E43.80906
G1 X137.567 Y145.36 E43.84637
G1 X136.825 Y145.457 E43.8837
G1 X136.451 Y145.475 E43.90238
G1 X135.433 Y145.498 E43.95318
G1 X135.275 Y145.5 E43.96106
G1 X64.002 Y145.5 E47.51689
G1 X63.022 Y145.431 E47.5659
G1 X62.463 Y145.352 E47.59407
G1 X61.729 Y145.208 E47.63139
G1 X61.015 Y144.986 E47.66869
G1 X60.557 Y144.798 E47.69339
G1 X60.04 Y144.564 E47.7217
G1 X59.376 Y144.22 E47.75901
G1 X58.752 Y143.806 E47.79637
G1 X58.354 Y143.488 E47.82179
G1 X57.918 Y143.112 E47.85051
G1 X57.379 Y142.594 E47.88781
G1 X56.898 Y142.021 E47.92513
G1 X56.6 Y141.593 E47.95115
G1 X56.295 Y141.118 E47.97931
G1 X55.925 Y140.468 E48.01663
G1 X55.626 Y139.782 E48.05396
G1 X55.477 Y139.337 E48.07737
G1 X55.315 Y138.794 E48.10564
G1 X55.14 Y138.067 E48.14295
G1 X55.043 Y137.325 E48.18028
G1 X55.023 Y136.795 E48.20674
G1 X55 Y65.328 E51.77225
G1 X55 Y63.502 E51.86335
G1 X55.069 Y62.524 E51.91226
G1 X55.148 Y61.964 E51.94048
G1 X55.292 Y61.23 E51.97779
G1 X55.513 Y60.516 E52.01508
G1 X55.704 Y60.051 E52.04016
G1 X55.938 Y59.535 E52.06843
G1 X56.283 Y58.871 E52.10576
G1 X56.697 Y58.248 E52.14308
G1 X57.012 Y57.854 E52.16825
G1 X57.388 Y57.418 E52.19697
G1 X57.906 Y56.879 E52.23426
G0 F3600 X58.195 Y57.157
G1 F1800 X58.753 Y56.692 E52.2705
G1 X59.123 Y56.436 E52.29295
G1 X59.598 Y56.131 E52.32111
G1 X60.23 Y55.773 E52.35735
G1 X60.897 Y55.486 E52.39358
G1 X61.277 Y55.36 E52.41355
G1 X61.82 Y55.198 E52.44182
G1 X62.527 Y55.029 E52.47809
G1 X63.247 Y54.939 E52.51429
G1 X63.705 Y54.923 E52.53715
G1 X134.197 Y54.9 E56.05401
G1 X135.998 Y54.9 E56.14386
G1 X136.922 Y54.965 E56.19008
G1 X137.481 Y55.044 E56.21824
G1 X138.193 Y55.185 E56.25445
G1 X138.886 Y55.404 E56.29071
G1 X139.278 Y55.566 E56.31187
G1 X139.795 Y55.8 E56.34019
G1 X140.44 Y56.136 E56.37647
G1 X141.043 Y56.54 E56.41268
G1 X141.384 Y56.815 E56.43454
G1 X141.82 Y57.191 E56.46326
G1 X142.343 Y57.695 E56.4995
G1 X142.808 Y58.253 E56.53573
G1 X143.064 Y58.623 E56.55818
G1 X143.369 Y59.098 E56.58634
G1 X143.727 Y59.73 E56.62258
G1 X144.014 Y60.397 E56.65881
G1 X144.14 Y60.777 E56.67878
G1 X144.302 Y61.32 E56.70705
G1 X144.471 Y62.027 E56.74332
G1 X144.561 Y62.747 E56.77952
G1 X144.577 Y63.205 E56.80238
G1 X144.6 Y134.672 E60.36789
G1 X144.6 Y136.498 E60.45898
G1 X144.535 Y137.422 E60.5052
G1 X144.456 Y137.981 E60.53336
G1 X144.315 Y138.693 E60.56957
G1 X144.096 Y139.386 E60.60583
G1 X143.934 Y139.778 E60.627
G1 X143.7 Y140.295 E60.65531
G1 X143.364 Y140.94 E60.69159
G1 X142.96 Y141.543 E60.7278
G1 X142.685 Y141.884 E60.74966
G1 X142.309 Y142.32 E60.77838
G1 X141.805 Y142.843 E60.81462
G1 X141.247 Y143.308 E60.85086
G1 X140.877 Y143.564 E60.8733
G1 X140.402 Y143.869 E60.90147
G1 X139.77 Y144.227 E60.9377
G1 X139.103 Y144.514 E60.97393
G1 X138.723 Y144.64 E60.9939
G1 X138.18 Y144.802 E61.02217
G1 X137.473 Y144.971 E61.05844
G1 X136.442 Y145.075 E61.11014
G1 X135.424 Y145.098 E61.16094
G1 X135.275 Y145.1 E61.16837
G1 X64.002 Y145.1 E64.7242
G1 X63.078 Y145.035 E64.77041
G1 X62.519 Y144.956 E64.79858
G1 X61.807 Y144.815 E64.83479
G1 X61.114 Y144.596 E64.87105
G1 X60.722 Y144.434 E64.89221
G1 X60.205 Y144.2 E64.92052
G1 X59.56 Y143.864 E64.9568
G1 X58.957 Y143.46 E64.99302
G1 X58.616 Y143.185 E65.01487
G1 X58.18 Y142.809 E65.04359
G1 X57.657 Y142.305 E65.07983
G1 X57.192 Y141.747 E65.11607
G1 X56.936 Y141.377 E65.13852
G1 X56.631 Y140.902 E65.16668
G1 X56.273 Y140.27 E65.20292
G1 X55.986 Y139.603 E65.23914
G1 X55.86 Y139.223 E65.25912
G1 X55.698 Y138.68 E65.28739
G1 X55.529 Y137.973 E65.32365
G1 X55.439 Y137.253 E65.35985
G1 X55.423 Y136.795 E65.38272
G1 X55.4 Y65.328 E68.94822
G1 X55.4 Y63.502 E69.03932
G1 X55.465 Y62.58 E69.08543
G1 X55.544 Y62.02 E69.11365
G1 X55.685 Y61.307 E69.14991
G1 X55.903 Y60.615 E69.1861
G1 X56.068 Y60.216 E69.20765
G1 X56.302 Y59.7 E69.23591
G1 X56.638 Y59.056 E69.27215
G1 X57.043 Y58.453 E69.30839
G1 X57.315 Y58.116 E69.33
G1 X57.691 Y57.68 E69.35872
G1 X58.195 Y57.157 E69.39496
G0 F3600 X58.483 Y57.435
G1 F1800 X59.027 Y56.987 E69.43012
G1 X59.339 Y56.773 E69.44899
G1 X59.814 Y56.468 E69.47715
G1 X60.427 Y56.122 E69.51227
G1 X61.391 Y55.744 E69.56393
G1 X61.934 Y55.582 E69.5922
G1 X62.619 Y55.419 E69.62733
G1 X63.318 Y55.335 E69.66246
G1 X63.705 Y55.323 E69.68177
G1 X134.197 Y55.3 E73.19863
G1 X135.998 Y55.3 E73.28848
G1 X136.866 Y55.361 E73.3319
G1 X137.425 Y55.44 E73.36006
G1 X138.115 Y55.578 E73.39517
G1 X138.785 Y55.793 E73.43027
G1 X139.114 Y55.931 E73.44807
G1 X139.631 Y56.165 E73.47638
G1 X140.254 Y56.491 E73.51146
G1 X140.837 Y56.886 E73.5466
G1 X141.123 Y57.118 E73.56497
G1 X141.559 Y57.494 E73.59369
G1 X142.065 Y57.983 E73.6288
G1 X142.513 Y58.527 E73.66396
G1 X142.727 Y58.839 E73.68283
G1 X143.032 Y59.314 E73.711
G1 X143.378 Y59.927 E73.74612
G1 X143.756 Y60.891 E73.79777
G1 X143.918 Y61.434 E73.82605
G1 X144.081 Y62.119 E73.86117
G1 X144.165 Y62.818 E73.8963
G1 X144.177 Y63.205 E73.91562
G1 X144.2 Y134.672 E77.48112
G1 X144.2 Y136.498 E77.57222
G1 X144.139 Y137.366 E77.61563
G1 X144.06 Y137.925 E77.6438
G1 X143.922 Y138.615 E77.6789
G1 X143.707 Y139.285 E77.71401
G1 X143.569 Y139.614 E77.73181
G1 X143.335 Y140.131 E77.76012
G1 X143.009 Y140.754 E77.7952
G1 X142.614 Y141.337 E77.83033
G1 X142.382 Y141.623 E77.8487
G1 X142.006 Y142.059 E77.87743
G1 X141.517 Y142.565 E77.91253
G1 X140.973 Y143.013 E77.94769
G1 X140.661 Y143.227 E77.96657
G1 X140.186 Y143.532 E77.99473
G1 X139.573 Y143.878 E78.02985
G1 X138.609 Y144.256 E78.08151
G1 X138.066 Y144.418 E78.10978
G1 X137.381 Y144.581 E78.14491
G1 X136.433 Y144.675 E78.19244
G1 X135.415 Y144.698 E78.24324
G1 X135.275 Y144.7 E78.25022
G1 X64.002 Y144.7 E81.80605
G1 X63.134 Y144.639 E81.84946
G1 X62.575 Y144.56 E81.87762
G1 X61.885 Y144.422 E81.91273
G1 X61.215 Y144.207 E81.94783
G1 X60.886 Y144.069 E81.96563
G1 X60.369 Y143.835 E81.99395
G1 X59.746 Y143.509 E82.02903
G1 X59.163 Y143.114 E82.06416
G1 X58.877 Y142.882 E82.08253
G1 X58.441 Y142.506 E82.11126
G1 X57.935 Y142.017 E82.14636
G1 X57.487 Y141.473 E82.18152
G1 X57.273 Y141.161 E82.2004
G1 X56.968 Y140.686 E82.22856
G1 X56.622 Y140.073 E82.26368
G1 X56.244 Y139.109 E82.31534
G1 X56.082 Y138.566 E82.34361
G1 X55.919 Y137.881 E82.37874
G1 X55.835 Y137.182 E82.41386
G1 X55.823 Y136.795 E82.43318
G1 X55.8 Y65.328 E85.99868
G1 X55.8 Y63.502 E86.08978
G1 X55.861 Y62.636 E86.13309
G1 X55.94 Y62.076 E86.16131
G1 X56.078 Y61.386 E86.19641
G1 X56.293 Y60.715 E86.23157
G1 X56.432 Y60.381 E86.24961
G1 X56.666 Y59.865 E86.27788
G1 X56.993 Y59.242 E86.31298
G1 X57.388 Y58.659 E86.34812
G1 X57.618 Y58.377 E86.36627
G1 X57.994 Y57.941 E86.395
G1 X58.483 Y57.435 E86.4301
G0 F3600 X58.771 Y57.714
G1 F1800 X59.555 Y57.109 E86.47951
G1 X60.03 Y56.804 E86.50767
G1 X60.624 Y56.471 E86.54164
G1 X61.506 Y56.127 E86.58888
G1 X62.049 Y55.965 E86.61715
G1 X62.712 Y55.809 E86.65113
G1 X63.705 Y55.723 E86.70085
G1 X134.197 Y55.7 E90.21771
G1 X135.998 Y55.7 E90.30757
G1 X136.81 Y55.757 E90.34818
G1 X137.369 Y55.836 E90.37634
G1 X138.036 Y55.971 E90.41029
G1 X138.949 Y56.295 E90.45863
G1 X139.466 Y56.529 E90.48694
G1 X140.068 Y56.846 E90.52088
G1 X140.862 Y57.421 E90.56979
G1 X141.298 Y57.797 E90.59852
G1 X141.786 Y58.271 E90.63246
G1 X142.391 Y59.055 E90.68186
G1 X142.696 Y59.53 E90.71002
G1 X143.029 Y60.124 E90.744
G1 X143.373 Y61.006 E90.79123
G1 X143.535 Y61.549 E90.8195
G1 X143.691 Y62.212 E90.85348
G1 X143.777 Y63.205 E90.90321
G1 X143.8 Y134.672 E94.46871
G1 X143.8 Y136.498 E94.55981
G1 X143.743 Y137.31 E94.60042
G1 X143.664 Y137.869 E94.62859
G1 X143.529 Y138.536 E94.66254
G1 X143.205 Y139.449 E94.71087
G1 X142.971 Y139.966 E94.73918
G1 X142.654 Y140.568 E94.77313
G1 X142.079 Y141.362 E94.82204
G1 X141.703 Y141.798 E94.85076
G1 X141.229 Y142.286 E94.8847
G1 X140.445 Y142.891 E94.93411
G1 X139.97 Y143.196 E94.96227
G1 X139.376 Y143.529 E94.99624
G1 X138.494 Y143.873 E95.04347
G1 X137.951 Y144.035 E95.07174
G1 X137.288 Y144.191 E95.10572
G1 X136.424 Y144.276 E95.14904
G1 X135.406 Y144.299 E95.19984
G1 X135.275 Y144.3 E95.20638
G1 X64.002 Y144.3 E98.7622
G1 X63.19 Y144.243 E98.80281
G1 X62.631 Y144.164 E98.83098
G1 X61.964 Y144.029 E98.86493
G1 X61.051 Y143.705 E98.91326
G1 X60.534 Y143.471 E98.94157
G1 X59.932 Y143.154 E98.97552
G1 X59.138 Y142.579 E99.02442
G1 X58.702 Y142.203 E99.05315
G1 X58.214 Y141.729 E99.08709
G1 X57.609 Y140.945 E99.1365
G1 X57.304 Y140.47 E99.16466
G1 X56.971 Y139.876 E99.19863
G1 X56.627 Y138.994 E99.24586
G1 X56.465 Y138.451 E99.27413
G1 X56.309 Y137.788 E99.30811
