;FLAVOR:Marlin
;TIME:3414
;Filament used: 4.52918m
;Layer height: 0.2
;MINX:54.25
;MINY:53.75
;MINZ:0.3
;MAXX:145.75
;MAXY:146.25
;MAXZ:5.9
;Generated with Cura_SteamEngine 4.2.1
M140 S60
M105
M190 S60
M104 S210
M105
M109 S210
M82 ;absolute extrusion mode
G28 ;Home
G1 Z15.0 F6000 ;Move the platform down 15mm
;Prime the extruder
G92 E0
G1 F200 E3
G92 E0
;
M117 Printing...        ☺
M141 S28
G92 E0
G92 E0
G1 F1500 E-5
;LAYER_COUNT:29
;LAYER:0
M107
G0 F3600 X57.364 Y56.359 Z0.3
;TYPE:SKIRT
G1 F1500 E0
G1 F1800 X57.962 Y55.848 E0.04905
G1 X58.502 Y55.469 E0.0902
G1 X58.977 Y55.164 E0.1254
G1 X59.66 Y54.773 E0.17448
G1 X60.379 Y54.453 E0.22356
G1 X60.948 Y54.258 E0.26107
G1 X61.491 Y54.096 E0.29641
G1 X62.256 Y53.91 E0.3455
G1 X63.036 Y53.802 E0.39461
G1 X63.704 Y53.773 E0.43631
G1 X134.196 Y53.75 E4.83238
G1 X135.998 Y53.75 E4.94476
G1 X137.082 Y53.826 E5.01253
G1 X137.641 Y53.905 E5.04774
G1 X138.414 Y54.055 E5.09684
G1 X139.168 Y54.282 E5.14595
G1 X139.753 Y54.519 E5.18531
G1 X140.27 Y54.753 E5.2207
G1 X140.969 Y55.113 E5.26973
G1 X141.629 Y55.543 E5.31886
G1 X142.135 Y55.944 E5.35912
G1 X142.571 Y56.32 E5.39503
G1 X143.141 Y56.864 E5.44416
G1 X143.652 Y57.462 E5.49322
G1 X144.031 Y58.002 E5.53436
G1 X144.336 Y58.477 E5.56956
G1 X144.727 Y59.16 E5.61864
G1 X145.047 Y59.879 E5.66772
G1 X145.242 Y60.448 E5.70523
G1 X145.404 Y60.991 E5.74057
G1 X145.59 Y61.756 E5.78967
G1 X145.698 Y62.536 E5.83877
G1 X145.727 Y63.205 E5.88053
G1 X145.75 Y134.672 E10.33741
G1 X145.75 Y136.498 E10.45129
G1 X145.674 Y137.582 E10.51905
G1 X145.595 Y138.141 E10.55426
G1 X145.445 Y138.914 E10.60337
G1 X145.218 Y139.668 E10.65247
G1 X144.981 Y140.253 E10.69184
G1 X144.747 Y140.77 E10.72723
G1 X144.387 Y141.469 E10.77626
G1 X143.957 Y142.129 E10.82538
G1 X143.556 Y142.635 E10.86565
G1 X143.18 Y143.071 E10.90155
G1 X142.636 Y143.641 E10.95069
G1 X142.038 Y144.152 E10.99974
G1 X141.498 Y144.531 E11.04089
G1 X141.023 Y144.836 E11.07609
G1 X140.34 Y145.227 E11.12517
G1 X139.621 Y145.547 E11.17425
G1 X139.052 Y145.742 E11.21176
G1 X138.509 Y145.904 E11.2471
G1 X137.744 Y146.09 E11.29619
G1 X136.964 Y146.198 E11.3453
G1 X136.468 Y146.225 E11.37628
G1 X135.45 Y146.248 E11.43978
G1 X135.275 Y146.25 E11.45069
G1 X64.002 Y146.25 E15.89547
G1 X62.918 Y146.174 E15.96324
G1 X62.359 Y146.095 E15.99845
G1 X61.586 Y145.945 E16.04755
G1 X60.832 Y145.718 E16.09666
G1 X60.247 Y145.481 E16.13602
G1 X59.73 Y145.247 E16.17141
G1 X59.031 Y144.887 E16.22045
G1 X58.371 Y144.457 E16.26957
G1 X57.865 Y144.056 E16.30983
G1 X57.429 Y143.68 E16.34574
G1 X56.859 Y143.136 E16.39488
G1 X56.348 Y142.538 E16.44393
G1 X55.969 Y141.998 E16.48507
G1 X55.664 Y141.523 E16.52028
G1 X55.273 Y140.84 E16.56935
G1 X54.953 Y140.121 E16.61843
G1 X54.758 Y139.552 E16.65594
G1 X54.596 Y139.009 E16.69128
G1 X54.41 Y138.244 E16.74038
G1 X54.302 Y137.464 E16.78949
G1 X54.273 Y136.795 E16.83125
G1 X54.25 Y65.328 E21.28813
G1 X54.25 Y63.502 E21.402
G1 X54.326 Y62.419 E21.46971
G1 X54.405 Y61.859 E21.50497
G1 X54.554 Y61.087 E21.55401
G1 X54.781 Y60.333 E21.60311
G1 X55.021 Y59.741 E21.64295
G1 X55.255 Y59.225 E21.67828
G1 X55.616 Y58.526 E21.72735
G1 X56.046 Y57.867 E21.77642
G1 X56.444 Y57.365 E21.81637
G1 X56.82 Y56.929 E21.85227
G1 X57.364 Y56.359 E21.90141
G0 F3600 X57.725 Y56.706
G1 F1800 X58.307 Y56.214 E21.94894
G1 X58.772 Y55.889 E21.98432
G1 X59.247 Y55.584 E22.01952
G1 X59.908 Y55.207 E22.06698
G1 X60.605 Y54.902 E22.11442
G1 X61.091 Y54.738 E22.14641
G1 X61.634 Y54.576 E22.18175
G1 X62.374 Y54.397 E22.22923
G1 X63.129 Y54.296 E22.27673
G1 X63.705 Y54.273 E22.31268
G1 X134.197 Y54.25 E26.70875
G1 X135.998 Y54.25 E26.82107
G1 X137.013 Y54.321 E26.88452
G1 X137.572 Y54.4 E26.91973
G1 X138.319 Y54.546 E26.9672
G1 X139.046 Y54.77 E27.01464
G1 X139.546 Y54.974 E27.04831
G1 X140.063 Y55.208 E27.0837
G1 X140.74 Y55.558 E27.13123
G1 X141.375 Y55.977 E27.17868
G1 X141.809 Y56.323 E27.21329
G1 X142.245 Y56.699 E27.2492
G1 X142.794 Y57.225 E27.29661
G1 X143.286 Y57.807 E27.34414
G1 X143.611 Y58.272 E27.37952
G1 X143.916 Y58.747 E27.41472
G1 X144.293 Y59.408 E27.46217
G1 X144.598 Y60.105 E27.50962
G1 X144.762 Y60.591 E27.54161
G1 X144.924 Y61.134 E27.57695
G1 X145.103 Y61.874 E27.62443
G1 X145.204 Y62.629 E27.67193
G1 X145.227 Y63.205 E27.70788
G1 X145.25 Y134.672 E32.16476
G1 X145.25 Y136.498 E32.27863
G1 X145.179 Y137.513 E32.34208
G1 X145.1 Y138.072 E32.37729
G1 X144.954 Y138.819 E32.42476
G1 X144.73 Y139.546 E32.4722
G1 X144.526 Y140.046 E32.50588
G1 X144.292 Y140.563 E32.54127
G1 X143.942 Y141.24 E32.58879
G1 X143.523 Y141.875 E32.63624
G1 X143.177 Y142.309 E32.67085
G1 X142.801 Y142.745 E32.70676
G1 X142.275 Y143.294 E32.75417
G1 X141.693 Y143.786 E32.8017
G1 X141.228 Y144.111 E32.83708
G1 X140.753 Y144.416 E32.87228
G1 X140.092 Y144.793 E32.91974
G1 X139.395 Y145.098 E32.96718
G1 X138.909 Y145.262 E32.99917
G1 X138.366 Y145.424 E33.03451
G1 X137.626 Y145.603 E33.08199
G1 X136.871 Y145.704 E33.12949
G1 X136.457 Y145.725 E33.15534
G1 X135.439 Y145.748 E33.21884
G1 X135.275 Y145.75 E33.22907
G1 X64.002 Y145.75 E37.67385
G1 X62.987 Y145.679 E37.73731
G1 X62.428 Y145.6 E37.77251
G1 X61.681 Y145.454 E37.81998
G1 X60.954 Y145.23 E37.86742
G1 X60.454 Y145.026 E37.9011
G1 X59.937 Y144.792 E37.93649
G1 X59.26 Y144.442 E37.98401
G1 X58.625 Y144.023 E38.03146
G1 X58.191 Y143.677 E38.06607
G1 X57.755 Y143.301 E38.10198
G1 X57.206 Y142.775 E38.14939
G1 X56.714 Y142.193 E38.19692
G1 X56.389 Y141.728 E38.2323
G1 X56.084 Y141.253 E38.2675
G1 X55.707 Y140.592 E38.31496
G1 X55.402 Y139.895 E38.3624
G1 X55.238 Y139.409 E38.39439
G1 X55.076 Y138.866 E38.42973
G1 X54.897 Y138.126 E38.47721
G1 X54.796 Y137.371 E38.52471
G1 X54.773 Y136.795 E38.56066
G1 X54.75 Y65.328 E43.01754
G1 X54.75 Y63.502 E43.13141
G1 X54.821 Y62.489 E43.19474
G1 X54.9 Y61.929 E43.23001
G1 X55.046 Y61.182 E43.27748
G1 X55.269 Y60.454 E43.32496
G1 X55.476 Y59.948 E43.35905
G1 X55.71 Y59.432 E43.39439
G1 X56.061 Y58.756 E43.44189
G1 X56.48 Y58.12 E43.48939
G1 X56.823 Y57.691 E43.52364
G1 X57.199 Y57.255 E43.55954
G1 X57.725 Y56.706 E43.60696
G0 F3600 X58.087 Y57.052
G1 F1800 X58.65 Y56.581 E43.65274
G1 X59.042 Y56.31 E43.68245
G1 X59.517 Y56.005 E43.71766
G1 X60.156 Y55.642 E43.76349
G1 X60.83 Y55.351 E43.80927
G1 X61.234 Y55.217 E43.83582
G1 X61.777 Y55.055 E43.87115
G1 X62.492 Y54.883 E43.91702
G1 X63.22 Y54.791 E43.96278
G1 X63.705 Y54.773 E43.99304
G1 X134.197 Y54.75 E48.38912
G1 X135.998 Y54.75 E48.50143
G1 X136.943 Y54.816 E48.56051
G1 X137.502 Y54.895 E48.59572
G1 X138.222 Y55.038 E48.6415
G1 X138.923 Y55.257 E48.6873
G1 X139.34 Y55.43 E48.71545
G1 X139.857 Y55.664 E48.75084
G1 X140.509 Y56.002 E48.79664
G1 X141.12 Y56.41 E48.84246
G1 X141.482 Y56.701 E48.87142
G1 X141.918 Y57.077 E48.90733
G1 X142.448 Y57.587 E48.9532
G1 X142.919 Y58.15 E48.99897
G1 X143.19 Y58.542 E49.02869
G1 X143.495 Y59.017 E49.0639
G1 X143.858 Y59.656 E49.10973
G1 X144.149 Y60.33 E49.15551
G1 X144.283 Y60.734 E49.18205
G1 X144.445 Y61.277 E49.21739
G1 X144.617 Y61.992 E49.26325
G1 X144.709 Y62.72 E49.30901
G1 X144.727 Y63.205 E49.33928
G1 X144.75 Y134.672 E53.79616
G1 X144.75 Y136.498 E53.91003
G1 X144.684 Y137.443 E53.96911
G1 X144.605 Y138.002 E54.00432
G1 X144.462 Y138.722 E54.0501
G1 X144.243 Y139.423 E54.0959
G1 X144.07 Y139.84 E54.12405
G1 X143.836 Y140.357 E54.15944
G1 X143.498 Y141.009 E54.20524
G1 X143.09 Y141.62 E54.25106
G1 X142.799 Y141.982 E54.28002
G1 X142.423 Y142.418 E54.31593
G1 X141.913 Y142.948 E54.3618
G1 X141.35 Y143.419 E54.40757
G1 X140.958 Y143.69 E54.43729
G1 X140.483 Y143.995 E54.4725
G1 X139.844 Y144.358 E54.51833
G1 X139.17 Y144.649 E54.56411
G1 X138.766 Y144.783 E54.59065
G1 X138.223 Y144.945 E54.62599
G1 X137.508 Y145.117 E54.67185
G1 X136.445 Y145.225 E54.73849
G1 X135.427 Y145.248 E54.80199
G1 X135.275 Y145.25 E54.81147
G1 X64.002 Y145.25 E59.25625
G1 X63.057 Y145.184 E59.31533
G1 X62.498 Y145.105 E59.35053
G1 X61.778 Y144.962 E59.39631
G1 X61.077 Y144.743 E59.44211
G1 X60.66 Y144.57 E59.47026
G1 X60.143 Y144.336 E59.50566
G1 X59.491 Y143.998 E59.55145
G1 X58.88 Y143.59 E59.59727
G1 X58.518 Y143.299 E59.62624
G1 X58.082 Y142.923 E59.66214
G1 X57.552 Y142.413 E59.70801
G1 X57.081 Y141.85 E59.75379
G1 X56.81 Y141.458 E59.78351
G1 X56.505 Y140.983 E59.81871
G1 X56.142 Y140.344 E59.86454
G1 X55.851 Y139.67 E59.91032
G1 X55.717 Y139.266 E59.93687
G1 X55.555 Y138.723 E59.97221
G1 X55.383 Y138.008 E60.01807
G1 X55.291 Y137.28 E60.06383
G1 X55.273 Y136.795 E60.0941
G1 X55.25 Y65.328 E64.55097
G1 X55.25 Y63.502 E64.66485
G1 X55.316 Y62.559 E64.7238
G1 X55.395 Y61.999 E64.75907
G1 X55.537 Y61.278 E64.8049
G1 X55.757 Y60.577 E64.85072
G1 X55.932 Y60.154 E64.87926
G1 X56.166 Y59.638 E64.9146
G1 X56.505 Y58.987 E64.96037
G1 X56.913 Y58.376 E65.00619
G1 X57.201 Y58.018 E65.03484
G1 X57.577 Y57.582 E65.07075
G1 X58.087 Y57.052 E65.11662
G0 F3600 X58.447 Y57.4
G1 F1800 X58.992 Y56.95 E65.16069
G1 X59.312 Y56.731 E65.18487
G1 X59.787 Y56.426 E65.22008
G1 X60.402 Y56.078 E65.26414
G1 X61.377 Y55.696 E65.32945
G1 X61.92 Y55.534 E65.36479
G1 X62.608 Y55.37 E65.40889
G1 X63.31 Y55.286 E65.45299
G1 X63.705 Y55.273 E65.47763
G1 X134.197 Y55.25 E69.87371
G1 X135.998 Y55.25 E69.98602
G1 X136.873 Y55.311 E70.04072
G1 X137.432 Y55.39 E70.07593
G1 X138.125 Y55.529 E70.12001
G1 X138.798 Y55.745 E70.16409
G1 X139.134 Y55.885 E70.18679
G1 X139.651 Y56.119 E70.22218
G1 X140.278 Y56.446 E70.26628
G1 X140.863 Y56.843 E70.31037
G1 X141.156 Y57.08 E70.33387
G1 X141.592 Y57.456 E70.36977
G1 X142.1 Y57.947 E70.41383
G1 X142.55 Y58.492 E70.45791
G1 X142.769 Y58.812 E70.48209
G1 X143.074 Y59.287 E70.51729
G1 X143.422 Y59.902 E70.56136
G1 X143.804 Y60.877 E70.62666
G1 X143.966 Y61.42 E70.662
G1 X144.13 Y62.108 E70.70611
G1 X144.214 Y62.81 E70.7502
G1 X144.227 Y63.205 E70.77485
G1 X144.25 Y134.672 E75.23173
G1 X144.25 Y136.498 E75.3456
G1 X144.189 Y137.373 E75.4003
G1 X144.11 Y137.932 E75.43551
G1 X143.971 Y138.625 E75.47959
G1 X143.755 Y139.298 E75.52367
G1 X143.615 Y139.634 E75.54637
G1 X143.381 Y140.151 E75.58176
G1 X143.054 Y140.778 E75.62586
G1 X142.657 Y141.363 E75.66995
G1 X142.42 Y141.656 E75.69345
G1 X142.044 Y142.092 E75.72935
G1 X141.553 Y142.6 E75.77341
G1 X141.008 Y143.05 E75.81749
G1 X140.688 Y143.269 E75.84167
G1 X140.213 Y143.574 E75.87687
G1 X139.598 Y143.922 E75.92094
G1 X138.623 Y144.304 E75.98624
G1 X138.08 Y144.466 E76.02158
G1 X137.392 Y144.63 E76.06569
G1 X136.434 Y144.725 E76.12573
G1 X135.416 Y144.748 E76.18923
G1 X135.275 Y144.75 E76.19802
G1 X64.002 Y144.75 E80.6428
G1 X63.127 Y144.689 E80.6975
G1 X62.568 Y144.61 E80.73271
G1 X61.875 Y144.471 E80.77679
G1 X61.202 Y144.255 E80.82087
G1 X60.866 Y144.115 E80.84357
G1 X60.349 Y143.881 E80.87896
G1 X59.722 Y143.554 E80.92306
G1 X59.137 Y143.157 E80.96715
G1 X58.844 Y142.92 E80.99065
G1 X58.408 Y142.544 E81.02655
G1 X57.9 Y142.053 E81.07061
G1 X57.45 Y141.508 E81.11469
G1 X57.231 Y141.188 E81.13887
G1 X56.926 Y140.713 E81.17407
G1 X56.578 Y140.098 E81.21814
G1 X56.196 Y139.123 E81.28344
G1 X56.034 Y138.58 E81.31878
G1 X55.87 Y137.892 E81.36289
G1 X55.786 Y137.19 E81.40698
G1 X55.773 Y136.795 E81.43163
G1 X55.75 Y65.328 E85.88851
G1 X55.75 Y63.502 E86.00238
G1 X55.811 Y62.629 E86.05696
G1 X55.89 Y62.069 E86.09222
G1 X56.028 Y61.376 E86.13629
G1 X56.244 Y60.703 E86.18037
G1 X56.387 Y60.361 E86.20349
G1 X56.621 Y59.845 E86.23882
G1 X56.949 Y59.219 E86.28289
G1 X57.345 Y58.633 E86.327
G1 X57.58 Y58.344 E86.35023
G1 X57.956 Y57.908 E86.38613
G1 X58.447 Y57.4 E86.43019
G0 F3600 X58.807 Y57.748
G1 F1800 X59.582 Y57.152 E86.49116
G1 X60.057 Y56.847 E86.52637
G1 X60.648 Y56.515 E86.56864
G1 X61.52 Y56.175 E86.62701
G1 X62.063 Y56.013 E86.66235
G1 X62.723 Y55.858 E86.70463
G1 X63.705 Y55.773 E86.76609
G1 X134.197 Y55.75 E91.16217
G1 X135.998 Y55.75 E91.27449
G1 X136.803 Y55.807 E91.32481
G1 X137.362 Y55.886 E91.36002
G1 X138.026 Y56.02 E91.40226
G1 X138.928 Y56.341 E91.46197
G1 X139.445 Y56.575 E91.49736
G1 X140.045 Y56.89 E91.53962
G1 X140.829 Y57.459 E91.60003
G1 X141.265 Y57.835 E91.63594
G1 X141.752 Y58.307 E91.67823
G1 X142.348 Y59.082 E91.7392
G1 X142.653 Y59.557 E91.77441
G1 X142.985 Y60.148 E91.81668
G1 X143.325 Y61.02 E91.87505
G1 X143.487 Y61.563 E91.91039
G1 X143.642 Y62.223 E91.95267
G1 X143.727 Y63.205 E92.01413
G1 X143.75 Y134.672 E96.47101
G1 X143.75 Y136.498 E96.58489
G1 X143.693 Y137.303 E96.63522
G1 X143.614 Y137.862 E96.67042
G1 X143.48 Y138.526 E96.71267
G1 X143.159 Y139.428 E96.77237
G1 X142.925 Y139.945 E96.80776
G1 X142.61 Y140.545 E96.85002
G1 X142.041 Y141.329 E96.91044
G1 X141.665 Y141.765 E96.94634
G1 X141.193 Y142.252 E96.98864
G1 X140.418 Y142.848 E97.04961
G1 X139.943 Y143.153 E97.08481
G1 X139.352 Y143.485 E97.12708
G1 X138.48 Y143.825 E97.18545
G1 X137.937 Y143.987 E97.22079
G1 X137.277 Y144.142 E97.26307
G1 X136.423 Y144.226 E97.31658
G1 X135.405 Y144.249 E97.38008
G1 X135.275 Y144.25 E97.38819
G1 X64.002 Y144.25 E101.83297
G1 X63.197 Y144.193 E101.8833
G1 X62.638 Y144.114 E101.91851
G1 X61.974 Y143.98 E101.96075
G1 X61.072 Y143.659 E102.02046
G1 X60.555 Y143.425 E102.05585
G1 X59.955 Y143.11 E102.09811
G1 X59.171 Y142.541 E102.15852
G1 X58.735 Y142.165 E102.19442
G1 X58.248 Y141.693 E102.23672
G1 X57.652 Y140.918 E102.29769
G1 X57.347 Y140.443 E102.33289
G1 X57.015 Y139.852 E102.37517
G1 X56.675 Y138.98 E102.43353
G1 X56.513 Y138.437 E102.46887
G1 X56.358 Y137.777 E102.51115
G1 X56.273 Y136.795 E102.57262
G1 X56.25 Y65.328 E107.0295
G1 X56.25 Y63.502 E107.14337
G1 X56.306 Y62.699 E107.19357
G1 X56.385 Y62.139 E107.22884
G1 X56.519 Y61.474 E107.27115
G1 X56.842 Y60.567 E107.33119
G1 X57.076 Y60.051 E107.36652
G1 X57.392 Y59.451 E107.40881
G1 X57.959 Y58.671 E107.46895
G1 X58.335 Y58.235 E107.50485
G1 X58.807 Y57.748 E107.54715
G0 F3600 X59.166 Y58.098
G1 F1800 X59.852 Y57.572 E107.60106
G1 X60.327 Y57.267 E107.63626
G1 X60.893 Y56.952 E107.67666
G1 X61.663 Y56.654 E107.72815
G1 X62.206 Y56.492 E107.76348
G1 X62.837 Y56.346 E107.80387
G1 X63.705 Y56.273 E107.8582
G1 X134.197 Y56.25 E112.25427
G1 X135.998 Y56.25 E112.36659
G1 X136.733 Y56.302 E112.41254
G1 X137.292 Y56.381 E112.44775
G1 X137.926 Y56.511 E112.48811
G1 X138.722 Y56.796 E112.54083
G1 X139.239 Y57.03 E112.57622
G1 X139.811 Y57.333 E112.61659
G1 X140.503 Y57.837 E112.66998
G1 X140.939 Y58.213 E112.70588
G1 X141.402 Y58.666 E112.74628
G1 X141.928 Y59.352 E112.80019
G1 X142.233 Y59.827 E112.83539
G1 X142.548 Y60.393 E112.87579
G1 X142.846 Y61.163 E112.92728
G1 X143.008 Y61.706 E112.96261
G1 X143.154 Y62.337 E113.003
G1 X143.227 Y63.205 E113.05733
G1 X143.25 Y134.672 E117.51421
G1 X143.25 Y136.498 E117.62808
G1 X143.198 Y137.233 E117.67403
G1 X143.119 Y137.792 E117.70924
G1 X142.989 Y138.426 E117.7496
G1 X142.704 Y139.222 E117.80233
G1 X142.47 Y139.739 E117.83772
G1 X142.167 Y140.311 E117.87808
G1 X141.663 Y141.003 E117.93147
G1 X141.287 Y141.439 E117.96738
G1 X140.834 Y141.902 E118.00777
G1 X140.148 Y142.428 E118.06168
G1 X139.673 Y142.733 E118.09688
G1 X139.107 Y143.048 E118.13728
G1 X138.337 Y143.346 E118.18877
G1 X137.794 Y143.508 E118.22411
G1 X137.163 Y143.654 E118.2645
G1 X136.412 Y143.726 E118.31155
G1 X135.394 Y143.749 E118.37505
G1 X135.275 Y143.75 E118.38247
G1 X64.002 Y143.75 E122.82725
G1 X63.267 Y143.698 E122.8732
G1 X62.708 Y143.619 E122.90841
G1 X62.074 Y143.489 E122.94877
G1 X61.278 Y143.204 E123.0015
G1 X60.761 Y142.97 E123.03689
G1 X60.189 Y142.667 E123.07725
G1 X59.497 Y142.163 E123.13064
G1 X59.061 Y141.787 E123.16655
G1 X58.598 Y141.334 E123.20694
G1 X58.072 Y140.648 E123.26085
G1 X57.767 Y140.173 E123.29605
G1 X57.452 Y139.607 E123.33645
