;FLAVOR:Marlin
;TIME:18816
;Filament used: 22.817m
;Layer height: 0.2
;MINX:55.049
;MINY:59.402
;MINZ:0.3
;MAXX:144.951
;MAXY:166.211
;MAXZ:56.9
;Generated with Cura_SteamEngine 4.2.1
M140 S60
M105
M190 S60
M104 S210
M105
M109 S210
M82 ;absolute extrusion mode
G28 ;Home
G1 Z15.0 F6000 ;Move the platform down 15mm
;Prime the extruder
G92 E0
G1 F200 E3
G92 E0
;
M117 Printing...        ☺
M141 S28
G92 E0
G92 E0
G1 F1500 E-5
;LAYER_COUNT:284
;LAYER:0
M107
G0 F3600 X57.74 Y68.094 Z0.3
;TYPE:SKIRT
G1 F1500 E0
G1 F1800 X58.352 Y67.595 E0.0394
G1 X59.012 Y67.16 E0.07883
G1 X59.969 Y66.682 E0.1322
G1 X60.041 Y66.652 E0.13609
G1 X60.784 Y66.386 E0.17546
G1 X61.551 Y66.196 E0.21489
G1 X62.333 Y66.084 E0.2543
G1 X63.041 Y66.052 E0.28966
G1 X135.612 Y66.051 E3.91024
G1 X135.618 Y66.051 E3.91054
G1 X136.964 Y66.052 E3.97769
G1 X137.752 Y66.093 E4.01706
G1 X138.533 Y66.213 E4.05648
G1 X139.297 Y66.411 E4.09585
G1 X140.038 Y66.686 E4.13529
G1 X140.746 Y67.034 E4.17465
G1 X141.576 Y67.566 E4.22383
G1 X141.738 Y67.685 E4.23386
G1 X142.35 Y68.184 E4.27325
G1 X142.908 Y68.742 E4.31262
G1 X143.407 Y69.354 E4.35202
G1 X143.842 Y70.014 E4.39146
G1 X144.32 Y70.971 E4.44483
G1 X144.35 Y71.043 E4.44872
G1 X144.616 Y71.786 E4.48809
G1 X144.806 Y72.553 E4.52751
G1 X144.918 Y73.335 E4.56692
G1 X144.95 Y74.043 E4.60228
G1 X144.951 Y146.614 E8.22286
G1 X144.951 Y146.62 E8.22316
G1 X144.95 Y147.966 E8.29032
G1 X144.909 Y148.754 E8.32968
G1 X144.789 Y149.535 E8.3691
G1 X144.591 Y150.299 E8.40848
G1 X144.316 Y151.04 E8.44791
G1 X143.968 Y151.748 E8.48727
G1 X143.436 Y152.578 E8.53646
G1 X143.317 Y152.74 E8.54648
G1 X142.818 Y153.352 E8.58588
G1 X142.26 Y153.91 E8.62525
G1 X141.648 Y154.409 E8.66465
G1 X140.988 Y154.844 E8.70408
G1 X140.031 Y155.322 E8.75745
G1 X139.959 Y155.352 E8.76134
G1 X139.216 Y155.618 E8.80071
G1 X138.449 Y155.808 E8.84014
G1 X137.667 Y155.92 E8.87955
G1 X136.959 Y155.952 E8.91491
G1 X114.809 Y155.952 E10.01998
G1 X114.809 Y156.539 E10.04926
G1 X114.73 Y157.325 E10.08867
G1 X114.572 Y158.099 E10.12808
G1 X114.337 Y158.853 E10.16749
G1 X114.026 Y159.579 E10.20689
G1 X113.644 Y160.27 E10.24628
G1 X113.346 Y160.714 E10.27296
G1 X112.483 Y161.911 E10.34658
G1 X111.989 Y162.527 E10.38597
G1 X111.436 Y163.09 E10.42535
G1 X110.828 Y163.595 E10.46478
G1 X110.33 Y163.93 E10.49472
G1 X110.174 Y164.066 E10.50505
G1 X109.53 Y164.522 E10.54441
G1 X108.843 Y164.912 E10.58383
G1 X108.12 Y165.23 E10.62323
G1 X107.369 Y165.473 E10.66261
G1 X106.597 Y165.639 E10.70201
G1 X105.622 Y165.735 E10.75089
G1 X104.877 Y165.761 E10.78808
G1 X104.404 Y165.878 E10.81239
G1 X103.622 Y165.989 E10.85179
G1 X102.833 Y166.019 E10.89118
G1 X102.202 Y165.98 E10.92272
G1 X101.257 Y166.127 E10.97044
G1 X100.471 Y166.209 E11.00986
G1 X99.681 Y166.211 E11.04928
G1 X98.933 Y166.139 E11.08677
G1 X98.045 Y166.01 E11.13153
G1 X97.786 Y166.025 E11.14448
G1 X97.207 Y166 E11.17339
G1 X97.149 Y166.004 E11.17629
G1 X96.359 Y165.977 E11.21573
G1 X95.577 Y165.87 E11.25511
G1 X95.304 Y165.803 E11.26913
G1 X95.299 Y165.803 E11.26938
G1 X95.024 Y165.754 E11.28332
G1 X94.699 Y165.731 E11.29957
G1 X93.915 Y165.634 E11.33898
G1 X93.145 Y165.459 E11.37838
G1 X92.909 Y165.379 E11.39081
G1 X92.771 Y165.366 E11.39772
G1 X91.996 Y165.212 E11.43715
G1 X91.241 Y164.98 E11.47655
G1 X90.514 Y164.673 E11.51592
G1 X89.821 Y164.294 E11.55533
G1 X89.17 Y163.847 E11.59473
G1 X88.568 Y163.336 E11.63412
G1 X88.007 Y162.752 E11.67452
G1 X87.661 Y162.352 E11.70091
G1 X87.175 Y161.729 E11.74033
G1 X86.896 Y161.303 E11.76574
G1 X86.634 Y160.873 E11.79086
G1 X86.217 Y160.271 E11.82739
G1 X85.834 Y159.58 E11.86681
G1 X85.524 Y158.854 E11.90619
G1 X85.288 Y158.1 E11.94561
G1 X85.13 Y157.327 E11.98497
G1 X85.051 Y156.541 E12.02438
G1 X85.051 Y155.953 E12.05372
G1 X64.382 Y155.953 E13.0849
G1 X63.036 Y155.952 E13.15205
G1 X62.248 Y155.911 E13.19142
G1 X61.467 Y155.791 E13.23084
G1 X60.703 Y155.593 E13.27021
G1 X59.962 Y155.318 E13.30965
G1 X59.254 Y154.97 E13.349
G1 X58.424 Y154.438 E13.39819
G1 X58.262 Y154.319 E13.40822
G1 X57.65 Y153.82 E13.44761
G1 X57.092 Y153.262 E13.48698
G1 X56.593 Y152.65 E13.52638
G1 X56.158 Y151.99 E13.56582
G1 X55.68 Y151.033 E13.61918
G1 X55.65 Y150.961 E13.62308
G1 X55.384 Y150.218 E13.66245
G1 X55.194 Y149.451 E13.70187
G1 X55.082 Y148.669 E13.74128
G1 X55.05 Y147.961 E13.77664
G1 X55.049 Y75.39 E17.39722
G1 X55.049 Y75.384 E17.39752
G1 X55.05 Y74.038 E17.46468
G1 X55.091 Y73.25 E17.50404
G1 X55.211 Y72.469 E17.54346
G1 X55.409 Y71.705 E17.58284
G1 X55.684 Y70.964 E17.62227
G1 X56.032 Y70.256 E17.66163
G1 X56.564 Y69.426 E17.71081
G1 X56.683 Y69.264 E17.72084
G1 X57.182 Y68.652 E17.76024
G1 X57.74 Y68.094 E17.79961
G0 F3600 X58.038 Y68.364
G1 F1800 X58.638 Y67.882 E17.83801
G1 X59.284 Y67.465 E17.87637
G1 X60.123 Y67.051 E17.92304
G1 X60.195 Y67.021 E17.92693
G1 X60.919 Y66.763 E17.96528
G1 X61.667 Y66.581 E18.00369
G1 X62.429 Y66.477 E18.04205
G1 X63.041 Y66.452 E18.07261
G1 X135.612 Y66.451 E21.69319
G1 X135.617 Y66.451 E21.69344
G1 X136.963 Y66.452 E21.7606
G1 X137.732 Y66.493 E21.79902
G1 X138.491 Y66.613 E21.83735
G1 X139.234 Y66.811 E21.87572
G1 X139.953 Y67.085 E21.9141
G1 X140.639 Y67.433 E21.95248
G1 X141.339 Y67.888 E21.99413
G1 X141.501 Y68.007 E22.00416
G1 X142.096 Y68.494 E22.04252
G1 X142.638 Y69.04 E22.0809
G1 X143.12 Y69.64 E22.1193
G1 X143.537 Y70.286 E22.15766
G1 X143.951 Y71.125 E22.20434
G1 X143.981 Y71.197 E22.20823
G1 X144.239 Y71.921 E22.24657
G1 X144.421 Y72.669 E22.28498
G1 X144.525 Y73.431 E22.32335
G1 X144.55 Y74.043 E22.35391
G1 X144.551 Y146.614 E25.97449
G1 X144.551 Y146.619 E25.97474
G1 X144.55 Y147.965 E26.04189
G1 X144.509 Y148.734 E26.08031
G1 X144.389 Y149.493 E26.11865
G1 X144.191 Y150.236 E26.15701
G1 X143.917 Y150.955 E26.1954
G1 X143.569 Y151.641 E26.23377
G1 X143.114 Y152.341 E26.27543
G1 X142.995 Y152.503 E26.28545
G1 X142.508 Y153.098 E26.32381
G1 X141.962 Y153.64 E26.3622
G1 X141.362 Y154.122 E26.40059
G1 X140.716 Y154.539 E26.43895
G1 X139.877 Y154.953 E26.48563
G1 X139.805 Y154.983 E26.48952
G1 X139.081 Y155.241 E26.52787
G1 X138.333 Y155.423 E26.56627
G1 X137.571 Y155.527 E26.60464
G1 X136.959 Y155.552 E26.6352
G1 X114.386 Y155.552 E27.76137
G1 X114.419 Y156.07 E27.78727
G1 X114.387 Y156.839 E27.82567
G1 X114.276 Y157.6 E27.86404
G1 X114.087 Y158.345 E27.90238
G1 X113.821 Y159.067 E27.94077
G1 X113.481 Y159.757 E27.97915
G1 X113.022 Y160.48 E28.02187
G1 X112.159 Y161.677 E28.09549
G1 X111.677 Y162.276 E28.13385
G1 X111.136 Y162.823 E28.17223
G1 X110.541 Y163.31 E28.21059
G1 X110.094 Y163.604 E28.23728
G1 X109.911 Y163.764 E28.24941
G1 X109.281 Y164.206 E28.28781
G1 X108.61 Y164.581 E28.32616
G1 X107.903 Y164.884 E28.36453
G1 X107.168 Y165.112 E28.40292
G1 X106.414 Y165.262 E28.44128
G1 X105.608 Y165.335 E28.48166
G1 X104.824 Y165.363 E28.52079
G1 X104.309 Y165.489 E28.54725
G1 X103.547 Y165.594 E28.58562
G1 X102.778 Y165.619 E28.62401
G1 X102.339 Y165.576 E28.64601
G1 X102.185 Y165.578 E28.6537
G1 X101.195 Y165.732 E28.70368
G1 X100.43 Y165.811 E28.74205
G1 X99.661 Y165.809 E28.78042
G1 X98.991 Y165.743 E28.81401
G1 X98.062 Y165.608 E28.86084
G1 X97.743 Y165.625 E28.87678
G1 X97.213 Y165.598 E28.90325
G1 X97.122 Y165.604 E28.9078
G1 X96.354 Y165.575 E28.94615
G1 X95.592 Y165.465 E28.98456
G1 X95.353 Y165.406 E28.99684
G1 X95.329 Y165.404 E28.99804
G1 X95.066 Y165.356 E29.01138
G1 X94.728 Y165.332 E29.02828
G1 X93.964 Y165.237 E29.06669
G1 X93.215 Y165.063 E29.10506
G1 X92.988 Y164.984 E29.11705
G1 X92.809 Y164.967 E29.12602
G1 X92.055 Y164.814 E29.1644
G1 X91.322 Y164.583 E29.20274
G1 X90.616 Y164.277 E29.24113
G1 X89.946 Y163.9 E29.27949
G1 X89.318 Y163.455 E29.31789
G1 X88.74 Y162.948 E29.35625
G1 X88.309 Y162.49 E29.38762
G1 X87.963 Y162.09 E29.41401
G1 X87.491 Y161.483 E29.45237
G1 X87.238 Y161.095 E29.47548
G1 X86.968 Y160.651 E29.5014
G1 X86.935 Y160.612 E29.50395
G1 X86.504 Y159.975 E29.54232
G1 X86.142 Y159.296 E29.58071
G1 X85.852 Y158.584 E29.61907
G1 X85.637 Y157.845 E29.65747
G1 X85.5 Y157.088 E29.69585
G1 X85.443 Y156.321 E29.73422
G1 X85.465 Y155.553 E29.77255
G1 X64.383 Y155.553 E30.82433
G1 X63.037 Y155.552 E30.89149
G1 X62.268 Y155.511 E30.92991
G1 X61.509 Y155.391 E30.96824
G1 X60.766 Y155.193 E31.00661
G1 X60.047 Y154.919 E31.04499
G1 X59.361 Y154.571 E31.08337
G1 X58.661 Y154.116 E31.12502
G1 X58.499 Y153.997 E31.13505
G1 X57.904 Y153.51 E31.17341
G1 X57.362 Y152.964 E31.21179
G1 X56.88 Y152.364 E31.25019
G1 X56.463 Y151.718 E31.28855
G1 X56.049 Y150.879 E31.33523
G1 X56.019 Y150.807 E31.33912
G1 X55.761 Y150.083 E31.37746
G1 X55.579 Y149.335 E31.41587
G1 X55.475 Y148.573 E31.45424
G1 X55.45 Y147.961 E31.4848
G1 X55.449 Y75.39 E35.10538
G1 X55.449 Y75.385 E35.10563
G1 X55.45 Y74.039 E35.17278
G1 X55.491 Y73.27 E35.2112
G1 X55.611 Y72.511 E35.24954
G1 X55.809 Y71.768 E35.2879
G1 X56.083 Y71.049 E35.32629
G1 X56.431 Y70.363 E35.36466
G1 X56.886 Y69.663 E35.40632
G1 X57.005 Y69.501 E35.41634
G1 X57.492 Y68.906 E35.4547
G1 X58.038 Y68.364 E35.49309
G0 F3600 X58.335 Y68.635
G1 F1800 X58.922 Y68.171 E35.53042
G1 X59.554 Y67.771 E35.56773
G1 X60.277 Y67.42 E35.60783
G1 X60.349 Y67.39 E35.61172
G1 X61.054 Y67.14 E35.64904
G1 X61.781 Y66.966 E35.68633
G1 X62.523 Y66.871 E35.72365
G1 X63.041 Y66.852 E35.74951
G1 X135.612 Y66.851 E39.3701
G1 X135.617 Y66.851 E39.37035
G1 X136.963 Y66.852 E39.4375
G1 X137.71 Y66.893 E39.47482
G1 X138.449 Y67.013 E39.51217
G1 X139.17 Y67.211 E39.54948
G1 X139.866 Y67.485 E39.58679
G1 X140.529 Y67.831 E39.6241
G1 X141.102 Y68.21 E39.65838
G1 X141.264 Y68.329 E39.66841
G1 X141.842 Y68.804 E39.70573
G1 X142.367 Y69.337 E39.74306
G1 X142.831 Y69.924 E39.78039
G1 X143.231 Y70.556 E39.8177
G1 X143.582 Y71.279 E39.8578
G1 X143.612 Y71.351 E39.86169
G1 X143.862 Y72.056 E39.89901
G1 X144.036 Y72.783 E39.9363
G1 X144.131 Y73.525 E39.97362
G1 X144.15 Y74.043 E39.99948
G1 X144.151 Y146.614 E43.62007
G1 X144.151 Y146.619 E43.62032
G1 X144.15 Y147.965 E43.68747
G1 X144.109 Y148.712 E43.72479
G1 X143.989 Y149.451 E43.76214
G1 X143.791 Y150.172 E43.79945
G1 X143.517 Y150.868 E43.83676
G1 X143.171 Y151.531 E43.87407
G1 X142.792 Y152.104 E43.90835
G1 X142.673 Y152.266 E43.91838
G1 X142.198 Y152.844 E43.9557
G1 X141.665 Y153.369 E43.99303
G1 X141.078 Y153.833 E44.03036
G1 X140.446 Y154.233 E44.06767
G1 X139.723 Y154.584 E44.10777
G1 X139.651 Y154.614 E44.11166
G1 X138.946 Y154.864 E44.14898
G1 X138.219 Y155.038 E44.18627
G1 X137.477 Y155.133 E44.22359
G1 X136.959 Y155.152 E44.24945
G1 X113.938 Y155.152 E45.39798
G1 X114 Y155.634 E45.42222
G1 X114.015 Y156.382 E45.45955
G1 X113.951 Y157.127 E45.49685
G1 X113.807 Y157.862 E45.53422
G1 X113.586 Y158.576 E45.57151
G1 X113.29 Y159.263 E45.60883
G1 X112.922 Y159.915 E45.64618
G1 X112.697 Y160.246 E45.66615
G1 X111.834 Y161.443 E45.73977
G1 X111.365 Y162.025 E45.77706
G1 X110.836 Y162.554 E45.81438
G1 X110.254 Y163.024 E45.85171
G1 X109.859 Y163.278 E45.87513
G1 X109.648 Y163.462 E45.8891
G1 X109.034 Y163.889 E45.92641
G1 X108.378 Y164.249 E45.96375
G1 X107.687 Y164.536 E46.00108
G1 X106.97 Y164.749 E46.03839
G1 X106.234 Y164.883 E46.07571
G1 X105.594 Y164.936 E46.10775
G1 X104.766 Y164.965 E46.14909
G1 X104.214 Y165.1 E46.17744
G1 X103.472 Y165.199 E46.21479
G1 X102.724 Y165.217 E46.25211
G1 X102.317 Y165.176 E46.27252
G1 X102.159 Y165.176 E46.28041
G1 X101.133 Y165.336 E46.33221
G1 X100.389 Y165.412 E46.36952
G1 X99.641 Y165.408 E46.40684
G1 X99.048 Y165.347 E46.43658
G1 X98.08 Y165.206 E46.48539
G1 X97.701 Y165.225 E46.50432
G1 X97.218 Y165.197 E46.52846
G1 X97.096 Y165.205 E46.53455
G1 X96.349 Y165.172 E46.57186
G1 X95.609 Y165.061 E46.60919
G1 X95.395 Y165.007 E46.6202
G1 X95.359 Y165.004 E46.622
G1 X95.115 Y164.959 E46.63438
G1 X94.756 Y164.933 E46.65234
G1 X94.014 Y164.839 E46.68965
G1 X93.286 Y164.667 E46.72697
G1 X93.07 Y164.591 E46.7384
G1 X92.848 Y164.569 E46.74953
G1 X92.116 Y164.416 E46.78684
G1 X91.404 Y164.186 E46.82417
G1 X90.72 Y163.882 E46.86151
G1 X90.073 Y163.507 E46.89882
G1 X89.47 Y163.064 E46.93615
G1 X88.918 Y162.56 E46.97344
G1 X88.612 Y162.228 E46.99597
G1 X88.266 Y161.828 E47.02235
G1 X87.807 Y161.237 E47.05969
G1 X87.58 Y160.887 E47.0805
G1 X87.285 Y160.402 E47.10882
G1 X87.205 Y160.305 E47.11509
G1 X86.794 Y159.68 E47.15241
G1 X86.453 Y159.014 E47.18974
G1 X86.184 Y158.316 E47.22706
G1 X85.991 Y157.594 E47.26435
G1 X85.876 Y156.854 E47.30171
G1 X85.841 Y156.107 E47.33902
G1 X85.886 Y155.36 E47.37635
G1 X85.921 Y155.153 E47.38683
G1 X64.383 Y155.153 E48.46136
G1 X63.037 Y155.152 E48.52851
G1 X62.29 Y155.111 E48.56584
G1 X61.551 Y154.991 E48.60319
G1 X60.83 Y154.793 E48.64049
G1 X60.134 Y154.519 E48.67781
G1 X59.471 Y154.173 E48.71512
G1 X58.898 Y153.794 E48.74939
G1 X58.736 Y153.675 E48.75942
G1 X58.158 Y153.2 E48.79675
G1 X57.633 Y152.667 E48.83407
G1 X57.169 Y152.08 E48.8714
G1 X56.769 Y151.448 E48.90872
G1 X56.418 Y150.725 E48.94881
G1 X56.388 Y150.653 E48.95271
G1 X56.138 Y149.948 E48.99002
G1 X55.964 Y149.221 E49.02732
G1 X55.869 Y148.479 E49.06464
G1 X55.85 Y147.961 E49.0905
G1 X55.849 Y75.39 E52.71108
G1 X55.849 Y75.385 E52.71133
G1 X55.85 Y74.039 E52.77848
G1 X55.891 Y73.292 E52.81581
G1 X56.011 Y72.553 E52.85316
G1 X56.209 Y71.832 E52.89046
G1 X56.483 Y71.136 E52.92778
G1 X56.829 Y70.473 E52.96509
G1 X57.208 Y69.9 E52.99936
G1 X57.327 Y69.738 E53.00939
G1 X57.802 Y69.16 E53.04672
G1 X58.335 Y68.635 E53.08404
G0 F3600 X58.632 Y68.907
G1 F1800 X59.205 Y68.461 E53.12027
G1 X59.823 Y68.08 E53.15649
G1 X60.431 Y67.79 E53.1901
G1 X60.503 Y67.76 E53.19399
G1 X61.187 Y67.518 E53.23019
G1 X61.895 Y67.352 E53.26647
G1 X62.616 Y67.266 E53.30269
G1 X63.041 Y67.252 E53.32391
G1 X135.612 Y67.251 E56.94449
G1 X135.617 Y67.251 E56.94474
G1 X136.963 Y67.252 E57.01189
G1 X137.688 Y67.293 E57.04812
G1 X138.405 Y67.412 E57.08438
G1 X139.103 Y67.61 E57.12058
G1 X139.776 Y67.884 E57.15683
G1 X140.415 Y68.23 E57.19308
G1 X140.865 Y68.533 E57.22015
G1 X141.027 Y68.652 E57.23018
G1 X141.588 Y69.113 E57.2664
G1 X142.095 Y69.634 E57.30267
G1 X142.541 Y70.207 E57.3389
G1 X142.922 Y70.825 E57.37512
G1 X143.212 Y71.433 E57.40872
G1 X143.242 Y71.505 E57.41262
G1 X143.484 Y72.189 E57.44881
G1 X143.65 Y72.897 E57.48509
G1 X143.736 Y73.618 E57.52132
G1 X143.75 Y74.043 E57.54253
G1 X143.751 Y146.614 E61.16312
G1 X143.751 Y146.619 E61.16337
G1 X143.75 Y147.965 E61.23052
G1 X143.709 Y148.69 E61.26675
G1 X143.59 Y149.407 E61.30301
G1 X143.392 Y150.105 E61.3392
G1 X143.118 Y150.778 E61.37546
G1 X142.772 Y151.417 E61.41171
G1 X142.469 Y151.867 E61.43877
G1 X142.35 Y152.029 E61.4488
G1 X141.889 Y152.59 E61.48503
G1 X141.368 Y153.097 E61.5213
G1 X140.795 Y153.543 E61.55752
G1 X140.177 Y153.924 E61.59374
G1 X139.569 Y154.214 E61.62735
G1 X139.497 Y154.244 E61.63124
G1 X138.813 Y154.486 E61.66744
G1 X138.105 Y154.652 E61.70372
G1 X137.384 Y154.738 E61.73995
G1 X136.959 Y154.752 E61.76116
G1 X113.46 Y154.752 E62.93353
G1 X113.555 Y155.235 E62.95809
G1 X113.616 Y155.958 E62.99429
G1 X113.597 Y156.685 E63.03057
G1 X113.499 Y157.404 E63.06677
G1 X113.322 Y158.109 E63.10304
G1 X113.069 Y158.79 E63.13928
G1 X112.743 Y159.438 E63.17547
G1 X112.373 Y160.012 E63.20954
G1 X111.51 Y161.209 E63.28316
G1 X111.053 Y161.774 E63.31942
G1 X110.537 Y162.285 E63.35565
G1 X109.968 Y162.737 E63.3919
G1 X109.619 Y162.956 E63.41246
G1 X109.385 Y163.159 E63.42791
G1 X108.787 Y163.571 E63.46414
G1 X108.147 Y163.915 E63.50039
G1 X107.474 Y164.187 E63.53661
G1 X106.774 Y164.383 E63.57287
G1 X106.058 Y164.501 E63.60908
G1 X105.579 Y164.536 E63.63304
G1 X104.715 Y164.567 E63.67617
G1 X104.119 Y164.711 E63.70676
G1 X103.399 Y164.803 E63.74298
G1 X102.672 Y164.815 E63.77925
G1 X102.299 Y164.776 E63.79796
G1 X102.14 Y164.774 E63.80589
G1 X101.072 Y164.941 E63.85982
G1 X100.349 Y165.013 E63.89607
G1 X99.623 Y165.006 E63.9323
G1 X99.106 Y164.951 E63.95823
G1 X98.101 Y164.805 E64.0089
G1 X97.661 Y164.825 E64.03087
G1 X97.22 Y164.796 E64.05292
G1 X97.071 Y164.805 E64.06037
G1 X96.346 Y164.77 E64.09658
G1 X95.628 Y164.656 E64.13285
G1 X95.447 Y164.609 E64.14218
G1 X95.39 Y164.605 E64.14503
G1 X95.159 Y164.561 E64.15677
G1 X94.785 Y164.534 E64.17547
G1 X94.065 Y164.442 E64.21169
