;FLAVOR:Marlin
;TIME:11422
;Filament used: 27.3237m
;Layer height: 0.4
;MINX:47.061
;MINY:53.148
;MINZ:0.36
;MAXX:150.964
;MAXY:157.051
;MAXZ:58.61
;Generated with Cura_SteamEngine 4.2.1
M140 S60
M105
M190 S60
M104 S210
M105
M109 S210
M82 ;absolute extrusion mode
G28 ;Home
G1 Z15.0 F6000 ;Move the platform down 15mm
;Prime the extruder
G92 E0
G1 F200 E3
G92 E0
;
M117 Printing...        ☺
M141 S28
G92 E0
G92 E0
G1 F1500 E-5
;LAYER_COUNT:142
;LAYER:-5
M107
G0 F7200 X52.404 Y56.962 Z0.36
;TYPE:SUPPORT-INTERFACE
G1 F1500 E0
G1 F1350 X52.543 Y56.843 E0.02191
G1 X53.237 Y56.286 E0.12846
G1 X53.373 Y56.185 E0.14874
G1 X54.099 Y55.685 E0.25429
G1 X54.272 Y55.576 E0.27878
G1 X55.028 Y55.133 E0.38369
G1 X55.17 Y55.056 E0.40304
G1 X56.115 Y54.597 E0.52883
G1 X56.97 Y54.252 E0.63922
G1 X57.137 Y54.192 E0.66047
G1 X57.976 Y53.923 E0.76597
G1 X58.14 Y53.877 E0.78636
G1 X59.012 Y53.665 E0.89381
G1 X59.174 Y53.632 E0.91361
G1 X60.067 Y53.484 E1.02199
G1 X60.244 Y53.461 E1.04336
G1 X61.138 Y53.378 E1.15087
G1 X61.28 Y53.371 E1.16789
G1 X62.021 Y53.35 E1.25665
G1 X134.625 Y53.349 E9.95
G1 X136.087 Y53.353 E10.12505
G1 X137.002 Y53.387 E10.23469
G1 X137.163 Y53.399 E10.25402
G1 X138.078 Y53.5 E10.36424
G1 X138.234 Y53.523 E10.38312
G1 X139.12 Y53.687 E10.49101
G1 X139.269 Y53.721 E10.50931
G1 X140.293 Y53.995 E10.63624
G1 X141.159 Y54.29 E10.74578
G1 X141.311 Y54.348 E10.76526
G1 X142.274 Y54.764 E10.89086
G1 X143.097 Y55.187 E11.00166
G1 X143.24 Y55.268 E11.02134
G1 X143.987 Y55.724 E11.12613
G1 X144.157 Y55.836 E11.15051
G1 X144.883 Y56.357 E11.2575
G1 X144.997 Y56.445 E11.27475
G1 X145.81 Y57.127 E11.40181
G1 X146.505 Y57.795 E11.51723
G1 X147.151 Y58.491 E11.63093
G1 X147.27 Y58.63 E11.65284
G1 X147.824 Y59.321 E11.75889
G1 X147.928 Y59.46 E11.77967
G1 X148.421 Y60.175 E11.88366
G1 X148.537 Y60.359 E11.90971
G1 X148.98 Y61.115 E12.01463
G1 X149.057 Y61.257 E12.03397
G1 X149.452 Y62.06 E12.14112
G1 X149.516 Y62.202 E12.15977
G1 X149.858 Y63.047 E12.26892
G1 X149.917 Y63.212 E12.2899
G1 X150.187 Y64.052 E12.39555
G1 X150.235 Y64.221 E12.41658
G1 X150.446 Y65.09 E12.52366
G1 X150.48 Y65.253 E12.54359
G1 X150.628 Y66.145 E12.65186
G1 X150.652 Y66.331 E12.67431
G1 X150.734 Y67.215 E12.78062
G1 X150.742 Y67.367 E12.79884
G1 X150.763 Y68.1 E12.88664
G1 X150.764 Y140.712 E21.58095
G1 X150.76 Y142.174 E21.75601
G1 X150.727 Y143.067 E21.863
G1 X150.714 Y143.25 E21.88497
G1 X150.615 Y144.151 E21.9935
G1 X150.59 Y144.321 E22.01408
G1 X150.431 Y145.183 E22.11903
G1 X150.392 Y145.356 E22.14026
G1 X150.118 Y146.38 E22.26719
G1 X149.823 Y147.246 E22.37673
G1 X149.765 Y147.398 E22.39621
G1 X149.416 Y148.218 E22.50292
G1 X149.349 Y148.361 E22.52183
G1 X148.926 Y149.184 E22.63262
G1 X148.845 Y149.327 E22.6523
G1 X148.389 Y150.074 E22.75709
G1 X148.286 Y150.231 E22.77958
G1 X147.756 Y150.97 E22.88846
G1 X147.668 Y151.084 E22.90571
G1 X147.082 Y151.788 E23.01538
G1 X146.977 Y151.906 E23.0343
G1 X146.356 Y152.555 E23.14185
G1 X145.622 Y153.238 E23.2619
G1 X145.483 Y153.357 E23.28381
G1 X144.792 Y153.911 E23.38986
G1 X144.653 Y154.015 E23.41064
G1 X143.938 Y154.508 E23.51463
G1 X143.754 Y154.624 E23.54068
G1 X143.009 Y155.061 E23.64409
G1 X142.856 Y155.144 E23.66493
G1 X141.911 Y155.603 E23.79073
G1 X141.056 Y155.948 E23.90112
G1 X140.893 Y156.006 E23.92184
G1 X140.05 Y156.277 E24.02786
G1 X139.886 Y156.323 E24.04826
G1 X139.014 Y156.535 E24.15571
G1 X138.852 Y156.568 E24.1755
G1 X137.959 Y156.716 E24.28389
G1 X137.782 Y156.739 E24.30526
G1 X136.888 Y156.822 E24.41276
G1 X136.746 Y156.829 E24.42979
G1 X136.005 Y156.85 E24.51855
G1 X63.401 Y156.851 E33.2119
G1 X61.939 Y156.847 E33.38695
G1 X61.024 Y156.813 E33.49659
G1 X60.863 Y156.801 E33.51592
G1 X59.948 Y156.7 E33.62614
G1 X59.792 Y156.677 E33.64502
G1 X58.906 Y156.513 E33.75291
G1 X58.757 Y156.479 E33.77121
G1 X57.733 Y156.205 E33.89813
G1 X56.863 Y155.908 E34.00821
G1 X56.709 Y155.849 E34.02795
G1 X55.752 Y155.436 E34.15276
G1 X54.929 Y155.013 E34.26355
G1 X54.786 Y154.932 E34.28323
G1 X54.038 Y154.476 E34.38813
G1 X53.87 Y154.364 E34.4123
G1 X53.029 Y153.755 E34.53663
G1 X52.216 Y153.073 E34.66369
G1 X51.517 Y152.401 E34.77979
G1 X50.873 Y151.707 E34.89315
G1 X50.756 Y151.57 E34.91473
G1 X50.202 Y150.879 E35.02077
G1 X50.098 Y150.74 E35.04156
G1 X49.605 Y150.025 E35.14555
G1 X49.489 Y149.841 E35.17159
G1 X49.046 Y149.085 E35.27651
G1 X48.969 Y148.943 E35.29585
G1 X48.51 Y147.998 E35.42164
G1 X48.162 Y147.137 E35.53284
G1 X48.105 Y146.976 E35.55329
G1 X47.833 Y146.128 E35.65992
G1 X47.787 Y145.964 E35.68031
G1 X47.576 Y145.092 E35.78774
G1 X47.543 Y144.931 E35.80742
G1 X47.396 Y144.041 E35.91543
G1 X47.374 Y143.869 E35.93619
G1 X47.291 Y142.97 E36.04429
G1 X47.284 Y142.833 E36.06071
G1 X47.263 Y142.1 E36.14852
G1 X47.262 Y69.488 E44.84282
G1 X47.266 Y68.026 E45.01788
G1 X47.299 Y67.123 E45.12607
G1 X47.312 Y66.95 E45.14685
G1 X47.411 Y66.049 E45.25538
G1 X47.436 Y65.879 E45.27595
G1 X47.598 Y65.003 E45.38262
G1 X47.634 Y64.844 E45.40214
G1 X47.908 Y63.82 E45.52906
G1 X48.203 Y62.954 E45.63861
G1 X48.261 Y62.802 E45.65809
G1 X48.618 Y61.964 E45.76715
G1 X48.677 Y61.839 E45.7837
G1 X49.1 Y61.016 E45.8945
G1 X49.181 Y60.873 E45.91418
G1 X49.637 Y60.125 E46.01907
G1 X49.749 Y59.957 E46.04325
G1 X50.27 Y59.23 E46.15034
G1 X50.358 Y59.116 E46.16758
G1 X51.04 Y58.303 E46.29464
G1 X51.709 Y57.608 E46.41015
G1 X52.404 Y56.962 E46.52376
G0 F7200 X52.8 Y56.636
G1 F1350 X52.8 Y153.562 E58.12934
G0 F7200 X54.4 Y154.696
G1 F1350 X54.4 Y55.5 E70.00672
G0 F7200 X56 Y54.652
G1 F1350 X56 Y155.543 E82.08706
G0 F7200 X57.6 Y156.159
G1 F1350 X57.6 Y54.043 E94.31407
G0 F7200 X59.2 Y53.627
G1 F1350 X59.2 Y156.567 E106.63974
G0 F7200 X60.8 Y156.794
G1 F1350 X60.8 Y53.409 E119.0187
G0 F7200 X62.4 Y53.349
G1 F1350 X62.4 Y156.848 E131.41131
G0 F7200 X64 Y156.851
G1 F1350 X64 Y53.349 E143.80427
G0 F7200 X65.6 Y53.349
G1 F1350 X65.6 Y156.851 E156.19724
G0 F7200 X67.2 Y156.851
G1 F1350 X67.2 Y53.349 E168.5902
G0 F7200 X68.8 Y53.349
G1 F1350 X68.8 Y156.851 E180.98317
G0 F7200 X70.4 Y156.851
G1 F1350 X70.4 Y53.349 E193.37613
G0 F7200 X72 Y53.349
G1 F1350 X72 Y156.851 E205.7691
G0 F7200 X73.6 Y156.851
G1 F1350 X73.6 Y53.349 E218.16207
G0 F7200 X75.2 Y53.349
G1 F1350 X75.2 Y156.851 E230.55503
G0 F7200 X76.8 Y156.851
G1 F1350 X76.8 Y53.349 E242.948
G0 F7200 X78.4 Y53.349
G1 F1350 X78.4 Y156.851 E255.34096
G0 F7200 X80 Y156.851
G1 F1350 X80 Y53.349 E267.73393
G0 F7200 X81.6 Y53.349
G1 F1350 X81.6 Y156.851 E280.12689
G0 F7200 X83.2 Y156.851
G1 F1350 X83.2 Y53.349 E292.51986
G0 F7200 X84.8 Y53.349
G1 F1350 X84.8 Y156.851 E304.91283
G0 F7200 X86.4 Y156.851
G1 F1350 X86.4 Y53.349 E317.30579
G0 F7200 X88 Y53.349
G1 F1350 X88 Y156.851 E329.69876
G0 F7200 X89.6 Y156.851
G1 F1350 X89.6 Y53.349 E342.09172
G0 F7200 X91.2 Y53.349
G1 F1350 X91.2 Y156.851 E354.48469
G0 F7200 X92.8 Y156.851
G1 F1350 X92.8 Y53.349 E366.87766
G0 F7200 X94.4 Y53.349
G1 F1350 X94.4 Y156.851 E379.27062
G0 F7200 X96 Y156.851
G1 F1350 X96 Y53.349 E391.66359
G0 F7200 X97.6 Y53.349
G1 F1350 X97.6 Y156.851 E404.05655
G0 F7200 X99.2 Y156.851
G1 F1350 X99.2 Y53.349 E416.44952
G0 F7200 X100.8 Y53.349
G1 F1350 X100.8 Y156.851 E428.84248
G0 F7200 X102.4 Y156.851
G1 F1350 X102.4 Y53.349 E441.23545
G0 F7200 X104 Y53.349
G1 F1350 X104 Y156.851 E453.62842
G0 F7200 X105.6 Y156.851
G1 F1350 X105.6 Y53.349 E466.02138
G0 F7200 X107.2 Y53.349
G1 F1350 X107.2 Y156.851 E478.41435
G0 F7200 X108.8 Y156.851
G1 F1350 X108.8 Y53.349 E490.80731
G0 F7200 X110.4 Y53.349
G1 F1350 X110.4 Y156.851 E503.20028
G0 F7200 X112 Y156.851
G1 F1350 X112 Y53.349 E515.59324
G0 F7200 X113.6 Y53.349
G1 F1350 X113.6 Y156.851 E527.98621
G0 F7200 X115.2 Y156.851
G1 F1350 X115.2 Y53.349 E540.37918
G0 F7200 X116.8 Y53.349
G1 F1350 X116.8 Y156.851 E552.77214
G0 F7200 X118.4 Y156.851
G1 F1350 X118.4 Y53.349 E565.16511
G0 F7200 X120 Y53.349
G1 F1350 X120 Y156.851 E577.55807
G0 F7200 X121.6 Y156.851
G1 F1350 X121.6 Y53.349 E589.95104
G0 F7200 X123.2 Y53.349
G1 F1350 X123.2 Y156.851 E602.34401
G0 F7200 X124.8 Y156.851
G1 F1350 X124.8 Y53.349 E614.73697
G0 F7200 X126.4 Y53.349
G1 F1350 X126.4 Y156.851 E627.12994
G0 F7200 X128 Y156.851
G1 F1350 X128 Y53.349 E639.5229
G0 F7200 X129.6 Y53.349
G1 F1350 X129.6 Y156.851 E651.91587
G0 F7200 X131.2 Y156.851
G1 F1350 X131.2 Y53.349 E664.30883
G0 F7200 X132.8 Y53.349
G1 F1350 X132.8 Y156.851 E676.7018
G0 F7200 X134.4 Y156.851
G1 F1350 X134.4 Y53.349 E689.09477
G0 F7200 X136 Y53.353
G1 F1350 X136 Y156.851 E701.48725
G0 F7200 X137.6 Y156.756
G1 F1350 X137.6 Y53.448 E713.85699
G0 F7200 X139.2 Y53.706
G1 F1350 X139.2 Y156.49 E726.16398
G0 F7200 X140.8 Y156.036
G1 F1350 X140.8 Y54.168 E738.3613
G0 F7200 X142.4 Y54.829
G1 F1350 X142.4 Y155.366 E750.39925
G0 F7200 X144 Y154.466
G1 F1350 X144 Y55.733 E762.22119
G0 F7200 X145.6 Y56.951
G1 F1350 X145.6 Y153.257 E773.75253
G0 F7200 X147.2 Y151.647
G1 F1350 X147.2 Y58.549 E784.89976
G0 F7200 X148.8 Y60.808
G1 F1350 X148.8 Y149.401 E795.50757
G0 F7200 X150.4 Y145.321
G1 F1350 X150.4 Y64.901 E805.13678
G0 F7200 X51.2 Y58.136
G1 F1350 X51.2 Y152.059 E816.38279
G0 F7200 X49.6 Y150.017
G1 F1350 X49.6 Y60.185 E827.13896
G0 F7200 X48 Y63.549
G1 F1350 X48 Y146.648 E837.08894
G0 F600 X48 Y146.648 Z0.96
G0 F7200 X49.587 Y149.997
;TIME_ELAPSED:317.068532
;LAYER:-4
M140 S60
;TYPE:SUPPORT
G1 F1350 X54.109 Y154.519 E838.36515
G1 X54.037 Y154.475 E838.38199
G1 X53.87 Y154.362 E838.42223
G1 X53.028 Y153.754 E838.62949
G1 X52.216 Y153.072 E838.8411
G1 X51.516 Y152.399 E839.03488
G1 X50.872 Y151.706 E839.22368
G1 X50.756 Y151.569 E839.2595
G1 X50.201 Y150.878 E839.43637
G1 X50.097 Y150.738 E839.47117
G1 X49.604 Y150.024 E839.64432
G0 F7200 X54.109 Y154.519
G1 F1350 X54.786 Y154.931 E839.80248
G1 X54.928 Y155.012 E839.8351
G1 X55.751 Y155.435 E840.01976
G1 X56.709 Y155.848 E840.22795
G1 X56.862 Y155.907 E840.26068
G1 X56.937 Y155.932 E840.27645
G1 X48.176 Y147.171 E842.749
G1 X48.162 Y147.136 E842.75652
G1 X48.105 Y146.975 E842.7906
G1 X47.832 Y146.127 E842.96838
G1 X47.786 Y145.963 E843.00237
G1 X47.596 Y145.176 E843.16394
G1 X58.937 Y156.518 E846.36476
G1 X59.791 Y156.676 E846.53807
G1 X59.948 Y156.699 E846.56974
G1 X60.604 Y156.771 E846.70144
G1 X47.34 Y143.506 E850.44497
G1 X47.29 Y142.969 E850.55259
G1 X47.284 Y142.832 E850.57996
G1 X47.263 Y142.098 E850.7265
G1 X47.262 Y142.014 E850.74326
G1 X62.094 Y156.846 E854.92917
G1 X63.4 Y156.85 E855.1898
G1 X63.511 Y156.849 E855.21195
G1 X47.262 Y140.6 E859.79777
G1 X47.262 Y139.186 E860.07995
G1 X64.925 Y156.849 E865.06483
G1 X66.34 Y156.849 E865.34721
G1 X47.262 Y137.771 E870.73143
G1 X47.262 Y136.357 E871.01361
G1 X67.754 Y156.849 E876.7969
G1 X69.168 Y156.849 E877.07908
G1 X47.262 Y134.943 E883.26142
G1 X47.262 Y133.529 E883.5436
G1 X70.582 Y156.849 E890.12501
G1 X71.996 Y156.849 E890.40719
G1 X47.262 Y132.115 E897.38766
G1 X47.262 Y130.7 E897.67004
G1 X73.411 Y156.849 E905.04985
G1 X74.825 Y156.849 E905.33203
G1 X47.262 Y129.286 E913.1109
G1 X47.262 Y127.872 E913.39308
G1 X76.239 Y156.849 E921.57102
G1 X77.653 Y156.849 E921.8532
G1 X47.262 Y126.458 E930.43019
G1 X47.262 Y125.044 E930.71237
G1 X79.067 Y156.849 E939.68843
G1 X80.482 Y156.849 E939.97081
G1 X47.262 Y123.629 E949.34621
G1 X47.262 Y122.215 E949.62839
G1 X81.896 Y156.849 E959.40285
G1 X83.31 Y156.849 E959.68503
G1 X47.262 Y120.801 E969.85855
G1 X47.262 Y119.387 E970.14073
G1 X84.724 Y156.849 E980.71332
G1 X86.139 Y156.849 E980.9957
G1 X47.262 Y117.972 E991.96763
G1 X47.262 Y116.558 E992.24981
G1 X87.553 Y156.849 E1003.6208
G1 X88.967 Y156.849 E1003.90298
G1 X47.262 Y115.144 E1015.67303
G1 X47.262 Y113.73 E1015.95521
G1 X90.381 Y156.849 E1028.12432
G1 X91.795 Y156.849 E1028.4065
G1 X47.262 Y112.316 E1040.97467
G1 X47.262 Y110.901 E1041.25705
G1 X93.21 Y156.849 E1054.22457
G1 X94.624 Y156.849 E1054.50675
G1 X47.262 Y109.487 E1067.87333
G1 X47.262 Y108.073 E1068.15551
G1 X96.038 Y156.849 E1081.92115
G1 X97.452 Y156.849 E1082.20333
G1 X47.262 Y106.659 E1096.36803
G1 X47.261 Y105.244 E1096.65041
G1 X98.866 Y156.849 E1111.21446
G1 X100.28 Y156.849 E1111.49663
G1 X47.261 Y103.83 E1126.45974
G1 X47.261 Y102.415 E1126.74212
G1 X101.694 Y156.849 E1142.10443
G1 X103.108 Y156.849 E1142.38661
G1 X47.261 Y101.001 E1158.14798
G1 X47.261 Y99.587 E1158.43016
G1 X104.523 Y156.849 E1174.59073
G1 X105.937 Y156.849 E1174.87291
G1 X47.261 Y98.173 E1191.43255
G1 X47.261 Y96.759 E1191.71473
G1 X107.351 Y156.849 E1208.67342
G1 X108.765 Y156.849 E1208.9556
G1 X47.261 Y95.344 E1226.3135
G1 X47.261 Y93.93 E1226.59568
G1 X110.179 Y156.849 E1244.35264
G1 X111.594 Y156.849 E1244.63502
G1 X47.261 Y92.516 E1262.79118
G1 X47.261 Y91.102 E1263.07336
G1 X113.008 Y156.849 E1281.62858
G1 X114.422 Y156.849 E1281.91076
G1 X47.261 Y89.688 E1300.86505
G1 X47.261 Y88.273 E1301.14742
G1 X115.836 Y156.849 E1320.50091
G1 X117.251 Y156.849 E1320.78329
G1 X47.261 Y86.859 E1340.53598
G1 X47.261 Y85.445 E1340.81816
G1 X118.665 Y156.849 E1360.96991
G1 X120.079 Y156.849 E1361.25209
G1 X47.261 Y84.031 E1381.8029
G1 X47.261 Y82.616 E1382.08528
G1 X121.493 Y156.849 E1403.0353
G1 X122.907 Y156.849 E1403.31748
G1 X47.261 Y81.202 E1424.66655
G1 X47.261 Y79.788 E1424.94873
G1 X124.322 Y156.849 E1446.69701
G1 X125.736 Y156.849 E1446.97919
G1 X47.261 Y78.374 E1469.12653
G1 X47.261 Y76.96 E1469.40871
G1 X127.15 Y156.849 E1491.95511
G1 X128.564 Y156.849 E1492.23729
G1 X47.261 Y75.545 E1515.18289
G1 X47.261 Y74.131 E1515.46507
G1 X129.978 Y156.849 E1538.80974
G1 X131.393 Y156.849 E1539.09212
G1 X47.261 Y72.717 E1562.83598
G1 X47.261 Y71.303 E1563.11816
G1 X132.807 Y156.849 E1587.26109
G1 X134.221 Y156.849 E1587.54327
G1 X47.261 Y69.889 E1612.08526
G1 X47.261 Y69.487 E1612.16549
G1 X47.264 Y68.477 E1612.36704
G1 X135.635 Y156.849 E1637.30739
G1 X136.004 Y156.849 E1637.38103
G1 X136.745 Y156.827 E1637.52897
G1 X136.888 Y156.821 E1637.55753
G1 X137.01 Y156.809 E1637.58199
G1 X47.3 Y67.099 E1662.90009
G1 X47.311 Y66.949 E1662.93011
G1 X47.41 Y66.048 E1663.111
G1 X47.435 Y65.878 E1663.14529
G1 X47.444 Y65.828 E1663.15542
G1 X138.277 Y156.662 E1688.7906
G1 X138.851 Y156.567 E1688.90671
G1 X139.013 Y156.534 E1688.9397
G1 X139.455 Y156.426 E1689.0305
G1 X47.683 Y64.654 E1714.93054
G1 X47.907 Y63.819 E1715.10307
G1 X47.997 Y63.554 E1715.15892
G1 X140.556 Y156.112 E1741.28092
G1 X140.893 Y156.005 E1741.35148
G1 X141.055 Y155.947 E1741.38582
G1 X141.589 Y155.731 E1741.50078
G1 X48.379 Y62.521 E1767.80665
G1 X48.617 Y61.963 E1767.92771
G1 X48.677 Y61.837 E1767.95556
G1 X48.823 Y61.551 E1768.01964
G1 X142.559 Y155.287 E1794.47397
G1 X142.856 Y155.142 E1794.53992
G1 X143.008 Y155.06 E1794.57439
G1 X143.474 Y154.787 E1794.68217
G1 X49.323 Y60.637 E1821.25347
G1 X49.636 Y60.124 E1821.3734
G1 X49.748 Y59.956 E1821.41369
G1 X49.877 Y59.776 E1821.45789
G1 X144.334 Y154.234 E1848.11583
G1 X144.653 Y154.014 E1848.19316
G1 X144.791 Y153.91 E1848.22765
G1 X145.142 Y153.628 E1848.3175
G1 X50.481 Y58.967 E1875.03288
G1 X51.04 Y58.302 E1875.20625
G1 X51.133 Y58.204 E1875.23321
G1 X145.902 Y152.974 E1901.97921
G1 X146.355 Y152.554 E1902.10249
G1 X146.62 Y152.277 E1902.17899
G1 X51.834 Y57.491 E1928.92964
G1 X52.404 Y56.96 E1929.0851
G1 X52.542 Y56.842 E1929.12134
G1 X52.574 Y56.817 E1929.12944
G1 X147.292 Y151.535 E1955.86091
G1 X147.667 Y151.083 E1955.97811
G1 X147.756 Y150.969 E1956.00697
G1 X147.917 Y150.745 E1956.06202
G1 X53.363 Y56.192 E1982.74706
G1 X53.373 Y56.184 E1982.74962
G1 X54.099 Y55.684 E1982.92554
G1 X54.204 Y55.618 E1982.95029
G1 X148.491 Y149.905 E2009.56011
G1 X148.845 Y149.326 E2009.69554
G1 X148.925 Y149.183 E2009.72824
G1 X149.013 Y149.013 E2009.76645
G1 X55.096 Y55.096 E2036.27185
G1 X55.169 Y55.056 E2036.28846
G1 X56.045 Y54.631 E2036.48277
G1 X149.48 Y148.066 E2062.85214
G1 X149.763 Y147.397 E2062.9971
G1 X149.822 Y147.245 E2063.02964
G1 X149.886 Y147.058 E2063.06908
G1 X57.051 Y54.223 E2089.26913
G1 X57.136 Y54.191 E2089.28725
G1 X57.974 Y53.923 E2089.46283
G1 X58.124 Y53.881 E2089.49391
G1 X150.224 Y145.981 E2115.48652
G1 X150.391 Y145.356 E2115.61562
G1 X150.429 Y145.183 E2115.65097
G1 X150.494 Y144.837 E2115.72123
G1 X59.272 Y53.615 E2141.46605
G1 X60.065 Y53.484 E2141.62644
