;FLAVOR:Marlin
;TIME:9781
;Filament used: 22.3922m
;Layer height: 0.4
;MINX:54.336
;MINY:54.417
;MINZ:0.3
;MAXX:145.664
;MAXY:166.125
;MAXZ:56.7
;Generated with Cura_SteamEngine 4.2.1
M140 S60
M105
M190 S60
M104 S210
M105
M109 S210
M82 ;absolute extrusion mode
G28 ;Home
G1 Z15.0 F6000 ;Move the platform down 15mm
;Prime the extruder
G92 E0
G1 F200 E3
G92 E0
;
M117 Printing...        ☺
M141 S28
G92 E0
G92 E0
G1 F1500 E-5
;LAYER_COUNT:142
;LAYER:0
M107
G0 F3600 X57.74 Y68.094 Z0.3
;TYPE:SKIRT
G1 F1500 E0
G1 F1800 X58.352 Y67.595 E0.0394
G1 X59.012 Y67.16 E0.07883
G1 X59.969 Y66.682 E0.1322
G1 X60.041 Y66.652 E0.13609
G1 X60.784 Y66.386 E0.17546
G1 X61.551 Y66.196 E0.21489
G1 X62.333 Y66.084 E0.2543
G1 X63.041 Y66.052 E0.28966
G1 X87.205 Y66.052 E1.4952
G1 X87.2 Y65.852 E1.50519
G1 X87.2 Y62.217 E1.68654
G1 X87.24 Y61.428 E1.72595
G1 X87.359 Y60.648 E1.76532
G1 X87.557 Y59.883 E1.80474
G1 X87.831 Y59.143 E1.84411
G1 X88.179 Y58.434 E1.88351
G1 X88.597 Y57.763 E1.92295
G1 X89.08 Y57.139 E1.96232
G1 X89.623 Y56.566 E2.0017
G1 X90.222 Y56.051 E2.04111
G1 X90.87 Y55.6 E2.0805
G1 X91.561 Y55.216 E2.11994
G1 X92.286 Y54.904 E2.15932
G1 X93.039 Y54.667 E2.1987
G1 X93.813 Y54.508 E2.23813
G1 X94.598 Y54.427 E2.2775
G1 X95 Y54.417 E2.29756
G1 X105 Y54.417 E2.79646
G1 X105.789 Y54.457 E2.83587
G1 X106.569 Y54.576 E2.87524
G1 X107.334 Y54.774 E2.91466
G1 X108.074 Y55.048 E2.95403
G1 X108.783 Y55.396 E2.99343
G1 X109.454 Y55.814 E3.03288
G1 X110.078 Y56.297 E3.07224
G1 X110.651 Y56.84 E3.11163
G1 X111.166 Y57.439 E3.15104
G1 X111.617 Y58.087 E3.19043
G1 X112.001 Y58.778 E3.22987
G1 X112.313 Y59.503 E3.26924
G1 X112.55 Y60.256 E3.30863
G1 X112.709 Y61.03 E3.34805
G1 X112.79 Y61.815 E3.38742
G1 X112.8 Y62.217 E3.40748
G1 X112.8 Y65.851 E3.58878
G1 X112.79 Y66.051 E3.59877
G1 X135.618 Y66.051 E4.73767
G1 X136.964 Y66.052 E4.80482
G1 X137.752 Y66.093 E4.84419
G1 X138.533 Y66.213 E4.88361
G1 X139.297 Y66.411 E4.92298
G1 X140.038 Y66.686 E4.96242
G1 X140.746 Y67.034 E5.00177
G1 X141.576 Y67.566 E5.05096
G1 X141.738 Y67.685 E5.06099
G1 X142.35 Y68.184 E5.10038
G1 X142.908 Y68.742 E5.13975
G1 X143.407 Y69.354 E5.17915
G1 X143.842 Y70.014 E5.21859
G1 X144.32 Y70.971 E5.27195
G1 X144.35 Y71.043 E5.27585
G1 X144.616 Y71.786 E5.31522
G1 X144.806 Y72.553 E5.35464
G1 X144.918 Y73.335 E5.39405
G1 X144.95 Y74.043 E5.42941
G1 X144.951 Y146.614 E9.04999
G1 X144.951 Y146.62 E9.05029
G1 X144.95 Y147.966 E9.11744
G1 X144.909 Y148.754 E9.15681
G1 X144.789 Y149.535 E9.19623
G1 X144.591 Y150.299 E9.23561
G1 X144.316 Y151.04 E9.27504
G1 X143.968 Y151.748 E9.3144
G1 X143.436 Y152.578 E9.36358
G1 X143.317 Y152.74 E9.37361
G1 X142.818 Y153.352 E9.41301
G1 X142.26 Y153.91 E9.45238
G1 X141.648 Y154.409 E9.49177
G1 X140.988 Y154.844 E9.53121
G1 X140.031 Y155.322 E9.58458
G1 X139.959 Y155.352 E9.58847
G1 X139.216 Y155.618 E9.62784
G1 X138.449 Y155.808 E9.66727
G1 X137.667 Y155.92 E9.70668
G1 X136.959 Y155.952 E9.74204
G1 X115.005 Y155.952 E10.83733
G1 X115.005 Y156.539 E10.86661
G1 X114.926 Y157.325 E10.90602
G1 X114.768 Y158.099 E10.94543
G1 X114.533 Y158.853 E10.98484
G1 X114.222 Y159.579 E11.02424
G1 X113.84 Y160.27 E11.06363
G1 X113.389 Y160.918 E11.10302
G1 X112.876 Y161.518 E11.1424
G1 X112.304 Y162.063 E11.18182
G1 X112.194 Y162.144 E11.18863
G1 X112.09 Y162.29 E11.19758
G1 X111.401 Y163.051 E11.24879
G1 X111.066 Y163.375 E11.27204
G1 X110.471 Y163.894 E11.31144
G1 X109.827 Y164.351 E11.35083
G1 X109.14 Y164.74 E11.39022
G1 X108.417 Y165.058 E11.42963
G1 X107.665 Y165.301 E11.46905
G1 X107.387 Y165.361 E11.48324
G1 X107.097 Y165.473 E11.49875
G1 X106.335 Y165.681 E11.53816
G1 X105.557 Y165.812 E11.57752
G1 X105.195 Y165.835 E11.59562
G1 X104.88 Y165.904 E11.6117
G1 X104.095 Y165.993 E11.65112
G1 X103.471 Y166 E11.68225
G1 X103.055 Y166.064 E11.70325
G1 X102.267 Y166.105 E11.74262
G1 X101.478 Y166.066 E11.78203
G1 X100.975 Y165.989 E11.80742
G1 X100.748 Y166.004 E11.81877
G1 X100.165 Y166.02 E11.84786
G1 X99.423 Y166.012 E11.88488
G1 X99.192 Y166.001 E11.89642
G1 X98.528 Y166.095 E11.92988
G1 X97.739 Y166.125 E11.96927
G1 X96.951 Y166.076 E12.00866
G1 X96.629 Y166.015 E12.02501
G1 X95.915 Y166.007 E12.06063
G1 X95.13 Y165.919 E12.10004
G1 X94.828 Y165.854 E12.11546
G1 X94.541 Y165.861 E12.12978
G1 X93.754 Y165.8 E12.16916
G1 X92.976 Y165.66 E12.2086
G1 X92.218 Y165.442 E12.24795
G1 X91.485 Y165.148 E12.28735
G1 X90.785 Y164.782 E12.32676
G1 X90.261 Y164.444 E12.35787
G1 X89.907 Y164.195 E12.37946
G1 X89.504 Y163.878 E12.40504
G1 X89.245 Y163.734 E12.41982
G1 X88.598 Y163.282 E12.4592
G1 X88 Y162.767 E12.49857
G1 X87.457 Y162.193 E12.53799
G1 X86.974 Y161.568 E12.5774
G1 X86.602 Y160.976 E12.61228
G1 X86.051 Y160.006 E12.66794
G1 X85.696 Y159.3 E12.70736
G1 X85.414 Y158.562 E12.74678
G1 X85.209 Y157.8 E12.78615
G1 X85.081 Y157.021 E12.82553
G1 X85.033 Y156.232 E12.86497
G1 X85.044 Y155.953 E12.8789
G1 X64.382 Y155.953 E13.90973
G1 X63.036 Y155.952 E13.97688
G1 X62.248 Y155.911 E14.01625
G1 X61.467 Y155.791 E14.05567
G1 X60.703 Y155.593 E14.09505
G1 X59.962 Y155.318 E14.13448
G1 X59.254 Y154.97 E14.17384
G1 X58.424 Y154.438 E14.22302
G1 X58.262 Y154.319 E14.23305
G1 X57.65 Y153.82 E14.27245
G1 X57.092 Y153.262 E14.31182
G1 X56.593 Y152.65 E14.35121
G1 X56.158 Y151.99 E14.39065
G1 X55.68 Y151.033 E14.44402
G1 X55.65 Y150.961 E14.44791
G1 X55.384 Y150.218 E14.48728
G1 X55.194 Y149.451 E14.5267
G1 X55.082 Y148.669 E14.56612
G1 X55.05 Y147.961 E14.60147
G1 X55.049 Y75.39 E18.22206
G1 X55.049 Y75.384 E18.22235
G1 X55.05 Y74.038 E18.28951
G1 X55.091 Y73.25 E18.32887
G1 X55.211 Y72.469 E18.3683
G1 X55.409 Y71.705 E18.40767
G1 X55.684 Y70.964 E18.4471
G1 X56.032 Y70.256 E18.48646
G1 X56.564 Y69.426 E18.53565
G1 X56.683 Y69.264 E18.54567
G1 X57.182 Y68.652 E18.58507
G1 X57.74 Y68.094 E18.62444
G0 F3600 X58.038 Y68.364
G1 F1800 X58.638 Y67.882 E18.66284
G1 X59.284 Y67.465 E18.7012
G1 X60.123 Y67.051 E18.74787
G1 X60.195 Y67.021 E18.75177
G1 X60.919 Y66.763 E18.79011
G1 X61.667 Y66.581 E18.82852
G1 X62.429 Y66.477 E18.86689
G1 X63.041 Y66.452 E18.89744
G1 X87.635 Y66.452 E20.12444
G1 X87.6 Y65.852 E20.15443
G1 X87.6 Y62.217 E20.33578
G1 X87.64 Y61.449 E20.37415
G1 X87.759 Y60.689 E20.41253
G1 X87.957 Y59.946 E20.45089
G1 X88.231 Y59.227 E20.48928
G1 X88.578 Y58.541 E20.52763
G1 X88.994 Y57.894 E20.56601
G1 X89.475 Y57.294 E20.60437
G1 X90.016 Y56.747 E20.64275
G1 X90.611 Y56.259 E20.68115
G1 X91.253 Y55.836 E20.7195
G1 X91.936 Y55.481 E20.75791
G1 X92.651 Y55.2 E20.79623
G1 X93.393 Y54.994 E20.83465
G1 X94.151 Y54.866 E20.873
G1 X95 Y54.817 E20.91543
G1 X105 Y54.817 E21.41433
G1 X105.768 Y54.857 E21.4527
G1 X106.528 Y54.976 E21.49108
G1 X107.271 Y55.174 E21.52944
G1 X107.99 Y55.448 E21.56783
G1 X108.676 Y55.795 E21.60618
G1 X109.323 Y56.211 E21.64456
G1 X109.923 Y56.692 E21.68292
G1 X110.47 Y57.233 E21.72131
G1 X110.958 Y57.828 E21.7597
G1 X111.381 Y58.47 E21.79805
G1 X111.736 Y59.153 E21.83646
G1 X112.017 Y59.868 E21.87479
G1 X112.223 Y60.61 E21.9132
G1 X112.351 Y61.368 E21.95156
G1 X112.4 Y62.217 E21.99398
G1 X112.4 Y65.851 E22.17528
G1 X112.369 Y66.451 E22.20526
G1 X135.617 Y66.451 E23.36511
G1 X136.963 Y66.452 E23.43226
G1 X137.732 Y66.493 E23.47068
G1 X138.491 Y66.613 E23.50902
G1 X139.234 Y66.811 E23.54738
G1 X139.953 Y67.085 E23.58576
G1 X140.639 Y67.433 E23.62414
G1 X141.339 Y67.888 E23.66579
G1 X141.501 Y68.007 E23.67582
G1 X142.096 Y68.494 E23.71418
G1 X142.638 Y69.04 E23.75256
G1 X143.12 Y69.64 E23.79096
G1 X143.537 Y70.286 E23.82932
G1 X143.951 Y71.125 E23.876
G1 X143.981 Y71.197 E23.87989
G1 X144.239 Y71.921 E23.91824
G1 X144.421 Y72.669 E23.95664
G1 X144.525 Y73.431 E23.99501
G1 X144.55 Y74.043 E24.02557
G1 X144.551 Y146.614 E27.64615
G1 X144.551 Y146.619 E27.6464
G1 X144.55 Y147.965 E27.71355
G1 X144.509 Y148.734 E27.75197
G1 X144.389 Y149.493 E27.79031
G1 X144.191 Y150.236 E27.82867
G1 X143.917 Y150.955 E27.86706
G1 X143.569 Y151.641 E27.90544
G1 X143.114 Y152.341 E27.94709
G1 X142.995 Y152.503 E27.95712
G1 X142.508 Y153.098 E27.99548
G1 X141.962 Y153.64 E28.03386
G1 X141.362 Y154.122 E28.07226
G1 X140.716 Y154.539 E28.11062
G1 X139.877 Y154.953 E28.15729
G1 X139.805 Y154.983 E28.16118
G1 X139.081 Y155.241 E28.19953
G1 X138.333 Y155.423 E28.23794
G1 X137.571 Y155.527 E28.27631
G1 X136.959 Y155.552 E28.30686
G1 X114.582 Y155.552 E29.42326
G1 X114.615 Y156.07 E29.44915
G1 X114.583 Y156.839 E29.48755
G1 X114.472 Y157.6 E29.52592
G1 X114.283 Y158.345 E29.56426
G1 X114.017 Y159.067 E29.60265
G1 X113.677 Y159.757 E29.64103
G1 X113.268 Y160.409 E29.67943
G1 X112.794 Y161.014 E29.71777
G1 X112.259 Y161.567 E29.75616
G1 X111.898 Y161.87 E29.77967
G1 X111.764 Y162.057 E29.79115
G1 X111.123 Y162.763 E29.83872
G1 X110.788 Y163.087 E29.86198
G1 X110.208 Y163.592 E29.90034
G1 X109.578 Y164.035 E29.93877
G1 X108.907 Y164.409 E29.97709
G1 X108.2 Y164.712 E30.01547
G1 X107.465 Y164.94 E30.05386
G1 X107.257 Y164.982 E30.06445
G1 X106.915 Y165.111 E30.08268
G1 X106.171 Y165.308 E30.12108
G1 X105.411 Y165.426 E30.15945
G1 X105.131 Y165.44 E30.17344
G1 X104.775 Y165.516 E30.1916
G1 X104.01 Y165.597 E30.22998
G1 X103.451 Y165.598 E30.25787
G1 X102.995 Y165.668 E30.28088
G1 X102.226 Y165.705 E30.31929
G1 X101.458 Y165.662 E30.35767
G1 X100.997 Y165.587 E30.38097
G1 X100.722 Y165.605 E30.39472
G1 X100.169 Y165.62 E30.42232
G1 X99.427 Y165.612 E30.45934
G1 X99.182 Y165.6 E30.47158
G1 X99.156 Y165.606 E30.47291
G1 X98.393 Y165.704 E30.51129
G1 X97.624 Y165.723 E30.54967
G1 X96.857 Y165.662 E30.58805
G1 X96.618 Y165.615 E30.6002
G1 X96.529 Y165.621 E30.60465
G1 X95.76 Y165.595 E30.64304
G1 X94.998 Y165.49 E30.68142
G1 X94.849 Y165.453 E30.68908
G1 X94.512 Y165.46 E30.70589
G1 X93.745 Y165.396 E30.74429
G1 X92.99 Y165.252 E30.78264
G1 X92.253 Y165.03 E30.82104
G1 X91.543 Y164.734 E30.85942
G1 X90.868 Y164.365 E30.8978
G1 X90.492 Y164.117 E30.92027
G1 X90.138 Y163.868 E30.94186
G1 X89.72 Y163.541 E30.96834
G1 X89.424 Y163.374 E30.98529
G1 X88.796 Y162.929 E31.02369
G1 X88.218 Y162.422 E31.06205
G1 X87.696 Y161.857 E31.10043
G1 X87.236 Y161.241 E31.13878
G1 X86.95 Y160.778 E31.16593
G1 X86.399 Y159.808 E31.22159
G1 X86.054 Y159.12 E31.25999
G1 X85.783 Y158.401 E31.29832
G1 X85.587 Y157.657 E31.33671
G1 X85.47 Y156.896 E31.37512
G1 X85.433 Y156.128 E31.41348
G1 X85.465 Y155.553 E31.44221
G1 X64.383 Y155.553 E32.494
G1 X63.037 Y155.552 E32.56115
G1 X62.268 Y155.511 E32.59957
G1 X61.509 Y155.391 E32.63791
G1 X60.766 Y155.193 E32.67627
G1 X60.047 Y154.919 E32.71466
G1 X59.361 Y154.571 E32.75303
G1 X58.661 Y154.116 E32.79468
G1 X58.499 Y153.997 E32.80471
G1 X57.904 Y153.51 E32.84307
G1 X57.362 Y152.964 E32.88146
G1 X56.88 Y152.364 E32.91985
G1 X56.463 Y151.718 E32.95821
G1 X56.049 Y150.879 E33.00489
G1 X56.019 Y150.807 E33.00878
G1 X55.761 Y150.083 E33.04713
G1 X55.579 Y149.335 E33.08553
G1 X55.475 Y148.573 E33.1239
G1 X55.45 Y147.961 E33.15446
G1 X55.449 Y75.39 E36.77504
G1 X55.449 Y75.385 E36.77529
G1 X55.45 Y74.039 E36.84244
G1 X55.491 Y73.27 E36.88086
G1 X55.611 Y72.511 E36.9192
G1 X55.809 Y71.768 E36.95756
G1 X56.083 Y71.049 E36.99595
G1 X56.431 Y70.363 E37.03433
G1 X56.886 Y69.663 E37.07598
G1 X57.005 Y69.501 E37.08601
G1 X57.492 Y68.906 E37.12437
G1 X58.038 Y68.364 E37.16275
G0 F3600 X58.335 Y68.635
G1 F1800 X58.922 Y68.171 E37.20008
G1 X59.554 Y67.771 E37.23739
G1 X60.277 Y67.42 E37.27749
G1 X60.349 Y67.39 E37.28138
G1 X61.054 Y67.14 E37.3187
G1 X61.781 Y66.966 E37.356
G1 X62.523 Y66.871 E37.39332
G1 X63.041 Y66.852 E37.41918
G1 X88.081 Y66.852 E38.66843
G1 X88.019 Y66.37 E38.69267
G1 X88 Y65.852 E38.71853
G1 X88 Y62.217 E38.89988
G1 X88.04 Y61.47 E38.93721
G1 X88.159 Y60.732 E38.9745
G1 X88.357 Y60.01 E39.01185
G1 X88.63 Y59.314 E39.04915
G1 X88.977 Y58.651 E39.08648
G1 X89.392 Y58.028 E39.12383
G1 X89.871 Y57.454 E39.16113
G1 X90.408 Y56.933 E39.19846
G1 X90.998 Y56.474 E39.23575
G1 X91.634 Y56.079 E39.2731
G1 X92.308 Y55.755 E39.31041
G1 X93.013 Y55.505 E39.34773
G1 X93.741 Y55.331 E39.38507
G1 X94.483 Y55.236 E39.42239
G1 X95 Y55.217 E39.4482
G1 X105 Y55.217 E39.94711
G1 X105.747 Y55.257 E39.98443
G1 X106.485 Y55.376 E40.02172
G1 X107.207 Y55.574 E40.05907
G1 X107.903 Y55.847 E40.09637
G1 X108.566 Y56.194 E40.13371
G1 X109.189 Y56.609 E40.17105
G1 X109.763 Y57.088 E40.20835
G1 X110.284 Y57.625 E40.24568
G1 X110.743 Y58.215 E40.28297
G1 X111.138 Y58.851 E40.32032
G1 X111.462 Y59.525 E40.35763
G1 X111.712 Y60.23 E40.39495
G1 X111.886 Y60.958 E40.4323
G1 X111.981 Y61.7 E40.46962
G1 X112 Y62.217 E40.49543
G1 X112 Y65.851 E40.67673
G1 X111.96 Y66.598 E40.71405
G1 X111.919 Y66.851 E40.72684
G1 X135.617 Y66.851 E41.90913
G1 X136.963 Y66.852 E41.97629
G1 X137.71 Y66.893 E42.01361
G1 X138.449 Y67.013 E42.05096
G1 X139.17 Y67.211 E42.08826
G1 X139.866 Y67.485 E42.12558
G1 X140.529 Y67.831 E42.16289
G1 X141.102 Y68.21 E42.19717
G1 X141.264 Y68.329 E42.2072
G1 X141.842 Y68.804 E42.24452
G1 X142.367 Y69.337 E42.28184
G1 X142.831 Y69.924 E42.31917
G1 X143.231 Y70.556 E42.35649
G1 X143.582 Y71.279 E42.39659
G1 X143.612 Y71.351 E42.40048
G1 X143.862 Y72.056 E42.4378
G1 X144.036 Y72.783 E42.47509
G1 X144.131 Y73.525 E42.51241
G1 X144.15 Y74.043 E42.53827
G1 X144.151 Y146.614 E46.15885
G1 X144.151 Y146.619 E46.1591
G1 X144.15 Y147.965 E46.22626
G1 X144.109 Y148.712 E46.26358
G1 X143.989 Y149.451 E46.30093
G1 X143.791 Y150.172 E46.33823
G1 X143.517 Y150.868 E46.37555
G1 X143.171 Y151.531 E46.41286
G1 X142.792 Y152.104 E46.44714
G1 X142.673 Y152.266 E46.45717
G1 X142.198 Y152.844 E46.49449
G1 X141.665 Y153.369 E46.53182
G1 X141.078 Y153.833 E46.56915
G1 X140.446 Y154.233 E46.60646
G1 X139.723 Y154.584 E46.64656
G1 X139.651 Y154.614 E46.65045
G1 X138.946 Y154.864 E46.68777
G1 X138.219 Y155.038 E46.72506
G1 X137.477 Y155.133 E46.76238
G1 X136.959 Y155.152 E46.78824
G1 X114.134 Y155.152 E47.92699
G1 X114.196 Y155.634 E47.95123
G1 X114.211 Y156.382 E47.98856
G1 X114.147 Y157.127 E48.02586
G1 X114.003 Y157.862 E48.06323
G1 X113.782 Y158.576 E48.10052
G1 X113.486 Y159.263 E48.13784
G1 X113.118 Y159.915 E48.17519
G1 X112.683 Y160.523 E48.21249
G1 X112.185 Y161.081 E48.2498
G1 X111.631 Y161.584 E48.28713
G1 X111.589 Y161.614 E48.28971
G1 X111.439 Y161.823 E48.30254
G1 X110.844 Y162.476 E48.34662
G1 X110.509 Y162.8 E48.36987
G1 X109.945 Y163.29 E48.40714
G1 X109.331 Y163.718 E48.44448
G1 X108.675 Y164.077 E48.48179
G1 X107.984 Y164.365 E48.51914
G1 X107.267 Y164.577 E48.55644
G1 X107.132 Y164.602 E48.56329
G1 X106.734 Y164.749 E48.58446
G1 X106.009 Y164.932 E48.62176
G1 X105.268 Y165.037 E48.6591
G1 X105.07 Y165.044 E48.66899
G1 X104.672 Y165.127 E48.68927
G1 X103.927 Y165.201 E48.72662
G1 X103.429 Y165.197 E48.75147
G1 X102.934 Y165.272 E48.77644
G1 X102.187 Y165.305 E48.81375
G1 X101.44 Y165.257 E48.85109
G1 X101.023 Y165.185 E48.87221
G1 X100.697 Y165.206 E48.8885
G1 X100.174 Y165.22 E48.9146
G1 X99.432 Y165.212 E48.95163
G1 X99.133 Y165.198 E48.96656
G1 X99.003 Y165.227 E48.9732
G1 X98.26 Y165.313 E49.01052
G1 X97.512 Y165.319 E49.04784
G1 X96.768 Y165.245 E49.08514
G1 X96.602 Y165.21 E49.0936
G1 X96.357 Y165.222 E49.10584
G1 X95.611 Y165.178 E49.14313
G1 X94.873 Y165.055 E49.18045
G1 X94.866 Y165.053 E49.18082
G1 X94.483 Y165.059 E49.19993
G1 X93.739 Y164.991 E49.2372
G1 X93.005 Y164.843 E49.27455
G1 X92.292 Y164.618 E49.31186
G1 X91.606 Y164.319 E49.34919
G1 X90.722 Y163.789 E49.40061
G1 X90.368 Y163.54 E49.4222
G1 X89.945 Y163.209 E49.449
G1 X89.603 Y163.014 E49.46864
G1 X88.996 Y162.577 E49.50596
G1 X88.439 Y162.078 E49.54327
G1 X87.939 Y161.522 E49.58057
G1 X87.5 Y160.915 E49.61795
G1 X87.297 Y160.58 E49.63749
G1 X86.746 Y159.61 E49.69314
G1 X86.412 Y158.941 E49.73045
G1 X86.151 Y158.24 E49.76777
G1 X85.967 Y157.515 E49.80508
G1 X85.861 Y156.775 E49.84238
G1 X85.834 Y156.027 E49.87972
G1 X85.888 Y155.281 E49.91704
G1 X85.911 Y155.153 E49.92353
G1 X64.383 Y155.153 E50.99756
G1 X63.037 Y155.152 E51.06471
G1 X62.29 Y155.111 E51.10204
G1 X61.551 Y154.991 E51.13939
G1 X60.83 Y154.793 E51.17669
G1 X60.134 Y154.519 E51.21401
G1 X59.471 Y154.173 E51.25132
G1 X58.898 Y153.794 E51.2856
G1 X58.736 Y153.675 E51.29562
G1 X58.158 Y153.2 E51.33295
G1 X57.633 Y152.667 E51.37027
