;FLAVOR:Marlin
;TIME:6188
;Filament used: 6.15256m
;Layer height: 0.2
;MINX:51.293
;MINY:40.288
;MINZ:0.3
;MAXX:153.678
;MAXY:159.61
;MAXZ:5.9
;Generated with Cura_SteamEngine 4.2.1
M140 S60
M105
M190 S60
M104 S210
M105
M109 S210
M82 ;absolute extrusion mode
G28 ;Home
G1 Z15.0 F6000 ;Move the platform down 15mm
;Prime the extruder
G92 E0
G1 F200 E3
G92 E0
;
M117 Printing...        ☺
M141 S28
G92 E0
G92 E0
G1 F1500 E-5
;LAYER_COUNT:29
;LAYER:0
M107
G0 F3600 X53.458 Y43.01 Z0.3
;TYPE:SKIRT
G1 F1500 E0
G1 F1800 X54.001 Y42.437 E0.03938
G1 X54.6 Y41.922 E0.0788
G1 X55.248 Y41.471 E0.11818
G1 X55.939 Y41.087 E0.15762
G1 X56.664 Y40.775 E0.197
G1 X57.417 Y40.538 E0.23638
G1 X58.191 Y40.379 E0.27581
G1 X58.976 Y40.298 E0.31518
G1 X59.378 Y40.288 E0.33524
G1 X145.878 Y40.288 E4.65074
G1 X146.667 Y40.328 E4.69016
G1 X147.447 Y40.447 E4.72952
G1 X148.212 Y40.645 E4.76894
G1 X148.952 Y40.919 E4.80831
G1 X149.661 Y41.267 E4.84772
G1 X150.332 Y41.685 E4.88716
G1 X150.956 Y42.168 E4.92652
G1 X151.529 Y42.711 E4.96591
G1 X152.044 Y43.31 E5.00532
G1 X152.495 Y43.958 E5.04471
G1 X152.879 Y44.649 E5.08415
G1 X153.191 Y45.374 E5.12352
G1 X153.428 Y46.127 E5.16291
G1 X153.587 Y46.901 E5.20233
G1 X153.668 Y47.686 E5.2417
G1 X153.678 Y48.088 E5.26176
G1 X153.678 Y98.088 E7.75627
G1 X153.638 Y98.877 E7.79569
G1 X153.519 Y99.657 E7.83505
G1 X153.321 Y100.422 E7.87448
G1 X153.292 Y100.5 E7.87863
G1 X153.3 Y100.539 E7.88061
G1 X153.382 Y101.324 E7.91999
G1 X153.393 Y101.731 E7.9403
G1 X153.433 Y150.474 E10.3721
G1 X153.435 Y151.725 E10.43452
G1 X153.396 Y152.513 E10.47388
G1 X153.278 Y153.294 E10.51328
G1 X153.081 Y154.059 E10.5527
G1 X152.808 Y154.8 E10.59209
G1 X152.462 Y155.51 E10.6315
G1 X152.046 Y156.18 E10.67084
G1 X151.563 Y156.806 E10.71029
G1 X151.021 Y157.379 E10.74964
G1 X150.422 Y157.895 E10.78908
G1 X149.775 Y158.347 E10.82846
G1 X149.086 Y158.732 E10.86784
G1 X148.361 Y159.045 E10.90723
G1 X147.608 Y159.283 E10.94663
G1 X146.835 Y159.444 E10.98602
G1 X146.049 Y159.526 E11.02545
G1 X145.641 Y159.537 E11.04581
G1 X61.309 Y159.607 E15.25316
G1 X59.146 Y159.61 E15.36107
G1 X58.357 Y159.571 E15.40048
G1 X57.576 Y159.453 E15.43989
G1 X56.812 Y159.256 E15.47925
G1 X56.071 Y158.983 E15.51865
G1 X55.361 Y158.636 E15.55807
G1 X54.69 Y158.22 E15.59746
G1 X54.065 Y157.737 E15.63687
G1 X53.492 Y157.194 E15.67625
G1 X52.976 Y156.596 E15.71566
G1 X52.524 Y155.949 E15.75503
G1 X52.139 Y155.259 E15.79445
G1 X51.826 Y154.534 E15.83385
G1 X51.588 Y153.781 E15.87325
G1 X51.428 Y153.008 E15.91263
G1 X51.346 Y152.223 E15.95201
G1 X51.335 Y151.817 E15.97227
G1 X51.293 Y101.817 E18.46678
G1 X51.332 Y101.028 E18.5062
G1 X51.451 Y100.247 E18.54561
G1 X51.648 Y99.482 E18.58502
G1 X51.689 Y99.372 E18.59088
G1 X51.669 Y99.275 E18.59582
G1 X51.588 Y98.49 E18.63519
G1 X51.578 Y98.088 E18.65525
G1 X51.578 Y48.088 E21.14976
G1 X51.618 Y47.299 E21.18918
G1 X51.737 Y46.519 E21.22854
G1 X51.935 Y45.754 E21.26796
G1 X52.209 Y45.014 E21.30733
G1 X52.557 Y44.305 E21.34674
G1 X52.975 Y43.634 E21.38618
G1 X53.458 Y43.01 E21.42554
G0 F3600 X53.853 Y43.165
G1 F1800 X54.394 Y42.618 E21.46393
G1 X54.989 Y42.13 E21.50232
G1 X55.631 Y41.707 E21.54068
G1 X56.314 Y41.352 E21.57908
G1 X57.029 Y41.071 E21.61741
G1 X57.771 Y40.865 E21.65583
G1 X58.529 Y40.737 E21.69418
G1 X59.378 Y40.688 E21.7366
G1 X145.878 Y40.688 E26.05211
G1 X146.646 Y40.728 E26.09047
G1 X147.406 Y40.847 E26.12885
G1 X148.149 Y41.045 E26.16722
G1 X148.868 Y41.319 E26.2056
G1 X149.554 Y41.666 E26.24396
G1 X150.201 Y42.082 E26.28233
G1 X150.801 Y42.563 E26.3207
G1 X151.348 Y43.104 E26.35908
G1 X151.836 Y43.699 E26.39747
G1 X152.259 Y44.341 E26.43583
G1 X152.614 Y45.024 E26.47423
G1 X152.895 Y45.739 E26.51256
G1 X153.101 Y46.481 E26.55098
G1 X153.229 Y47.239 E26.58933
G1 X153.278 Y48.088 E26.63176
G1 X153.278 Y98.088 E29.12627
G1 X153.238 Y98.856 E29.16464
G1 X153.119 Y99.616 E29.20301
G1 X152.921 Y100.359 E29.24138
G1 X152.875 Y100.479 E29.24779
G1 X152.943 Y100.878 E29.26798
G1 X152.993 Y101.731 E29.31061
G1 X153.033 Y150.474 E31.74241
G1 X153.035 Y151.725 E31.80482
G1 X152.996 Y152.493 E31.84319
G1 X152.878 Y153.253 E31.88156
G1 X152.681 Y153.997 E31.91996
G1 X152.409 Y154.716 E31.95831
G1 X152.063 Y155.403 E31.99668
G1 X151.648 Y156.051 E32.03507
G1 X151.167 Y156.651 E32.07344
G1 X150.627 Y157.199 E32.11182
G1 X150.034 Y157.688 E32.15017
G1 X149.392 Y158.112 E32.18855
G1 X148.71 Y158.468 E32.22694
G1 X147.995 Y158.751 E32.2653
G1 X147.254 Y158.958 E32.30368
G1 X146.496 Y159.087 E32.34204
G1 X145.641 Y159.137 E32.38477
G1 X61.308 Y159.207 E36.59216
G1 X59.145 Y159.21 E36.70008
G1 X58.377 Y159.171 E36.73844
G1 X57.617 Y159.053 E36.77681
G1 X56.874 Y158.856 E36.81516
G1 X56.154 Y158.583 E36.85358
G1 X55.467 Y158.237 E36.89195
G1 X54.82 Y157.822 E36.9303
G1 X54.219 Y157.341 E36.96871
G1 X53.672 Y156.801 E37.00706
G1 X53.183 Y156.207 E37.04544
G1 X52.759 Y155.566 E37.08378
G1 X52.404 Y154.884 E37.12214
G1 X52.121 Y154.168 E37.16055
G1 X51.914 Y153.427 E37.19894
G1 X51.785 Y152.669 E37.2373
G1 X51.735 Y151.816 E37.27993
G1 X51.693 Y101.816 E39.77444
G1 X51.732 Y101.048 E39.8128
G1 X51.851 Y100.288 E39.85118
G1 X52.048 Y99.545 E39.88953
G1 X52.105 Y99.396 E39.89749
G1 X52.027 Y98.937 E39.92072
G1 X51.978 Y98.088 E39.96314
G1 X51.978 Y48.088 E42.45765
G1 X52.018 Y47.32 E42.49602
G1 X52.137 Y46.56 E42.5344
G1 X52.335 Y45.817 E42.57276
G1 X52.609 Y45.098 E42.61115
G1 X52.956 Y44.412 E42.6495
G1 X53.372 Y43.765 E42.68788
G1 X53.853 Y43.165 E42.72624
G0 F3600 X54.249 Y43.325
G1 F1800 X54.786 Y42.804 E42.76357
G1 X55.376 Y42.345 E42.80087
G1 X56.012 Y41.95 E42.83822
G1 X56.686 Y41.626 E42.87553
G1 X57.391 Y41.376 E42.91285
G1 X58.119 Y41.202 E42.95019
G1 X58.861 Y41.107 E42.98751
G1 X59.378 Y41.088 E43.01332
G1 X145.878 Y41.088 E47.32882
G1 X146.625 Y41.128 E47.36614
G1 X147.363 Y41.247 E47.40344
G1 X148.085 Y41.445 E47.44079
G1 X148.781 Y41.718 E47.47809
G1 X149.444 Y42.065 E47.51542
G1 X150.067 Y42.48 E47.55277
G1 X150.641 Y42.959 E47.59007
G1 X151.162 Y43.496 E47.6274
G1 X151.621 Y44.086 E47.66469
G1 X152.016 Y44.722 E47.70204
G1 X152.34 Y45.396 E47.73935
G1 X152.59 Y46.101 E47.77667
G1 X152.764 Y46.829 E47.81401
G1 X152.859 Y47.571 E47.85133
G1 X152.878 Y48.088 E47.87714
G1 X152.878 Y98.088 E50.37165
G1 X152.838 Y98.835 E50.40898
G1 X152.719 Y99.573 E50.44627
G1 X152.521 Y100.295 E50.48362
G1 X152.468 Y100.43 E50.49086
G1 X152.477 Y100.468 E50.4928
G1 X152.573 Y101.21 E50.53013
G1 X152.593 Y101.731 E50.55614
G1 X152.633 Y150.475 E52.98799
G1 X152.635 Y151.726 E53.0504
G1 X152.596 Y152.473 E53.08772
G1 X152.478 Y153.212 E53.12506
G1 X152.282 Y153.933 E53.16234
G1 X152.009 Y154.63 E53.19968
G1 X151.664 Y155.294 E53.23701
G1 X151.25 Y155.917 E53.27433
G1 X150.772 Y156.492 E53.31164
G1 X150.235 Y157.013 E53.34896
G1 X149.646 Y157.474 E53.38628
G1 X149.011 Y157.869 E53.42359
G1 X148.337 Y158.194 E53.46092
G1 X147.633 Y158.446 E53.49823
G1 X146.905 Y158.621 E53.53558
G1 X146.163 Y158.717 E53.57291
G1 X145.641 Y158.737 E53.59897
G1 X61.308 Y158.807 E57.80636
G1 X59.145 Y158.81 E57.91427
G1 X58.398 Y158.771 E57.95159
G1 X57.659 Y158.653 E57.98893
G1 X56.937 Y158.456 E58.02627
G1 X56.241 Y158.184 E58.06355
G1 X55.577 Y157.838 E58.1009
G1 X54.954 Y157.424 E58.13822
G1 X54.379 Y156.946 E58.17553
G1 X53.858 Y156.409 E58.21285
G1 X53.397 Y155.82 E58.25017
G1 X53.002 Y155.184 E58.28752
G1 X52.677 Y154.511 E58.32481
G1 X52.426 Y153.806 E58.36214
G1 X52.251 Y153.079 E58.39945
G1 X52.155 Y152.337 E58.43678
G1 X52.135 Y151.816 E58.46279
G1 X52.093 Y101.816 E60.9573
G1 X52.132 Y101.069 E60.99462
G1 X52.251 Y100.33 E61.03196
G1 X52.448 Y99.609 E61.06925
G1 X52.514 Y99.44 E61.0783
G1 X52.492 Y99.347 E61.08307
G1 X52.397 Y98.605 E61.12039
G1 X52.378 Y98.088 E61.1462
G1 X52.378 Y48.088 E63.64071
G1 X52.418 Y47.341 E63.67803
G1 X52.537 Y46.603 E63.71533
G1 X52.735 Y45.881 E63.75268
G1 X53.008 Y45.185 E63.78998
G1 X53.355 Y44.522 E63.82731
G1 X53.77 Y43.899 E63.86466
G1 X54.249 Y43.325 E63.90196
G0 F3600 X54.167 Y44.038
G1 F1800 X54.643 Y43.49 E63.93817
G1 X55.177 Y42.997 E63.97443
G1 X55.762 Y42.567 E64.01065
G1 X56.391 Y42.203 E64.04691
G1 X57.056 Y41.91 E64.08316
G1 X57.749 Y41.692 E64.11941
G1 X58.461 Y41.552 E64.15561
G1 X59.378 Y41.488 E64.20147
G1 X145.878 Y41.488 E68.51697
G1 X146.603 Y41.528 E68.5532
G1 X147.32 Y41.647 E68.58946
G1 X148.019 Y41.845 E68.6257
G1 X148.692 Y42.118 E68.66194
G1 X149.331 Y42.463 E68.69816
G1 X149.928 Y42.877 E68.73441
G1 X150.476 Y43.353 E68.77062
G1 X150.969 Y43.887 E68.80688
G1 X151.399 Y44.472 E68.8431
G1 X151.763 Y45.101 E68.87936
G1 X152.056 Y45.766 E68.91562
G1 X152.274 Y46.459 E68.95186
G1 X152.414 Y47.171 E68.98806
G1 X152.478 Y48.088 E69.03392
G1 X152.478 Y98.088 E71.52843
G1 X152.438 Y98.813 E71.56466
G1 X152.319 Y99.53 E71.60092
G1 X152.121 Y100.229 E71.63716
G1 X152.048 Y100.409 E71.64686
G1 X152.128 Y100.811 E71.6673
G1 X152.193 Y101.732 E71.71337
G1 X152.233 Y150.475 E74.14517
G1 X152.235 Y151.726 E74.20758
G1 X152.196 Y152.452 E74.24385
G1 X152.078 Y153.168 E74.28005
G1 X151.882 Y153.868 E74.31632
G1 X151.61 Y154.541 E74.35254
G1 X151.265 Y155.181 E74.38881
G1 X150.853 Y155.779 E74.42504
G1 X150.377 Y156.328 E74.46129
G1 X149.844 Y156.821 E74.49751
G1 X149.26 Y157.253 E74.53375
G1 X148.632 Y157.617 E74.56997
G1 X147.967 Y157.911 E74.60624
G1 X147.275 Y158.13 E74.64245
G1 X146.562 Y158.272 E74.67872
G1 X145.64 Y158.337 E74.72484
G1 X61.307 Y158.407 E78.93223
G1 X59.144 Y158.41 E79.04014
G1 X58.419 Y158.371 E79.07636
G1 X57.702 Y158.253 E79.11262
G1 X57.003 Y158.056 E79.14885
G1 X56.329 Y157.784 E79.18511
G1 X55.69 Y157.44 E79.22132
G1 X55.092 Y157.027 E79.25757
G1 X54.543 Y156.551 E79.29382
G1 X54.05 Y156.018 E79.33005
G1 X53.619 Y155.434 E79.36626
G1 X53.254 Y154.805 E79.40254
G1 X52.96 Y154.141 E79.43877
G1 X52.742 Y153.448 E79.47501
G1 X52.6 Y152.736 E79.51123
G1 X52.535 Y151.816 E79.55725
G1 X52.493 Y101.816 E82.05176
G1 X52.532 Y101.09 E82.08803
G1 X52.651 Y100.374 E82.12424
G1 X52.848 Y99.674 E82.16052
G1 X52.933 Y99.466 E82.17173
G1 X52.842 Y99.005 E82.19518
G1 X52.778 Y98.088 E82.24104
G1 X52.778 Y48.088 E84.73555
G1 X52.818 Y47.363 E84.77177
G1 X52.937 Y46.646 E84.80803
G1 X53.135 Y45.947 E84.84428
G1 X53.408 Y45.274 E84.88051
G1 X53.753 Y44.635 E84.91674
G1 X54.167 Y44.038 E84.95299
G0 F3600 X54.563 Y44.182
G1 F1800 X55.037 Y43.661 E84.98813
G1 X55.567 Y43.197 E85.02327
G1 X56.146 Y42.797 E85.05838
G1 X56.767 Y42.465 E85.09351
G1 X57.421 Y42.205 E85.12862
G1 X58.101 Y42.021 E85.16377
G1 X58.797 Y41.915 E85.19889
G1 X59.378 Y41.888 E85.22791
G1 X145.878 Y41.888 E89.54341
G1 X146.581 Y41.928 E89.57854
G1 X147.275 Y42.047 E89.61367
G1 X147.95 Y42.245 E89.64877
G1 X148.599 Y42.517 E89.68387
G1 X149.213 Y42.862 E89.71901
G1 X149.784 Y43.273 E89.75411
G1 X150.305 Y43.747 E89.78925
G1 X150.769 Y44.277 E89.82439
G1 X151.169 Y44.856 E89.8595
G1 X151.501 Y45.477 E89.89463
G1 X151.761 Y46.131 E89.92975
G1 X151.945 Y46.811 E89.96489
G1 X152.051 Y47.507 E90.00002
G1 X152.078 Y48.088 E90.02903
G1 X152.078 Y98.088 E92.52354
G1 X152.038 Y98.791 E92.55867
G1 X151.919 Y99.485 E92.5938
G1 X151.721 Y100.16 E92.6289
G1 X151.635 Y100.366 E92.64003
G1 X151.658 Y100.451 E92.64443
G1 X151.765 Y101.147 E92.67956
G1 X151.793 Y101.732 E92.70878
G1 X151.833 Y150.476 E95.14063
G1 X151.835 Y151.727 E95.20304
G1 X151.796 Y152.43 E95.23817
G1 X151.678 Y153.124 E95.27329
G1 X151.482 Y153.8 E95.3084
G1 X151.21 Y154.45 E95.34356
G1 X150.867 Y155.064 E95.37864
G1 X150.456 Y155.636 E95.41378
G1 X149.983 Y156.157 E95.44889
G1 X149.454 Y156.621 E95.484
G1 X148.875 Y157.023 E95.51916
G1 X148.255 Y157.356 E95.55427
G1 X147.601 Y157.617 E95.5894
G1 X146.922 Y157.802 E95.62451
G1 X146.226 Y157.909 E95.65965
G1 X145.64 Y157.937 E95.68891
G1 X61.307 Y158.007 E99.89631
G1 X59.144 Y158.01 E100.00422
G1 X58.441 Y157.971 E100.03935
G1 X57.747 Y157.853 E100.07447
G1 X57.071 Y157.656 E100.1096
G1 X56.421 Y157.385 E100.14473
G1 X55.807 Y157.041 E100.17984
G1 X55.235 Y156.63 E100.21498
G1 X54.714 Y156.157 E100.25009
G1 X54.25 Y155.628 E100.28519
G1 X53.848 Y155.049 E100.32036
G1 X53.515 Y154.429 E100.35547
G1 X53.255 Y153.775 E100.39058
G1 X53.07 Y153.096 E100.42569
G1 X52.963 Y152.4 E100.46083
G1 X52.935 Y151.815 E100.49005
G1 X52.893 Y101.815 E102.98456
G1 X52.932 Y101.112 E103.01968
G1 X53.051 Y100.418 E103.05481
G1 X53.248 Y99.742 E103.08994
G1 X53.348 Y99.503 E103.10287
G1 X53.311 Y99.365 E103.10999
G1 X53.205 Y98.669 E103.14512
G1 X53.178 Y98.088 E103.17414
G1 X53.178 Y48.088 E105.66865
G1 X53.218 Y47.385 E105.70378
G1 X53.337 Y46.691 E105.7389
G1 X53.535 Y46.016 E105.774
G1 X53.807 Y45.367 E105.80911
G1 X54.152 Y44.753 E105.84424
G1 X54.563 Y44.182 E105.87934
G0 F3600 X54.96 Y44.33
G1 F1800 X55.431 Y43.839 E105.91329
G1 X55.956 Y43.405 E105.94727
G1 X56.528 Y43.036 E105.98123
G1 X57.14 Y42.737 E106.01521
G1 X57.782 Y42.512 E106.04915
G1 X58.447 Y42.363 E106.08315
G1 X59.378 Y42.288 E106.12975
G1 X145.878 Y42.288 E110.44525
G1 X146.558 Y42.328 E110.47924
G1 X147.228 Y42.447 E110.51319
G1 X147.88 Y42.644 E110.54717
G1 X148.504 Y42.916 E110.58113
G1 X149.092 Y43.26 E110.61511
G1 X149.636 Y43.67 E110.6491
G1 X150.127 Y44.141 E110.68304
G1 X150.561 Y44.666 E110.71703
G1 X150.93 Y45.238 E110.75099
G1 X151.229 Y45.85 E110.78497
G1 X151.454 Y46.492 E110.81891
G1 X151.603 Y47.157 E110.85291
G1 X151.678 Y48.088 E110.89951
G1 X151.678 Y98.088 E113.39402
G1 X151.638 Y98.768 E113.428
G1 X151.519 Y99.438 E113.46195
G1 X151.322 Y100.09 E113.49593
G1 X151.213 Y100.34 E113.50954
G1 X151.316 Y100.798 E113.53296
G1 X151.393 Y101.732 E113.57971
G1 X151.433 Y150.477 E116.01161
G1 X151.435 Y151.728 E116.07403
G1 X151.396 Y152.407 E116.10796
G1 X151.278 Y153.078 E116.14195
G1 X151.082 Y153.73 E116.17591
G1 X150.811 Y154.355 E116.2099
G1 X150.468 Y154.943 E116.24386
G1 X150.059 Y155.487 E116.27782
G1 X149.589 Y155.98 E116.3118
G1 X149.065 Y156.414 E116.34574
G1 X148.493 Y156.784 E116.37973
G1 X147.882 Y157.084 E116.41369
G1 X147.24 Y157.311 E116.44766
G1 X146.575 Y157.46 E116.48166
G1 X145.64 Y157.537 E116.52847
G1 X61.306 Y157.607 E120.73591
G1 X59.143 Y157.61 E120.84382
G1 X58.463 Y157.571 E120.8778
G1 X57.793 Y157.453 E120.91174
G1 X57.141 Y157.256 E120.94572
G1 X56.516 Y156.985 E120.97971
G1 X55.928 Y156.643 E121.01365
G1 X55.384 Y156.233 E121.04763
G1 X54.891 Y155.763 E121.08162
G1 X54.457 Y155.239 E121.11556
G1 X54.087 Y154.667 E121.14955
G1 X53.787 Y154.056 E121.18351
G1 X53.561 Y153.413 E121.21751
G1 X53.412 Y152.749 E121.25146
G1 X53.335 Y151.815 E121.29822
G1 X53.293 Y101.815 E123.79273
G1 X53.332 Y101.135 E123.82671
G1 X53.451 Y100.465 E123.86066
G1 X53.648 Y99.813 E123.89464
G1 X53.769 Y99.535 E123.90976
G1 X53.653 Y99.019 E123.93615
G1 X53.578 Y98.088 E123.98275
G1 X53.578 Y48.088 E126.47726
G1 X53.618 Y47.408 E126.51124
G1 X53.737 Y46.738 E126.54519
G1 X53.934 Y46.086 E126.57917
G1 X54.206 Y45.462 E126.61313
G1 X54.55 Y44.874 E126.64712
G1 X54.96 Y44.33 E126.68111
G0 F3600 X55.356 Y44.485
G1 F1800 X55.823 Y44.023 E126.71388
G1 X56.343 Y43.622 E126.74664
G1 X56.907 Y43.286 E126.77939
G1 X57.509 Y43.022 E126.81219
G1 X58.138 Y42.832 E126.84497
G1 X58.785 Y42.721 E126.87772
G1 X59.378 Y42.688 E126.90735
G1 X145.878 Y42.688 E131.22285
G1 X146.534 Y42.728 E131.25564
G1 X147.18 Y42.847 E131.28841
G1 X147.807 Y43.044 E131.3212
G1 X148.405 Y43.316 E131.35398
G1 X148.966 Y43.658 E131.38676
G1 X149.481 Y44.066 E131.41954
G1 X149.943 Y44.533 E131.45231
G1 X150.344 Y45.053 E131.48507
G1 X150.68 Y45.617 E131.51782
G1 X150.944 Y46.219 E131.55062
G1 X151.134 Y46.848 E131.5834
G1 X151.245 Y47.495 E131.61615
G1 X151.278 Y48.088 E131.64578
G1 X151.278 Y98.088 E134.14029
G1 X151.238 Y98.744 E134.17308
G1 X151.119 Y99.39 E134.20585
G1 X150.922 Y100.017 E134.23864
G1 X150.791 Y100.305 E134.25443
G1 X150.847 Y100.49 E134.26407
G1 X150.96 Y101.137 E134.29684
G1 X150.993 Y101.733 E134.32662
G1 X151.033 Y150.477 E136.75846
G1 X151.035 Y151.728 E136.82088
G1 X150.996 Y152.384 E136.85366
G1 X150.878 Y153.03 E136.88643
G1 X150.682 Y153.657 E136.9192
G1 X150.411 Y154.256 E136.952
G1 X150.07 Y154.818 E136.9848
