; generated by Slic3r 1.2.9 on 2018-06-24 at 14:46:26

; external perimeters extrusion width = 0.50mm
; perimeters extrusion width = 0.58mm
; infill extrusion width = 0.58mm
; solid infill extrusion width = 0.58mm
; top infill extrusion width = 0.58mm

M107
M190 S80 ; set bed temperature
M104 S225 ; set temperature
G28 ; home all axes
G1 Z5 F5000 ; lift nozzle

M109 S225 ; wait for temperature to be reached
G21 ; set units to millimeters
G90 ; use absolute coordinates
M82 ; use absolute distances for extrusion
G92 E0
G1 Z0.500 F7800.000
G1 E-2.00000 F2400.00000
G92 E0
G1 X71.533 Y74.561 F7800.000
G1 E2.00000 F2400.00000
G1 X76.467 Y69.954 E3.25272 F1800.000
G1 X77.091 Y69.436 E3.40315
G1 X77.673 Y69.010 E3.53702
G1 X78.752 Y68.264 E3.78057
G1 X79.448 Y67.849 E3.93098
G1 X85.442 Y64.743 E5.18370
G1 X86.183 Y64.413 E5.33413
G1 X86.858 Y64.160 E5.46800
G1 X88.099 Y63.732 E5.71157
G1 X88.881 Y63.521 E5.86196
G1 X95.491 Y62.148 E7.11468
G1 X96.293 Y62.030 E7.26511
G1 X97.580 Y61.929 E7.50472
G1 X98.322 Y61.891 E7.64262
G1 X99.132 Y61.898 E7.79294
G1 X105.867 Y62.359 E9.04566 F1800.000
G1 X106.671 Y62.462 E9.19604
G1 X107.380 Y62.596 E9.32995
G1 X108.662 Y62.876 E9.57349
G1 X109.441 Y63.102 E9.72392
G1 X115.802 Y65.362 E10.97664
G1 X116.548 Y65.678 E11.12707
G1 X117.700 Y66.261 E11.36668
G1 X118.354 Y66.614 E11.50449
G1 X119.042 Y67.042 E11.65490
G1 X124.557 Y70.935 E12.90762
G1 X125.191 Y71.440 E13.05805
G1 X126.159 Y72.327 E13.30158
G1 X126.677 Y72.828 E13.43545
G1 X127.225 Y73.426 E13.58588
G1 X131.485 Y78.662 E14.83860
G1 X131.959 Y79.320 E14.98902
G1 X132.275 Y79.819 E15.09870
G1 X133.016 Y81.058 E15.36642
G1 X133.382 Y81.781 E15.51686
G1 X136.071 Y87.973 E16.76957
G1 X136.350 Y88.734 E16.92001
G1 X136.899 Y90.693 E17.29748
G1 X137.056 Y91.487 E17.44780
G1 X137.975 Y98.175 E18.70052
G1 X138.038 Y98.983 E18.85091
G1 X138.050 Y99.704 E18.98482
G1 X138.038 Y101.017 E19.22835
G1 X137.975 Y101.825 E19.37878
G1 X137.056 Y108.513 E20.63150
G1 X136.898 Y109.308 E20.78194
G1 X136.716 Y110.006 E20.91580
G1 X136.350 Y111.266 E21.15941
G1 X136.071 Y112.027 E21.30976
G1 X133.382 Y118.219 E22.56248
G1 X133.015 Y118.942 E22.71292
G1 X132.355 Y120.052 E22.95252
G1 X131.959 Y120.680 E23.09035
G1 X131.485 Y121.338 E23.24074
G1 X127.225 Y126.574 E24.49346
G1 X126.677 Y127.172 E24.64389
G1 X126.253 Y127.584 E24.75362
G1 X125.191 Y128.560 E25.02132
G1 X124.557 Y129.065 E25.17172
G1 X119.042 Y132.958 E26.42444
G1 X118.354 Y133.386 E26.57488
G1 X116.548 Y134.322 E26.95223
G1 X115.802 Y134.638 E27.10267
G1 X109.441 Y136.898 E28.35539
G1 X108.662 Y137.124 E28.50581
G1 X107.938 Y137.287 E28.64353
G1 X106.671 Y137.538 E28.88321
G1 X105.867 Y137.641 E29.03365
G1 X99.132 Y138.102 E30.28637
G1 X98.322 Y138.109 E30.43680
G1 X97.012 Y138.032 E30.68032
G1 X96.293 Y137.970 E30.81420
G1 X95.491 Y137.852 E30.96463
G1 X88.881 Y136.479 E32.21735
G1 X88.099 Y136.268 E32.36778
G1 X86.858 Y135.840 E32.61131
G1 X86.183 Y135.587 E32.74520
G1 X85.442 Y135.257 E32.89561
G1 X79.448 Y132.151 E34.14833
G1 X78.752 Y131.736 E34.29876
G1 X78.263 Y131.405 E34.40844
G1 X77.090 Y130.564 E34.67616
G1 X76.467 Y130.046 E34.82658
G1 X71.533 Y125.439 E36.07930
G1 X70.974 Y124.851 E36.22974
G1 X69.691 Y123.274 E36.60715
G1 X69.230 Y122.607 E36.75754
G1 X65.722 Y116.839 E38.01025
G1 X65.342 Y116.123 E38.16069
G1 X65.044 Y115.467 E38.29455
G1 X64.532 Y114.258 E38.53810
G1 X64.268 Y113.492 E38.68852
G1 X62.447 Y106.991 E39.94123
G1 X62.274 Y106.199 E40.09166
G1 X62.086 Y104.921 E40.33135
G1 X61.997 Y104.184 E40.46911
G1 X61.950 Y103.375 E40.61949
G1 X61.950 Y96.625 E41.87221
G1 X61.997 Y95.815 E42.02264
G1 X62.164 Y94.514 E42.26617
G1 X62.274 Y93.801 E42.40005
G1 X62.447 Y93.009 E42.55047
G1 X64.268 Y86.508 E43.80319
G1 X64.532 Y85.742 E43.95362
G1 X64.808 Y85.076 E44.08749
G1 X65.342 Y83.877 E44.33105
G1 X65.722 Y83.161 E44.48145
G1 X69.230 Y77.393 E45.73417
G1 X69.691 Y76.726 E45.88460
G1 X70.136 Y76.159 E46.01848
G1 X70.974 Y75.149 E46.26200
G1 X71.481 Y74.616 E46.39852
G1 E44.39852 F2400.00000
G92 E0
G1 X107.625 Y119.961 F7800.000
G1 E2.00000 F2400.00000
G1 X106.910 Y120.860 E2.21322 F1800.000
G1 X106.091 Y121.666 E2.42644
G1 X105.179 Y122.367 E2.63994
G1 X104.089 Y123.000 E2.87380
G1 X103.194 Y123.379 E3.05416
G1 X102.556 Y123.463 E3.17352
G1 X101.411 Y123.561 E3.38679
G1 X100.055 Y123.614 E3.63869
G1 X98.409 Y123.561 E3.94425
G1 X97.262 Y123.463 E4.15785
G1 X96.628 Y123.379 E4.27661
G1 X95.738 Y123.016 E4.45500
G1 X95.353 Y122.815 E4.53563
G1 X94.631 Y122.374 E4.69251
G1 X93.852 Y121.787 E4.87353
G1 X93.143 Y121.127 E5.05325
G1 X92.911 Y120.878 E5.11638
G1 X92.497 Y120.387 E5.23560
G1 X92.257 Y120.068 E5.30976
G1 X91.933 Y119.587 E5.41730
G1 X91.696 Y119.190 E5.50314
G1 X91.455 Y118.733 E5.59901
G1 X91.236 Y118.255 E5.69653
G1 X91.068 Y117.834 E5.78072
G1 X90.881 Y117.276 E5.88992
G1 X90.777 Y116.899 E5.96243
G1 X90.635 Y116.254 E6.08509
G1 X90.505 Y115.223 E6.27779
G1 X90.490 Y114.180 E6.47144
G1 X90.590 Y113.141 E6.66509
G1 X90.804 Y112.120 E6.85871
G1 X91.124 Y111.143 E7.04958
G1 X91.526 Y110.251 E7.23104
G1 X92.017 Y109.406 E7.41237
G1 X92.593 Y108.617 E7.59370
G1 X93.248 Y107.892 E7.77503
G1 X93.974 Y107.238 E7.95636
G1 X94.764 Y106.663 E8.13769
G1 X95.610 Y106.173 E8.31902
G1 X96.501 Y105.773 E8.50035
G1 X97.426 Y105.468 E8.68106
G1 X98.129 Y105.306 E8.81489
G1 X98.617 Y105.232 E8.90657
G1 X99.115 Y105.340 E9.00115
G1 X99.365 Y105.358 E9.04772
G1 X100.877 Y105.310 E9.32841
G1 X101.205 Y105.231 E9.39097 F1800.000
G1 X101.814 Y105.330 E9.50547
G1 X102.175 Y105.412 E9.57427
G1 X103.164 Y105.715 E9.76622
G1 X104.122 Y106.129 E9.95988
G1 X105.029 Y106.646 E10.15353
G1 X105.872 Y107.261 E10.34718
G1 X106.643 Y107.964 E10.54083
G1 X107.331 Y108.749 E10.73448
G1 X107.675 Y109.242 E10.84600
G1 X107.928 Y109.605 E10.92813
G1 X108.427 Y110.521 E11.12179
G1 X108.821 Y111.488 E11.31544
G1 X109.106 Y112.491 E11.50909
G1 X109.280 Y113.524 E11.70346
G1 X109.321 Y114.567 E11.89706
G1 X109.256 Y115.708 E12.10925
G1 X109.046 Y116.839 E12.32265
G1 X108.701 Y117.935 E12.53586
G1 X108.225 Y118.981 E12.74908
G1 X107.664 Y119.897 E12.94838
G1 X107.827 Y120.418 F7800.000
G1 E10.94838 F2400.00000
G92 E0
G1 X108.085 Y108.956 F7800.000
G1 X106.977 Y105.790 F7800.000
G1 X105.684 Y103.536 F7800.000
G1 X103.894 Y103.980 F7800.000
G1 X103.716 Y104.010 F7800.000
G1 X102.701 Y104.212 F7800.000
G1 X102.191 Y103.595 F7800.000
G1 X101.069 Y103.570 F7800.000
G1 E2.00000 F2400.00000
G1 X100.145 Y103.747 E2.17462 F1800.000
G1 X99.206 Y103.687 E2.34924
G1 X98.311 Y103.397 E2.52386
G1 X97.516 Y102.892 E2.69848
G1 X96.872 Y102.207 E2.87311
G1 X96.419 Y101.382 E3.04773
G1 X96.185 Y100.470 E3.22235
G1 X96.185 Y99.529 E3.39697
G1 X96.419 Y98.618 E3.57159
G1 X96.872 Y97.793 E3.74621
G1 X97.516 Y97.108 E3.92083
G1 X98.313 Y96.602 E4.09586
G1 X99.237 Y96.311 E4.27571
G1 X100.145 Y96.253 E4.44453 F1800.000
G1 X101.069 Y96.430 E4.61915
G1 X101.921 Y96.830 E4.79377
G1 X102.646 Y97.430 E4.96839
G1 X103.199 Y98.192 E5.14302
G1 X103.545 Y99.066 E5.31764
G1 X103.663 Y100.000 E5.49226
G1 X103.545 Y100.934 E5.66688
G1 X103.210 Y101.779 E5.83570
G1 X102.647 Y102.568 E6.01555
G1 X101.921 Y103.170 E6.19058
G1 X101.137 Y103.538 E6.35128
G1 X100.945 Y104.055 F7800.000
G1 E4.35128 F2400.00000
G92 E0
G1 X95.950 Y101.567 F7800.000
G1 X94.686 Y100.790 F7800.000
G1 X94.873 Y100.324 F7800.000
G1 X95.108 Y99.736 F7800.000
G1 X94.690 Y99.339 F7800.000
G1 X94.732 Y98.521 F7800.000
G1 E2.00000 F2400.00000
G1 X94.316 Y99.006 E2.11850 F1800.000
G1 X93.936 Y99.406 E2.22094
G1 X93.203 Y100.062 E2.40345
G1 X92.411 Y100.634 E2.58473
G1 X91.565 Y101.121 E2.76598
G1 X90.672 Y101.517 E2.94723
G1 X89.743 Y101.819 E3.12848
G1 X88.788 Y102.023 E3.30973
G1 X87.817 Y102.128 E3.49099
G1 X86.840 Y102.131 E3.67224
G1 X85.871 Y102.033 E3.85291
G1 X85.133 Y101.890 E3.99248
G1 X84.120 Y101.590 E4.18856
G1 X83.143 Y101.177 E4.38536
G1 X82.237 Y100.667 E4.57832
G1 X81.440 Y100.100 E4.75972
G1 X80.708 Y99.454 E4.94098
G1 X80.046 Y98.736 E5.12223
G1 X79.462 Y97.953 E5.30348
G1 X78.962 Y97.114 E5.48473
G1 X78.552 Y96.227 E5.66598
G1 X78.236 Y95.303 E5.84723
G1 X78.018 Y94.355 E6.02778
G1 X77.922 Y93.659 E6.15816
G1 X77.875 Y92.610 E6.35312
G1 X77.907 Y91.941 E6.47724
G1 X78.021 Y91.157 E6.62427
G1 X78.347 Y90.378 E6.78107
G1 X78.755 Y89.518 E6.95779
G1 X79.532 Y88.067 E7.26310
G1 X80.256 Y86.920 E7.51483
G1 X80.824 Y86.098 E7.70028
G1 X81.307 Y85.465 E7.84810
G1 X81.968 Y84.950 E8.00357
G1 X82.604 Y84.550 E8.14296
G1 X83.171 Y84.250 E8.26198
G1 X83.586 Y84.060 E8.34677
G1 X84.148 Y83.840 E8.45870
G1 X84.615 Y83.688 E8.54977
G1 X85.165 Y83.542 E8.65543
G1 X85.679 Y83.438 E8.75276
G1 X86.214 Y83.360 E8.85302
G1 X87.046 Y83.304 E9.00778 F1800.000
G1 X87.855 Y83.314 E9.15793
G1 X88.325 Y83.354 E9.24551
G1 X88.945 Y83.443 E9.36165
G1 X89.371 Y83.529 E9.44223
G1 X90.009 Y83.696 E9.56465
G1 X90.390 Y83.820 E9.63895
G1 X91.036 Y84.071 E9.76764
G1 X91.373 Y84.225 E9.83646
G1 X92.290 Y84.729 E10.03051
G1 X92.935 Y85.170 E10.17554
G1 X93.769 Y85.871 E10.37785
G1 X94.520 Y86.668 E10.58095
G1 X95.173 Y87.546 E10.78405
G1 X95.719 Y88.495 E10.98715
G1 X96.152 Y89.500 E11.19025
G1 X96.466 Y90.548 E11.39335
G1 X96.656 Y91.628 E11.59687
G1 X96.709 Y92.714 E11.79849
G1 X96.687 Y93.523 E11.94869
G1 X96.583 Y94.324 E12.09860
G1 X96.482 Y94.825 E12.19350
G1 X96.319 Y95.439 E12.31137
G1 X96.030 Y96.259 E12.47264
G1 X95.790 Y96.512 E12.53744
G1 X95.339 Y97.134 E12.67992
G1 X94.846 Y98.129 E12.88599
G1 X94.753 Y98.449 E12.94785
G1 X94.963 Y98.964 F7800.000
G1 E10.94785 F2400.00000
G92 E0
G1 X94.904 Y86.346 F7800.000
G1 X93.615 Y84.220 F7800.000
G1 X87.792 Y81.374 F7800.000
G1 X88.324 Y78.940 F7800.000
G1 X89.180 Y78.116 F7800.000
G1 X89.857 Y77.686 F7800.000
G1 X90.066 Y77.532 F7800.000
G1 X90.080 Y77.520 F7800.000
G1 X90.112 Y77.492 F7800.000
G1 X90.202 Y77.501 F7800.000
G1 E2.00000 F2400.00000
G1 X90.450 Y76.408 E2.20803 F1800.000
G1 X90.426 Y75.805 E2.32004
G1 X90.278 Y75.322 E2.41376
G1 X90.077 Y74.873 E2.50494
G1 X89.968 Y74.467 E2.58307
G1 X89.831 Y73.163 E2.82641
G1 X89.866 Y71.841 E3.07170
G1 X90.660 Y72.663 E3.28371
G1 X91.382 Y73.689 E3.51649
G1 X91.607 Y74.118 E3.60655
G1 X91.672 Y74.280 E3.63878
G1 X91.806 Y74.779 E3.73469
G1 X91.996 Y75.247 E3.82842
G1 X92.354 Y75.725 E3.93928
G1 X93.226 Y76.420 E4.14621
G1 X91.662 Y76.922 E4.45100
G1 X90.272 Y77.473 E4.72861
G1 X96.642 Y75.715 F7800.000
G1 X97.168 Y74.725 E4.93658 F1800.000
G1 X97.305 Y74.143 E5.04744
G1 X97.293 Y73.638 E5.14117
G1 X97.221 Y73.153 E5.23234
G1 X97.226 Y72.732 E5.31047
G1 X97.446 Y71.439 E5.55382
G1 X97.836 Y70.176 E5.79910
G1 X98.346 Y71.120 E5.99824
G1 X98.798 Y72.369 E6.24472
G1 X98.898 Y72.838 E6.33380
G1 X98.917 Y73.011 E6.36603
G1 X98.911 Y73.528 E6.46194
G1 X98.968 Y74.030 E6.55567
G1 X99.184 Y74.587 E6.66652
G1 X99.837 Y75.493 E6.87392
G1 X98.194 Y75.552 E7.17912
G1 X96.717 Y75.707 E7.45466
G1 X89.475 Y78.811 F7800.000
G1 X90.429 Y78.371 E7.64950 F1800.000
G1 X91.963 Y77.762 E7.95590
G1 X93.459 Y77.283 E8.24731
G1 X95.037 Y76.893 E8.54903
G1 X96.639 Y76.613 E8.85078
G1 X98.256 Y76.443 E9.15253
G1 X99.881 Y76.385 E9.45433
G1 X101.562 Y76.443 E9.76641
G1 X103.180 Y76.613 E10.06822
G1 X104.781 Y76.893 E10.36993
G1 X106.306 Y77.268 E10.66134
G1 X107.855 Y77.762 E10.96302
G1 X109.390 Y78.371 E11.26949
G1 X110.352 Y78.815 E11.46612
G1 X110.491 Y79.541 E11.60322
G1 X110.460 Y80.036 E11.69520
G1 X110.296 Y80.509 E11.78812
G1 X110.011 Y80.921 E11.88105
G1 X109.627 Y81.242 E11.97398
G1 X109.212 Y81.429 E12.05847
G1 X108.174 Y81.789 E12.26238
G1 X107.208 Y82.225 E12.45896
G1 X106.748 Y82.470 E12.55572
G1 X106.297 Y82.738 E12.65299
G1 X105.643 Y83.177 E12.79915
G1 X104.614 Y84.011 E13.04509
G1 X103.868 Y84.752 E13.24010
G1 X103.186 Y85.562 E13.43669
G1 X102.878 Y85.983 E13.53344
G1 X102.587 Y86.419 E13.63072
G1 X102.188 Y87.098 E13.77688
G1 X101.603 Y88.336 E14.03101
G1 X101.386 Y88.718 E14.11253
G1 X101.043 Y89.064 E14.20284
G1 X100.622 Y89.308 E14.29314
G1 X100.153 Y89.435 E14.38344
G1 X99.666 Y89.435 E14.47375
G1 X99.196 Y89.308 E14.56405
G1 X98.775 Y89.064 E14.65435
G1 X98.433 Y88.718 E14.74466
G1 X98.214 Y88.334 E14.82670
G1 X97.756 Y87.336 E15.03044
G1 X97.230 Y86.417 E15.22702
G1 X96.941 Y85.983 E15.32377
G1 X96.631 Y85.560 E15.42105
G1 X96.131 Y84.952 E15.56721
G1 X95.201 Y84.007 E15.81314
G1 X94.392 Y83.337 E16.00816
G1 X93.519 Y82.736 E16.20474
G1 X93.071 Y82.470 E16.30150
G1 X92.608 Y82.223 E16.39878
G1 X91.894 Y81.892 E16.54493
G1 X90.606 Y81.429 E16.79889
G1 X90.216 Y81.256 E16.87801
G1 X89.846 Y80.962 E16.96572
G1 X89.563 Y80.583 E17.05344
G1 X89.385 Y80.145 E17.14116
G1 X89.325 Y79.687 E17.22698
G1 X89.352 Y79.364 E17.28708
G1 X89.459 Y78.884 E17.37829
G1 X89.369 Y78.323 F7800.000
G1 X96.556 Y76.120 F7800.000
G1 X99.954 Y75.460 F7800.000
G1 X101.630 Y75.691 F7800.000
G1 X102.619 Y75.745 F7800.000
G1 X103.232 Y75.678 F7800.000
G1 X103.233 Y75.678 F7800.000
G1 X103.325 Y75.658 F7800.000
G1 X103.319 Y75.731 F7800.000
G1 X104.089 Y74.922 E17.58544 F1800.000
G1 X104.378 Y74.400 E17.69631
G1 X104.503 Y73.910 E17.79003
G1 X104.564 Y73.423 E17.88120
G1 X104.682 Y73.019 E17.95934
G1 X105.243 Y71.833 E18.20268
G1 X105.959 Y70.722 E18.44797
G1 X106.211 Y71.837 E18.65997
G1 X106.294 Y73.088 E18.89276
G1 X106.263 Y73.573 E18.98281
G1 X106.236 Y73.744 E19.01505
G1 X106.090 Y74.240 E19.11096
G1 X106.010 Y74.739 E19.20468
G1 X106.067 Y75.334 E19.31555
G1 X106.452 Y76.385 E19.52338
G1 X104.965 Y76.019 E19.80764
G1 X103.392 Y75.744 E20.10391
G1 X108.548 Y77.217 F7800.000
G1 X112.029 Y79.131 F7800.000
G1 X111.338 Y81.783 F7800.000
G1 X106.642 Y83.914 F7800.000
G1 X103.581 Y87.041 F7800.000
G1 X102.602 Y88.972 F7800.000
G1 X102.047 Y90.031 F7800.000
G1 X101.862 Y90.339 F7800.000
G1 X101.466 Y90.891 F7800.000
G1 X101.447 Y90.935 F7800.000
G1 X101.321 Y92.310 E20.36000 F1800.000
G1 X101.343 Y93.537 E20.58781
G1 X101.492 Y94.693 E20.80405
G1 X100.258 Y94.457 E21.03712
G1 X98.908 Y94.542 E21.28821
G1 X98.331 Y94.724 E21.40035
G1 X98.469 Y93.663 E21.59895
G1 X98.496 Y92.695 E21.77861
G1 X98.434 Y91.429 E22.01383
G1 X98.346 Y90.928 E22.10819
G1 X99.430 Y91.220 E22.31649
G1 X100.389 Y91.220 E22.49456
G1 X101.374 Y90.955 E22.68388
G1 X106.642 Y83.914 F7800.000
G1 X109.618 Y82.532 F7800.000
G1 X110.691 Y82.109 F7800.000
G1 X111.285 Y81.814 F7800.000
G1 X111.766 Y81.534 F7800.000
G1 X111.835 Y81.495 F7800.000
G1 X111.826 Y81.547 F7800.000
G1 X112.326 Y80.101 E22.96778 F1800.000
G1 X112.884 Y80.595 E23.10604
G1 X113.719 Y81.185 E23.29574
G1 X113.582 Y81.568 E23.37133
G1 X112.947 Y81.521 E23.48943
G1 X112.243 Y81.521 E23.61998
G1 X111.901 Y81.542 E23.68370
G1 X116.215 Y81.746 F7800.000
G1 X117.202 Y81.489 E23.87300 F1800.000
G1 X117.010 Y82.463 E24.05724
G1 X116.190 Y82.132 E24.22131
G1 X116.210 Y81.820 E24.27924
G1 X112.276 Y80.036 F7800.000
G1 X111.791 Y78.015 F7800.000
G1 X108.265 Y77.109 F7800.000
G1 X102.543 Y75.747 F7800.000
G1 X100.035 Y75.484 F7800.000
G1 X96.447 Y75.729 F7800.000
G1 X90.504 Y77.134 F7800.000
G1 X88.324 Y78.940 F7800.000
G1 X86.949 Y80.531 F7800.000
G1 X87.212 Y80.974 F7800.000
G1 X87.792 Y81.374 F7800.000
G1 X87.925 Y81.461 F7800.000
G1 X87.998 Y81.507 F7800.000
G1 X88.021 Y81.531 F7800.000
G1 X86.997 Y81.518 E24.46931 F1800.000
G1 X86.025 Y81.584 E24.65005
G1 X84.993 Y81.733 E24.84363
G1 X85.205 Y81.299 E24.93337
G1 X85.367 Y80.488 E25.08684
G1 X85.298 Y79.300 E25.30764
G1 X86.394 Y79.763 E25.52844
G1 X87.212 Y79.882 E25.68191
G1 X87.545 Y79.844 E25.74400
G1 X87.645 Y80.606 E25.88651
G1 X87.993 Y81.461 E26.05791
G1 X88.605 Y78.613 F7800.000
