; generated by Slic3r 1.2.9 on 2018-06-24 at 14:43:00

; external perimeters extrusion width = 0.50mm
; perimeters extrusion width = 0.58mm
; infill extrusion width = 0.58mm
; solid infill extrusion width = 0.58mm
; top infill extrusion width = 0.58mm

M107
M190 S80 ; set bed temperature
M104 S225 ; set temperature
G28 ; home all axes
G1 Z5 F5000 ; lift nozzle

M109 S225 ; wait for temperature to be reached
G21 ; set units to millimeters
G90 ; use absolute coordinates
M82 ; use absolute distances for extrusion
G92 E0
G1 Z0.500 F7800.000
G1 E-2.00000 F2400.00000
G92 E0
G1 X58.004 Y58.004 F7800.000
G1 E2.00000 F2400.00000
G1 X59.079 Y56.970 E2.27675 F1800.000
G1 X63.901 Y52.851 E3.45367
G1 X64.259 Y52.565 E3.53864
G1 X65.347 Y51.765 E3.78924
G1 X66.314 Y51.098 E4.00722
G1 X71.721 Y47.784 E5.18414
G1 X72.755 Y47.225 E5.40212
G1 X73.961 Y46.620 E5.65272
G1 X74.378 Y46.430 E5.73769
G1 X80.238 Y44.003 E6.91461
G1 X81.346 Y43.613 E7.13260
G1 X82.633 Y43.203 E7.38325
G1 X83.074 Y43.082 E7.46817
G1 X89.241 Y41.601 E8.64508
G1 X90.314 Y41.403 E8.84763
G1 X91.731 Y41.186 E9.11367
G1 X92.186 Y41.135 E9.19864
G1 X98.509 Y40.637 E10.37555
G1 X98.967 Y40.617 E10.46056
G1 X100.400 Y40.609 E10.72656
G1 X101.491 Y40.637 E10.92911 F1800.000
G1 X107.814 Y41.135 E12.10603
G1 X108.896 Y41.277 E12.30856
G1 X110.310 Y41.509 E12.57458
G1 X110.759 Y41.601 E12.65959
G1 X116.926 Y43.082 E13.83650
G1 X117.368 Y43.204 E13.92151
G1 X118.633 Y43.606 E14.16787
G1 X119.762 Y44.003 E14.39006
G1 X125.622 Y46.430 E15.56697
G1 X126.681 Y46.938 E15.78496
G1 X127.881 Y47.558 E16.03556
G1 X128.279 Y47.784 E16.12053
G1 X133.686 Y51.098 E17.29744
G1 X134.653 Y51.765 E17.51542
G1 X135.741 Y52.565 E17.76599
G1 X136.099 Y52.851 E17.85100
G1 X140.921 Y56.970 E19.02791
G1 X141.772 Y57.780 E19.24590
G1 X142.721 Y58.740 E19.49645
G1 X143.030 Y59.079 E19.58147
G1 X147.149 Y63.901 E20.75839
G1 X147.435 Y64.259 E20.84340
G1 X148.283 Y65.414 E21.10929
G1 X148.902 Y66.314 E21.31194
G1 X152.216 Y71.721 E22.48886
G1 X152.442 Y72.120 E22.57386
G1 X153.099 Y73.393 E22.83987
G1 X153.570 Y74.378 E23.04242
G1 X155.997 Y80.238 E24.21933
G1 X156.354 Y81.245 E24.41768
G1 X156.796 Y82.632 E24.68787
G1 X156.918 Y83.074 E24.77289
G1 X158.399 Y89.241 E25.94981
G1 X158.597 Y90.315 E26.15246
G1 X158.814 Y91.731 E26.41833
G1 X158.865 Y92.186 E26.50336
G1 X159.363 Y98.509 E27.68028
G1 X159.384 Y98.967 E27.76528
G1 X159.392 Y100.317 E28.01585
G1 X159.363 Y101.491 E28.23383
G1 X158.865 Y107.814 E29.41075
G1 X158.814 Y108.269 E29.49577
G1 X158.597 Y109.686 E29.76176
G1 X158.399 Y110.759 E29.96431
G1 X156.918 Y116.926 E31.14122
G1 X156.608 Y117.974 E31.34399
G1 X156.158 Y119.333 E31.60977
G1 X155.997 Y119.762 E31.69478
G1 X153.570 Y125.622 E32.87170
G1 X153.062 Y126.681 E33.08968
G1 X152.442 Y127.880 E33.34024
G1 X152.216 Y128.279 E33.42525
G1 X148.902 Y133.686 E34.60217
G1 X148.283 Y134.586 E34.80482
G1 X147.435 Y135.741 E35.07073
G1 X147.149 Y136.099 E35.15572
G1 X143.030 Y140.921 E36.33264
G1 X142.220 Y141.772 E36.55062
G1 X141.260 Y142.721 E36.80118
G1 X140.921 Y143.030 E36.88620
G1 X136.099 Y147.149 E38.06311
G1 X135.741 Y147.435 E38.14812
G1 X134.653 Y148.235 E38.39869
G1 X133.686 Y148.902 E38.61667
G1 X128.279 Y152.216 E39.79358
G1 X127.880 Y152.442 E39.87860
G1 X126.701 Y153.052 E40.12495
G1 X125.622 Y153.570 E40.34714
G1 X119.762 Y155.997 E41.52405
G1 X118.654 Y156.387 E41.74205
G1 X117.368 Y156.796 E41.99259
G1 X116.926 Y156.918 E42.07761
G1 X110.759 Y158.399 E43.25453
G1 X110.310 Y158.491 E43.33953
G1 X108.896 Y158.722 E43.60551
G1 X107.814 Y158.865 E43.80809
G1 X101.491 Y159.363 E44.98500
G1 X100.400 Y159.391 E45.18755
G1 X98.967 Y159.384 E45.45355
G1 X98.509 Y159.363 E45.53856
G1 X92.186 Y158.865 E46.71547
G1 X91.022 Y158.710 E46.93345
G1 X89.690 Y158.491 E47.18403
G1 X89.241 Y158.399 E47.26903
G1 X83.074 Y156.918 E48.44594
G1 X82.632 Y156.796 E48.53095
G1 X81.346 Y156.387 E48.78150
G1 X80.238 Y155.997 E48.99950
G1 X74.378 Y153.570 E50.17642
G1 X73.961 Y153.380 E50.26142
G1 X72.681 Y152.736 E50.52743
G1 X71.721 Y152.216 E50.72997
G1 X66.314 Y148.902 E51.90689
G1 X65.414 Y148.283 E52.10954
G1 X64.259 Y147.435 E52.37544
G1 X63.901 Y147.149 E52.46045
G1 X59.079 Y143.030 E53.63736
G1 X58.286 Y142.278 E53.84004
G1 X57.279 Y141.260 E54.10591
G1 X56.970 Y140.921 E54.19092
G1 X52.851 Y136.099 E55.36784
G1 X52.124 Y135.148 E55.58996
G1 X51.350 Y134.069 E55.83639
G1 X51.098 Y133.686 E55.92139
G1 X47.784 Y128.279 E57.09831
G1 X47.264 Y127.319 E57.30087
G1 X46.620 Y126.039 E57.56686
G1 X46.430 Y125.622 E57.65186
G1 X44.003 Y119.762 E58.82878
G1 X43.606 Y118.633 E59.05094
G1 X43.204 Y117.368 E59.29733
G1 X43.082 Y116.926 E59.38233
G1 X41.601 Y110.759 E60.55925
G1 X41.509 Y110.310 E60.64425
G1 X41.290 Y108.978 E60.89481
G1 X41.135 Y107.814 E61.11280
G1 X40.637 Y101.491 E62.28972
G1 X40.608 Y100.317 E62.50770
G1 X40.617 Y98.966 E62.75832
G1 X40.637 Y98.509 E62.84328
G1 X41.135 Y92.186 E64.02019
G1 X41.290 Y91.022 E64.23818
G1 X41.509 Y89.690 E64.48875
G1 X41.601 Y89.241 E64.57375
G1 X43.082 Y83.074 E65.75066
G1 X43.204 Y82.632 E65.83567
G1 X43.639 Y81.267 E66.10167
G1 X44.003 Y80.238 E66.30422
G1 X46.430 Y74.378 E67.48114
G1 X46.620 Y73.961 E67.56615
G1 X47.264 Y72.681 E67.83215
G1 X47.784 Y71.721 E68.03469
G1 X51.098 Y66.314 E69.21161
G1 X51.716 Y65.414 E69.41416
G1 X52.565 Y64.259 E69.68016
G1 X52.851 Y63.901 E69.76517
G1 X56.970 Y59.079 E70.94208
G1 X57.951 Y58.057 E71.20492
G1 E69.20492 F2400.00000
G92 E0
G1 X105.401 Y105.879 F7800.000
G1 E2.00000 F2400.00000
G1 X106.947 Y106.378 E2.30136 F1800.000
G1 X108.272 Y106.922 E2.56721
G1 X109.191 Y107.367 E2.75675
G1 X109.565 Y107.564 E2.83523
G1 X110.796 Y108.290 E3.10037
G1 X111.975 Y109.105 E3.36632
G1 X112.847 Y109.791 E3.57220
G1 X113.933 Y110.767 E3.84322
G1 X114.947 Y111.821 E4.11465
G1 X115.882 Y112.946 E4.38608
G1 X116.732 Y114.137 E4.65751
G1 X117.493 Y115.386 E4.92894
G1 X118.161 Y116.687 E5.20037
G1 X118.732 Y118.034 E5.47180
G1 X119.204 Y119.418 E5.74323
G1 X119.573 Y120.833 E6.01466
G1 X119.839 Y122.272 E6.28610
G1 X119.999 Y123.728 E6.55802
G1 X120.037 Y125.189 E6.82916
G1 X119.990 Y126.620 E7.09486
G1 X119.837 Y128.047 E7.36121
G1 X119.581 Y129.459 E7.62739
G1 X119.226 Y130.848 E7.89358
G1 X118.771 Y132.209 E8.15977
G1 X118.223 Y133.529 E8.42496
G1 X117.576 Y134.819 E8.69280
G1 X116.844 Y136.048 E8.95832
G1 X116.026 Y137.222 E9.22385
G1 X115.489 Y137.906 E9.38514
G1 X115.118 Y138.344 E9.49173
G1 X114.142 Y139.388 E9.75691
G1 X113.092 Y140.362 E10.02278
G1 X112.191 Y141.095 E10.23817
G1 X110.944 Y141.978 E10.52180
G1 X109.630 Y142.764 E10.80585
G1 X108.271 Y143.443 E11.08786
G1 X106.849 Y144.022 E11.37272
G1 X105.694 Y144.405 E11.59849
G1 X105.037 Y144.572 E11.72442
G1 X104.075 Y144.675 E11.90387
G1 X102.311 Y144.797 E12.23195
G1 X99.793 Y144.863 E12.69943
G1 X97.687 Y144.797 E13.09042
G1 X95.925 Y144.675 E13.41826
G1 X94.957 Y144.572 E13.59889
G1 X93.584 Y144.185 E13.86360
G1 X92.058 Y143.599 E14.16699
G1 X91.721 Y143.450 E14.23535
G1 X90.728 Y142.966 E14.44035
G1 X89.458 Y142.244 E14.71137
G1 X88.243 Y141.431 E14.98280
G1 X87.090 Y140.530 E15.25423
G1 X86.006 Y139.548 E15.52566
G1 X84.996 Y138.490 E15.79709
G1 X84.066 Y137.361 E16.06852
G1 X83.221 Y136.167 E16.33995
G1 X82.466 Y134.915 E16.61138
G1 X81.803 Y133.611 E16.88281
G1 X81.238 Y132.262 E17.15424
G1 X80.772 Y130.875 E17.42567
G1 X80.409 Y129.461 E17.69667
G1 X80.153 Y128.048 E17.96302
G1 X80.000 Y126.621 E18.22934
G1 X79.948 Y125.187 E18.49567
G1 X80.000 Y123.753 E18.76199
G1 X80.153 Y122.326 E19.02832
G1 X80.409 Y120.914 E19.29464
G1 X80.765 Y119.523 E19.56097
G1 X81.035 Y118.713 E19.71951
G1 X81.219 Y118.162 E19.82729
G1 X81.770 Y116.837 E20.09362
G1 X82.414 Y115.554 E20.35994
G1 X83.148 Y114.321 E20.62627
G1 X83.968 Y113.143 E20.89259
G1 X84.871 Y112.028 E21.15892
G1 X85.846 Y110.984 E21.42403
G1 X86.133 Y110.704 E21.49843
G1 X87.221 Y109.736 E21.76861
G1 X88.379 Y108.847 E22.03950
G1 X89.206 Y108.289 E22.22475
G1 X90.440 Y107.561 E22.49056
G1 X91.720 Y106.925 E22.75584
G1 X92.212 Y106.710 E22.85546
G1 X93.571 Y106.194 E23.12514
G1 X94.420 Y105.928 E23.29021
G1 X95.808 Y105.579 E23.55590
G1 X97.217 Y105.330 E23.82129
G1 X97.854 Y105.251 E23.94048
G1 X98.566 Y105.191 E24.07307
G1 X99.117 Y105.325 E24.17826
G1 X100.136 Y105.394 E24.36779
G1 X100.988 Y105.307 E24.52688
G1 X101.445 Y105.185 E24.61465 F1800.000
G1 X102.780 Y105.329 E24.86370
G1 X104.189 Y105.578 E25.12922
G1 X105.329 Y105.859 E25.34715
G1 X105.764 Y105.535 F7800.000
G1 X112.450 Y107.263 F7800.000
G1 X112.698 Y106.835 E25.43892 F1800.000
G1 X113.291 Y107.117 E25.56093
G1 X113.881 Y107.347 E25.67847
G1 X113.412 Y107.964 E25.82223
G1 X113.036 Y107.668 E25.91096
G1 X112.512 Y107.305 E26.02930
G1 X109.224 Y105.383 F7800.000
G1 X107.566 Y104.702 E26.36198 F1800.000
G1 X106.107 Y104.221 E26.64706
G1 X105.549 Y104.067 E26.75448
G1 X104.551 Y103.829 E26.94474
G1 X104.090 Y103.748 E27.03167
G1 X104.881 Y102.639 E27.28440
G1 X105.425 Y101.265 E27.55858
G1 X105.711 Y101.614 E27.64225
G1 X106.794 Y102.755 E27.93425
G1 X107.958 Y103.814 E28.22625
G1 X109.197 Y104.784 E28.51826
G1 X109.452 Y104.955 E28.57528
G1 X109.260 Y105.316 E28.65121
G1 X113.942 Y109.576 F7800.000
G1 X113.422 Y109.108 E28.78107 F1800.000
G1 X112.506 Y108.386 E28.99750
G1 X111.277 Y107.537 E29.27463
G1 X110.001 Y106.785 E29.54953
G1 X108.636 Y106.106 E29.83234
G1 X107.256 Y105.540 E30.10920
G1 X105.848 Y105.076 E30.38436
G1 X105.326 Y104.932 E30.48482
G1 X104.370 Y104.704 E30.66721
G1 X102.906 Y104.445 E30.94318
G1 X101.990 Y104.346 E31.11404
G1 X103.397 Y103.182 E31.45289
G1 X104.091 Y102.209 E31.67460
G1 X104.508 Y101.157 E31.88455
G1 X104.654 Y100.000 E32.10103
G1 X104.572 Y99.350 E32.22259
G1 X104.962 Y99.199 E32.30030
G1 X105.425 Y99.856 E32.44950
G1 X106.380 Y101.023 E32.72936
G1 X107.419 Y102.117 E33.00921
G1 X108.535 Y103.131 E33.28907
G1 X109.722 Y104.061 E33.56893
G1 X110.974 Y104.902 E33.84878
G1 X112.284 Y105.649 E34.12864
G1 X113.646 Y106.297 E34.40849
G1 X115.051 Y106.845 E34.68835
G1 X115.609 Y107.016 E34.79666
G1 X114.732 Y107.704 E35.00355
G1 X114.308 Y108.261 E35.13333
G1 X114.038 Y108.906 E35.26310
G1 X113.953 Y109.502 E35.37478
G1 X103.205 Y101.914 F7800.000
G1 X102.738 Y102.568 E35.52386 F1800.000
G1 X102.011 Y103.170 E35.69889
G1 X101.160 Y103.570 E35.87351
G1 X100.236 Y103.747 E36.04813
G1 X99.297 Y103.687 E36.22275
G1 X98.402 Y103.397 E36.39737
G1 X97.607 Y102.892 E36.57199
G1 X96.963 Y102.207 E36.74662
G1 X96.510 Y101.382 E36.92124
G1 X96.276 Y100.471 E37.09586
G1 X96.276 Y99.530 E37.27048
G1 X96.510 Y98.618 E37.44510
G1 X96.963 Y97.793 E37.61972
G1 X97.607 Y97.108 E37.79434
G1 X98.403 Y96.602 E37.96937
G1 X99.328 Y96.311 E38.14922
G1 X100.236 Y96.253 E38.31804 F1800.000
G1 X101.160 Y96.430 E38.49266
G1 X102.011 Y96.830 E38.66728
G1 X102.737 Y97.430 E38.84191
G1 X103.290 Y98.192 E39.01653
G1 X103.636 Y99.066 E39.19115
G1 X103.754 Y100.000 E39.36577
G1 X103.636 Y100.934 E39.54039
G1 X103.301 Y101.779 E39.70921
G1 X103.248 Y101.853 E39.72606
G1 X103.412 Y102.369 F7800.000
G1 E37.72606 F2400.00000
G92 E0
G1 X97.286 Y103.281 F7800.000
G1 X92.228 Y104.272 F7800.000
G1 X89.520 Y105.839 F7800.000
G1 X88.581 Y106.377 F7800.000
G1 X88.154 Y106.627 F7800.000
G1 X88.108 Y106.654 F7800.000
G1 X87.234 Y107.154 F7800.000
G1 X87.490 Y107.278 F7800.000
G1 E2.00000 F2400.00000
G1 X86.591 Y107.968 E2.21028 F1800.000
G1 X86.119 Y107.347 E2.35508
G1 X86.779 Y107.087 E2.48687
G1 X87.238 Y106.867 E2.58120
G1 X87.451 Y107.214 E2.65690
G1 X90.772 Y105.391 F7800.000
G1 X90.537 Y104.961 E2.74790 F1800.000
G1 X90.817 Y104.774 E2.81035
G1 X92.045 Y103.811 E3.09990
G1 X93.196 Y102.765 E3.38853
G1 X94.205 Y101.705 E3.66015
G1 X94.621 Y101.204 E3.78095
G1 X94.836 Y102.044 E3.94205
G1 X95.507 Y103.264 E4.20039
G1 X95.954 Y103.740 E4.32149
G1 X95.435 Y103.832 E4.41929
G1 X93.934 Y104.209 E4.70642
G1 X92.986 Y104.507 E4.89077
G1 X91.538 Y105.056 E5.17835
G1 X90.841 Y105.361 E5.31939
G1 X86.058 Y109.576 F7800.000
G1 X85.962 Y108.906 E5.44500 F1800.000
G1 X85.692 Y108.261 E5.57478
G1 X85.268 Y107.704 E5.70455
G1 X84.388 Y107.014 E5.91210
G1 X85.032 Y106.816 E6.03711
G1 X86.422 Y106.268 E6.31430
G1 X87.766 Y105.623 E6.59093
G1 X88.981 Y104.926 E6.85089
G1 X90.293 Y104.050 E7.14360
G1 X91.468 Y103.129 E7.42078
G1 X92.571 Y102.126 E7.69741
G1 X93.537 Y101.111 E7.95738
G1 X94.544 Y99.897 E8.25009
G1 X95.010 Y99.240 E8.39957
G1 X95.383 Y99.358 E8.47226
G1 X95.383 Y100.583 E8.69957
G1 X95.673 Y101.713 E8.91605
G1 X96.235 Y102.735 E9.13253
G1 X97.034 Y103.586 E9.34900
G1 X98.177 Y104.312 E9.60037
G1 X97.084 Y104.447 E9.80478
G1 X95.622 Y104.705 E10.08038
G1 X94.177 Y105.069 E10.35679
G1 X93.279 Y105.351 E10.53150
G1 X91.875 Y105.883 E10.81013
G1 X91.343 Y106.116 E10.91791
G1 X90.014 Y106.776 E11.19317
G1 X88.730 Y107.533 E11.46993
G1 X87.857 Y108.122 E11.66527
G1 X86.651 Y109.047 E11.94728
G1 X86.114 Y109.526 E12.08089
G1 X98.360 Y94.744 F7800.000
G1 X98.766 Y93.543 E12.31620 F1800.000
G1 X99.156 Y92.037 E12.60483
G1 X99.436 Y90.507 E12.89347
G1 X99.605 Y88.961 E13.18211
G1 X99.661 Y87.404 E13.47110
G1 X99.600 Y85.781 E13.77250
G1 X99.432 Y84.306 E14.04805
G1 X100.000 Y84.379 E14.15438
G1 X100.571 Y84.306 E14.26128
G1 X100.413 Y85.621 E14.50712
G1 X100.341 Y87.155 E14.79214
G1 X100.381 Y88.764 E15.09073
G1 X100.539 Y90.331 E15.38311
G1 X100.794 Y91.790 E15.65789
G1 X101.193 Y93.403 E15.96616
G1 X101.622 Y94.700 E16.21984
G1 X100.349 Y94.457 E16.46047
G1 X98.998 Y94.542 E16.71155
G1 X98.431 Y94.721 E16.82187
G1 X97.141 Y96.346 F7800.000
G1 X96.840 Y96.091 E16.89506 F1800.000
G1 X97.432 Y94.702 E17.17516
G1 X97.910 Y93.287 E17.45235
G1 X98.284 Y91.844 E17.72898
G1 X98.552 Y90.378 E18.00561
G1 X98.714 Y88.896 E18.28224
G1 X98.768 Y87.405 E18.55909
G1 X98.709 Y85.849 E18.84807
G1 X98.533 Y84.301 E19.13727
G1 X98.279 Y82.977 E19.38732
G1 X99.306 Y83.390 E19.59281
G1 X100.000 Y83.479 E19.72258
G1 X100.694 Y83.390 E19.85235
G1 X101.722 Y82.977 E20.05809
G1 X101.483 Y84.198 E20.28902
G1 X101.303 Y85.695 E20.56888
G1 X101.235 Y87.165 E20.84190
G1 X101.273 Y88.708 E21.12834
G1 X101.424 Y90.210 E21.40843
G1 X101.668 Y91.606 E21.67142
G1 X102.051 Y93.155 E21.96755
G1 X102.526 Y94.589 E22.24796
G1 X103.145 Y96.082 E22.54783
G1 X102.808 Y96.331 E22.62557
G1 X102.494 Y96.071 E22.70134
G1 X101.438 Y95.574 E22.91782
G1 X100.292 Y95.355 E23.13429
G1 X99.163 Y95.426 E23.34424
G1 X98.024 Y95.786 E23.56596
G1 X97.204 Y96.306 E23.74610
G1 X103.363 Y94.278 F7800.000
G1 X102.909 Y92.907 E24.01401 F1800.000
G1 X102.542 Y91.422 E24.29799
G1 X102.309 Y90.088 E24.54919
G1 X102.165 Y88.652 E24.81698
G1 X102.128 Y87.175 E25.09128
G1 X102.193 Y85.770 E25.35230
G1 X102.366 Y84.337 E25.62001
G1 X102.643 Y82.921 E25.88772
G1 X103.023 Y81.530 E26.15542
G1 X103.503 Y80.170 E26.42314
G1 X104.083 Y78.847 E26.69104
G1 X104.804 Y77.498 E26.97502
G1 X105.523 Y76.350 E27.22622
G1 X106.376 Y75.187 E27.49393
G1 X107.312 Y74.090 E27.76164
G1 X108.326 Y73.063 E28.02935
G1 X109.413 Y72.114 E28.29706
G1 X110.566 Y71.247 E28.56477
G1 X111.779 Y70.467 E28.83247
G1 X113.048 Y69.777 E29.10053
G1 X114.512 Y69.128 E29.39774
G1 X115.715 Y68.687 E29.63553
G1 X117.102 Y68.290 E29.90324
G1 X118.516 Y67.996 E30.17115
G1 X120.034 Y67.802 E30.45512
G1 X121.385 Y67.723 E30.70633 F1800.000
G1 X122.828 Y67.745 E30.97404
G1 X124.265 Y67.872 E31.24174
G1 X125.688 Y68.104 E31.50945
G1 X127.091 Y68.439 E31.77716
G1 X128.466 Y68.877 E32.04487
G1 X129.805 Y69.414 E32.31258
G1 X131.101 Y70.047 E32.58029
G1 X132.347 Y70.774 E32.84800
G1 X133.537 Y71.590 E33.11571
G1 X134.665 Y72.492 E33.38362
